!!!!SEGMENT: pl-wtm--r-259-m--004_moniuszko-stanislaw--msza-credo.krn
!!!cenid: 18xx:2530
!!!COM: Moniuszko, Stanisław
!!!COM-rismid: pe30008351
!!!CDT: 1819/05/05-1872/06/04
!!!CNT: Polish
!!!OPR: Msza
!!!OTL: Credo
!!!OMV: 004
!!!PDT:
!!!AGN: Sacred; Mass
!!!SMS-siglum: PL-Wtm
!!!SMS-shelfmark: R 259/M
!!!SMS-shelfwork: 001-004 M
!!!SMS-variant:
!!!SMS-altvar:
!!!NIFC-rismid: 1001095367
!!!URL-scan: http://repozytorium.nifc.pl/skany/pl-wtm-nut--r259m
!!!ONB-nifc: UWAGA: części Mszy: 1. Kyrie, 2. Gloria, 3. Graduale, 4. Credo, 5. Offertorium, 6. Sanctus, 7. Benedictus, 8. Agnus
!!!OMD: Moderato.
**kern	**dynam	**kern	**dynam	**kern	**dynam	**kern	**dynam	**kern	**dynam	**kern	**kern	**dynam
*part6	*part6	*part5	*part5	*part4	*part4	*part3	*part3	*part2	*part2	*part1	*part1	*part1
*staff7	*	*staff6	*	*staff5	*	*staff4	*	*staff3	*	*staff2	*staff1	*
*I"CB.	*	*I"Vcelli CB.	*	*I"[Vla.]	*	*I"V. 2	*	*I"V 1.	*	*	*I"Organo.	*
*clefF4	*	*clefF4	*	*clefC3	*	*clefG2	*	*clefG2	*	*clefF4	*clefG2	*
*Trd0c0	*	*	*	*	*	*	*	*	*	*	*	*
*k[b-e-a-]	*	*k[b-e-a-]	*	*k[b-e-a-]	*	*k[b-e-a-]	*	*k[b-e-a-]	*	*k[b-e-a-]	*k[b-e-a-]	*
*E-:	*	*E-:	*	*E-:	*	*E-:	*	*E-:	*	*E-:	*E-:	*
*M4/4	*	*M4/4	*	*M4/4	*	*M4/4	*	*M4/4	*	*M4/4	*M4/4	*
*met(c)	*	*met(c)	*	*met(c)	*	*met(c)	*	*met(c)	*	*met(c)	*met(c)	*
*all\right	*	*all\right	*	*all\right	*	*all\right	*	*all\right	*	*all\right	*all\right	*
=1	=1	=1	=1	=1	=1	=1	=1	=1	=1	=1	=1	=1
!LO:TX:t=P:problem:klucz, znaki, metrum zapisane odnośnikiem do vlc	!	!	!	!	!	!LO:TX:t=P:problem:klucz, znaki, metrum zapisane odnośnikiem do vl 1	!	!LO:TX:t=V. 1.	!	!	!LO:TX:a:t=Moderato.:color=dodgerblue	!
1r	.	1r	.	1r	.	1r	.	1r	.	1ryy	2E-</ 2G< 2B-<	.
.	.	.	.	.	.	.	.	.	.	.	4G</ 4B-< 4e-	.
.	.	.	.	.	.	.	.	.	.	.	4B-/ 4e- 4g	.
=2	=2	=2	=2	=2	=2	=2	=2	=2	=2	=2	=2	=2
*	*	*	*	*	*	*	*	*	*	*^	*	*
*2\right	*	*	*	*	*	*	*	*	*	*2\right	*	*	*
!	!	!	!	!	!	!	!LO:DY:rj	!LO:TX:a:t=#:color=red	!LO:DY:rj	!	!	!	!
[2E-\	.	8E-\L	.	8E-/L	.	2e-/	mf	2g/ 2b-	mf	8ryy	[2EE-\	[2e-/ 2g 2b-	.
.	.	8BB-\	.	8B-/	.	.	.	.	.	8BB-/L	.	.	.
.	.	8E-\	.	8G/	.	.	.	.	.	8E-/	.	.	.
.	.	8G\J	.	8B-/J	.	.	.	.	.	8G/J	.	.	.
8E-\]	.	8e-\	.	8e-\	.	8B-/L	.	8G/L 8g	.	8B-/	8EE-\]	8e-/] 8g	.
8r	.	8r	.	8r	.	8e-/	.	8e-/	.	8r	8ryy	8e-/L	.
4r	.	4r	.	4r	.	8g/	.	8g/	.	4r	4ryy	8g/	.
.	.	.	.	.	.	8b-/J	.	8b-/J	.	.	.	8b-/J	.
=3	=3	=3	=3	=3	=3	=3	=3	=3	=3	=3	=3	=3	=3
*rep	*	*	*	*	*	*	*	*2\right	*	*	*	*2\right	*
[2E-\	.	8E-\L	.	8E-/L	.	2g/ 2b-	.	2g\ 2ee-	.	8r	[2EE-\	[<2e-\ [<2g 2ee-	.
.	.	8E-\	.	8E-/	.	.	.	.	.	8E-/L	.	.	.
.	.	8G\	.	8G/	.	.	.	.	.	8G/	.	.	.
.	.	8B-\J	.	8B-/J	.	.	.	.	.	8B-/J	.	.	.
8E-\]	.	8e-\	.	8e-\	.	8B-/L 8g	.	8b-/L	.	8E-/ 8G	8EE-\]	8e-/] 8g] 8b-	.
8r	.	8r	.	8r	.	8B-/	.	8B-/	.	8r	8ryy	8B-/L	.
4r	.	4r	.	4r	.	8e-/	.	8e-/	.	4r	4ryy	8G/	.
.	.	.	.	.	.	8f/J	.	8f/J	.	.	.	8B-/J	.
*Xrep	*	*	*	*	*	*	*	*	*	*	*	*	*
=4	=4	=4	=4	=4	=4	=4	=4	=4	=4	=4	=4	=4	=4
*	*	*	*	*	*	*	*	*	*	*	*	*^	*
*	*	*2\right	*	*2\right	*	*tremolo	*	*tremolo	*	*	*	*	*	*
1E-	.	2e-\	.	2e-\	.	8g/L	.	8g/L	.	2B-/	1E-	2g/	1e-	.
.	.	.	.	.	.	8B-/	.	8B-/	.	.	.	.	.	.
.	.	.	.	.	.	8g/	.	8g/	.	.	.	.	.	.
.	.	.	.	.	.	8B-/J	.	8B-/J	.	.	.	.	.	.
*	*	*	*	*	*	*Xtremolo	*	*Xtremolo	*	*	*	*	*	*
.	.	4c\	.	4c\	.	8a-/L	.	8a-/L	.	4c/	.	4a-/	.	.
.	.	.	.	.	.	8e-/	.	8e-/	.	.	.	.	.	.
.	.	4A-\	.	4A-/	.	8f/	.	8f/	.	4A-/	.	4f/	.	.
.	.	.	.	.	.	8b-/J	.	8b-/J	.	.	.	.	.	.
*	*	*	*	*	*	*	*	*	*	*	*	*v	*v	*
=5	=5	=5	=5	=5	=5	=5	=5	=5	=5	=5	=5	=5	=5
1E-	.	8G\L	.	8B-/	.	2e-/	.	2g/ 2b-	.	8G/	2EE-\	2e-/ 2b-	.
.	.	8BB-\	.	8B-/L	.	.	.	.	.	8BB-/L	.	.	.
.	.	8E-\	.	8E-/	.	.	.	.	.	8E-/	.	.	.
.	.	8G\J	.	8G/J	.	.	.	.	.	8G/J	.	.	.
.	.	8B-\	.	8B-/	.	8r	.	8r	.	8B-/	2E-\	8r	.
.	.	8r	.	8r	.	8B-/L	.	8B-/L	.	8ryy	.	8B-/L	.
.	.	4r	.	4r	.	8e-/	.	8e-/	.	4ryy	.	8e-/	.
.	.	.	.	.	.	8g/J	.	8g/J	.	.	.	8g/J	.
!!LO:PB:g=original
=6	=6	=6	=6	=6	=6	=6	=6	=6	=6	=6	=6	=6	=6
!	!	!	!	!	!	!	!	!LO:TX:t=P:problem:na marginesie opis instrumentu V. 1.	!	!	!	!	!
1GG	.	2d\	.	[2G\ 2d	.	8g/L	.	8b-/L	.	2ryy	1GG 1G	2d/ 2g 2b-	.
.	.	.	.	.	.	8d/	.	8d/	.	.	.	.	.
.	.	.	.	.	.	8g/	.	8b-/	.	.	.	.	.
.	.	.	.	.	.	8d/J	.	8g/J	.	.	.	.	.
.	.	4e-\	.	4G\] 4e-	.	8e-/L	.	8cc/L	.	4ryy	.	4e-/ 4g 4cc	.
.	.	.	.	.	.	8g/	.	8g/	.	.	.	.	.
!	!	!	!	!	!	!	!	!	!	!	!	!LO:SIC:v:n=1:s=4an	!
.	.	8d\L	.	8d\L	.	8f#X/	.	8an/	.	8d/L	.	4f#X/ 4a-	.
!	!	!	!	!	!	!	!	!LO:TX:a:t=#:color=red	!	!	!	!	!
.	.	8c\J	.	8c\J	.	8d/J	.	8d/J	.	8c/J	.	.	.
=7	=7	=7	=7	=7	=7	=7	=7	=7	=7	=7	=7	=7	=7
*	*	*	*	*	*	*	*	*	*	*	*	*^	*
!	!	!	!	!	!	!LO:TX:t=Col 1m	!	!	!	!	!	!	!	!
2G\	.	2G\	.	2B-\	.	8dd/Lyy	.	8dd/L	.	2B-/ 2d	2GG\	2dd/	1g	.
.	.	.	.	.	.	8b-/yy	.	8b-/	.	.	.	.	.	.
.	.	.	.	.	.	8g/yy	.	8g/	.	.	.	.	.	.
.	.	.	.	.	.	8d/Jyy	.	8d/J	.	.	.	.	.	.
4E-\	.	4E-\	.	4c\	.	8e-/Lyy	.	8e-/L	.	2c/	2E-\	2cc/	.	.
.	.	.	.	.	.	8g/yy	.	8g/	.	.	.	.	.	.
4C/	.	4C/	.	4e-\	.	8cc/yy	.	8cc/	.	.	.	.	.	.
.	.	.	.	.	.	8g/Jyy	.	8g/J	.	.	.	.	.	.
*	*	*	*	*	*	*	*	*	*	*	*	*v	*v	*
=8	=8	=8	=8	=8	=8	=8	=8	=8	=8	=8	=8	=8	=8
!	!	!LO:TX:t=Col CB	!	!	!	!	!	!	!	!	!	!	!
4D\	.	4D\yy	.	4g\	.	8b-/Lyy	.	8b-/L	.	4d/	4D\	4b-/	.
.	.	.	.	.	.	8d/yy	.	8d/	.	.	.	.	.
4G\	.	4G\yy	.	4B-/	.	8g/yy	.	8g/	.	4B-/	4G\	4g/	.
.	.	.	.	.	.	8d/Jyy	.	8d/J	.	.	.	.	.
4F\	.	4F\yy	.	2c\	.	8a-X/Lyy	.	8a-X/L	.	2c/	4F\	4a-X/	.
.	.	.	.	.	.	8f/yy	.	8f/	.	.	.	.	.
4E-\	.	4E-\yy	.	.	.	8b-/yy	.	8b-/	.	.	4E-\	8b-/L	.
.	.	.	.	.	.	8cc/Jyy	.	8cc/J	.	.	.	8cc/J	.
=9	=9	=9	=9	=9	=9	=9	=9	=9	=9	=9	=9	=9	=9
*	*	*	*	*	*	*	*	*	*	*	*	*^	*
4E-\	.	4E-\yy	.	8a-\L	.	8cc/Lyy	.	8cc/L	.	(2A-/	4E-\	(2cc/	N(2f\	.
.	.	.	.	8f\	.	8a-/yy	.	8a-/	.	.	.	.	.	.
8D\L	.	8D\Lyy	.	8c\	.	8f/yy	.	8f/	.	.	4D\	.	.	.
8F\J	.	8F\Jyy	.	8A-\J	.	8c/Jyy	.	8c/J	.	.	.	.	.	.
4B-\	.	4B-\yy	.	4F/	.	8d/Lyy	.	8d/L	.	4B-/)	2r	8d/L) 8a-	2ryy	.
.	.	.	.	.	.	8f/yy	.	8f/	.	.	.	8f/	.	.
4r	.	4ryy	.	4B-/	.	8B-/yy	.	8B-/	.	4r	.	8B-/	.	.
.	.	.	.	.	.	8b-/Jyy	.	8b-/J	.	.	.	8b-/JN)	.	.
*	*	*	*	*	*	*	*	*	*	*	*	*v	*v	*
=10	=10	=10	=10	=10	=10	=10	=10	=10	=10	=10	=10	=10	=10
[2E-\	.	8E-\L	.	8E-/L	.	2e-/	.	2g/ 2b-	.	8r	[2EE-\	(>2e-/ 2g 2b-	.
.	.	8BB-\	.	8B-/	.	.	.	.	.	8BB-/L	.	.	.
.	.	8E-\	.	8G/	.	.	.	.	.	8E-/	.	.	.
.	.	8G\J	.	8B-/J	.	.	.	.	.	8G/J	.	.	.
8E-\]	.	8e-\	.	8e-\	.	8B-/L	.	8G/L 8g	.	8B-/	8EE-\]	8e-/) 8g	.
8r	.	8r	.	8r	.	8e-/	.	8e-/	.	8r	8ryy	8e-\L	.
4r	.	4r	.	4r	.	8g/	.	8g/	.	4r	4ryy	8g\	.
.	.	.	.	.	.	8b-/J	.	8b-/J	.	.	.	8b-\J	.
=11	=11	=11	=11	=11	=11	=11	=11	=11	=11	=11	=11	=11	=11
*rep	*	*	*	*	*	*	*	*	*	*	*	*	*
[2E-\	.	8E-\L	.	8E-/L	.	2g/ 2b-	.	2g\ 2ee-	.	8r	[2EE-\	[2e-/ [2g 2ee-	.
.	.	8E-\	.	8E-/	.	.	.	.	.	8E-/L	.	.	.
.	.	8G\	.	8G/	.	.	.	.	.	8G/	.	.	.
.	.	8B-\J	.	8B-/J	.	.	.	.	.	8B-/J	.	.	.
8E-\]	.	8e-\	.	8e-\	.	8g/L	.	8b-/L	.	8G/	8EE-\]	8e-/] 8g] 8b-	.
8r	.	8r	.	8r	.	8B-/	.	8B-/	.	8r	8ryy	8B-/L	.
4r	.	4r	.	4r	.	8e-/	.	8e-/	.	4r	4ryy	8G/ 8e-	.
.	.	.	.	.	.	8f/J	.	8f/J	.	.	.	8f/J	.
*Xrep	*	*	*	*	*	*	*	*	*	*	*	*	*
!!LO:PB:g=original
=12	=12	=12	=12	=12	=12	=12	=12	=12	=12	=12	=12	=12	=12
!	!	!	!	!	!	!LO:TX:t=Col 1m	!	!	!	!	!	!	!
[>1D-X	.	[<1D-X	.	[<1D-X	.	8g/Lyy	.	8g/L	.	2B-/	[1DD-X [1D-X	(>2e-/ 2g	.
.	.	.	.	.	.	8B-/yy	.	8B-/	.	.	.	.	.
.	.	.	.	.	.	8e-/yy	.	8e-/	.	.	.	.	.
.	.	.	.	.	.	8g/Jyy	.	8g/J	.	.	.	.	.
.	.	.	.	.	.	8a-/Lyy	.	8a-/L	.	4A-/	.	4f/) 4a-	.
.	.	.	.	.	.	8d-X/yy	.	8d-X/	.	.	.	.	.
!	!	!	!	!	!	!	!	!	!	!	!	!LO:SIC:v:n=2:s=4d-	!
.	.	.	.	.	.	8f/yy	.	8f/	.	4ryy	.	4d/ 4f	.
.	.	.	.	.	.	8d-/Jyy	.	8d-/J	.	.	.	.	.
*	*	*	*	*	*	*	*	*	*	*v	*v	*	*
=13	=13	=13	=13	=13	=13	=13	=13	=13	=13	=13	=13	=13
*	*	*	*	*	*	*	*	*	*	*	*^	*
*rep	*	*rep	*	*rep	*	*	*	*	*	*	*	*	*
1D-]	.	1D-]	.	1D-]	.	8b-/Lyy	.	8b-/L	.	1DD-] 1D-]	1g 1b-	2e-\	.
.	.	.	.	.	.	8B-/yy	.	8B-/	.	.	.	.	.
.	.	.	.	.	.	8e-/yy	.	8e-/	.	.	.	.	.
.	.	.	.	.	.	8B-/Jyy	.	8B-/J	.	.	.	.	.
.	.	.	.	.	.	8f/Lyy	.	8f/L	.	.	.	4f\	.
.	.	.	.	.	.	8B-/yy	.	8B-/	.	.	.	.	.
.	.	.	.	.	.	8b-/yy	.	8b-/	.	.	.	4e-\	.
.	.	.	.	.	.	8g/Jyy	.	8g/J	.	.	.	.	.
*Xrep	*	*Xrep	*	*Xrep	*	*	*	*	*	*	*	*	*
=14	=14	=14	=14	=14	=14	=14	=14	=14	=14	=14	=14	=14	=14
*	*	*	*	*	*	*	*	*	*	*^	*	*	*
2C/	.	4C\	.	4C/	.	8b-/Lyy	.	8b-/L	.	2G/	2CC\ 2C	2b-/	2e-\	.
.	.	.	.	.	.	8e-/yy	.	8e-/	.	.	.	.	.	.
.	.	4G\	.	4G/	.	8g/yy	.	8g/	.	.	.	.	.	.
.	.	.	.	.	.	8b-/Jyy	.	8b-/J	.	.	.	.	.	.
2FF/	.	4F\	.	2F/	.	8cc/Lyy	.	8cc/L	.	2An/	2FF\	4cc/	2e-\	.
.	.	.	.	.	.	8e-X/yy	.	8e-X/	.	.	.	.	.	.
!	!	!	!	!	!	!	!	!LO:TX:b:t=f	!	!	!	!	!	!
.	.	4AAn/	.	.	.	8f/yy	.	8f/	.	.	.	4f/	.	.
.	.	.	.	.	.	8c/Jyy	.	8c/J	.	.	.	.	.	.
*	*	*	*	*	*	*	*	*	*	*	*	*v	*v	*
=15	=15	=15	=15	=15	=15	=15	=15	=15	=15	=15	=15	=15	=15
2BB-/	.	2BB-/	.	2B-/	.	8d/Lyy	.	8d/L	.	2d/	2BB-\	2.b-/ 2.dd	.
.	.	.	.	.	.	8f/yy	.	8f/	.	.	.	.	.
.	.	.	.	.	.	8b-/yy	.	8b-/	.	.	.	.	.
.	.	.	.	.	.	8dd/Jyy	.	8dd/J	.	.	.	.	.
2C/	.	2C/	.	2e-\	.	8dd/Lyy	.	8dd/L	.	2e-/	2C\	.	.
.	.	.	.	.	.	8e-/yy	.	8e-/	.	.	.	.	.
.	.	.	.	.	.	8a-X/yy	.	8a-X/	.	.	.	4a-X/ 4cc	.
.	.	.	.	.	.	8cc/Jyy	.	8cc/J	.	.	.	.	.
=16	=16	=16	=16	=16	=16	=16	=16	=16	=16	=16	=16	=16	=16
*	*	*	*	*	*	*	*	*	*	*	*	*^	*
!	!	!	!	!	!	!	!	!	!	!LO:TX:t=P:problem:cross-staff slur	!	!	!	!
2C#X/	.	2C#X/	.	2en\	.	8cc/Lyy	.	8cc/L	.	N(>2e/	2C#X\	4cc/	2g\	.
.	.	.	.	.	.	8g/yy	.	8g/	.	.	.	.	.	.
.	.	.	.	.	.	8b-/yy	.	8b-/	.	.	.	2b-/	.	.
.	.	.	.	.	.	8g/Jyy	.	8g/J	.	.	.	.	.	.
4D/	.	4D/	.	4f\	.	8b-/Lyy	.	8b-/L	.	4ryy	4D\	.	2f\N)	.
.	.	.	.	.	.	8f/yy	.	8f/	.	.	.	.	.	.
4Cn/	.	4Cn/	.	4c\	.	8a-/yy	.	8a-/	.	4c/	4Cn\	4a-/	.	.
.	.	.	.	.	.	8f/Jyy	.	8f/J	.	.	.	.	.	.
=17	=17	=17	=17	=17	=17	=17	=17	=17	=17	=17	=17	=17	=17	=17
*	*	*	*	*	*	*	*	*	*	*	*^	*	*	*
4BBn/	.	4BBn/	.	4d\	.	8g/Lyy	.	8g/L	.	(4d/	2G\	4BBn\	2g/	4f\	.
.	.	.	.	.	.	8f/yy	.	8f/	.	.	.	.	.	.	.
4C/	.	4C/	.	4c\	.	8e-/yy	.	8e-/	.	4c/)	.	4C\	.	[2e-\	.
.	.	.	.	.	.	8g/Jyy	.	8g/J	.	.	.	.	.	.	.
4GG/	.	4GG/	.	4e-\	.	8b-/Lyy	.	8b-/L	.	(4B-/	2C/	4GG\	4b-/	.	.
.	.	.	.	.	.	8B-/yy	.	8B-/	.	.	.	.	.	.	.
4AA-/	.	4AA-/	.	4E-/	.	8c/yy	.	8c/	.	4A-/)	.	4AA-\	4e-/	8e-\L]	.
.	.	.	.	.	.	8e-/Jyy	.	8e-/J	.	.	.	.	.	8c\J	.
*	*	*	*	*	*	*	*	*	*	*	*v	*v	*	*	*
!!LO:PB:g=original
=18	=18	=18	=18	=18	=18	=18	=18	=18	=18	=18	=18	=18	=18	=18
1BB-	.	1BB-	.	4e-\	.	8g/Lyy	.	8g/L	.	4B-/	1BB-	2g/	2.e-\	.
.	.	.	.	.	.	8B-/yy	.	8B-/	.	.	.	.	.	.
.	.	.	.	4G/	.	8e-/yy	.	8e-/	.	4G/	.	.	.	.
.	.	.	.	.	.	8g/Jyy	.	8g/J	.	.	.	.	.	.
.	.	.	.	2A-/	.	8f/Lyy	.	8f/L	.	2A-/	.	2f/	.	.
.	.	.	.	.	.	8d/yy	.	8d/	.	.	.	.	.	.
.	.	.	.	.	.	8B-/yy	.	8B-/	.	.	.	.	4d\	.
!	!	!	!	!	!	!	!	!	!	!	!	!	!LO:TX:t=P:problem:barlines.color=red	!
.	.	.	.	.	.	8f/Jyy	.	8f/J	.	.	.	.	.	.
*	*	*	*	*	*	*	*	*	*	*	*	*v	*v	*
=19	=19	=19	=19	=19	=19	=19	=19	=19	=19	=19	=19	=19	=19
!	!	!	!	!	!	!	!	!	!	!	!	!LO:TX:a:t=a:color=red	!
2E-\	.	4E-\	.	(8G/L	.	8G/L	.	4e-/	.	(<8G/L	2E-\	4e-/	.
.	.	.	.	8B-/	.	8B-/	.	.	.	8B-/	.	.	.
!	!	!	!	!	!	!	!	!LO:TX:t=P:problem:brak 8r	!	!	!	!	!
.	.	8r	.	8e-/)	.	8e-/J	.	8ryy	.	8e-/	.	8r	.
*	*	*clefC4	*	*	*	*	*	*	*	*	*	*	*
.	.	8g^\	.	8g/J	.	8r	.	8gg^\	.	8g/J	.	(8gg/	.
2r	.	(8f\L	.	(8f/L	.	2r	.	(8ff\L	.	8f/L	2r	8ff/L	.
.	.	8e-\	.	8e-/	.	.	.	8ee-\	.	8e-/	.	8ee-/	.
.	.	8d\	.	8d/	.	.	.	8dd\	.	8d/	.	8dd/	.
.	.	8c\J)	.	8c/J)	.	.	.	8cc\J)	.	8c/J)	.	8cc/J)	.
=20	=20	=20	=20	=20	=20	=20	=20	=20	=20	=20	=20	=20	=20
*	*	*	*	*	*	*	*	*	*	*	*	*^	*
2C/	.	4c\	.	8r	.	8r	.	4.b-/	.	2G-X/	2C\	4.b-/	[2e-\	.
.	.	.	.	8e-\	.	8e-/	.	.	.	.	.	.	.	.
*	*	*clefF4	*	*	*	*	*	*	*	*	*	*	*	*
.	.	4C/	.	8g-X\	.	8g-X/	.	.	.	.	.	.	.	.
.	.	.	.	8r	.	8r	.	8an/	.	.	.	8an/	.	.
2C-X/	.	2C-X/	.	8r	.	8r	.	4.a-X/	.	2F/	2C-X\	[2a-X/	4.e-\]	.
.	.	.	.	8e-\L	.	8e-/L	.	.	.	.	.	.	.	.
.	.	.	.	8f\	.	8f/	.	.	.	.	.	.	.	.
.	.	.	.	8d\J	.	8d/J	.	8a-/	.	.	.	.	8d\	.
=21	=21	=21	=21	=21	=21	=21	=21	=21	=21	=21	=21	=21	=21	=21
2BB-/	.	2BB-/	.	8r	.	8r	.	4.a-X/	.	2En/	2BB-\	4.a-/]	2d-X\	.
.	.	.	.	8d-X\	.	8d-X/	.	.	.	.	.	.	.	.
.	.	.	.	8B-\	.	8B-/	.	.	.	.	.	.	.	.
.	.	.	.	8r	.	8r	.	8g/	.	.	.	8g/	.	.
2AA-/	.	2AA-/	.	2c\	.	(8c/L	.	(8g/L	.	2F/	2AA-\	8g/L	2c\	.
.	.	.	.	.	.	8f/	.	8f/	.	.	.	8f/	.	.
.	.	.	.	.	.	8en/	.	8en/	.	.	.	8en/	.	.
.	.	.	.	.	.	8f/J)	.	8f/J)	.	.	.	8f/J	.	.
=22	=22	=22	=22	=22	=22	=22	=22	=22	=22	=22	=22	=22	=22	=22
4BB-/	.	4BB-/	.	4d-X\	.	8f/	.	4g/	.	4d/	4BB-\	4g/	2.f\	.
.	.	.	.	.	.	4f/	.	.	.	.	.	.	.	.
4C/	.	4C/	.	4c\	.	.	.	4a-/	.	4c/	4C\	4a-/	.	.
.	.	.	.	.	.	4f/	.	.	.	.	.	.	.	.
4D-X/	.	4D-X/	.	4B-\	.	.	.	4b-\	.	4B-/	4D-X\	4b-/	.	.
.	.	.	.	.	.	(8f/L	.	.	.	.	.	.	.	.
4C/	.	4C/	.	4G/	.	8en/)	.	4cc\	.	4G/	4C\	4cc/	4en\	.
.	.	.	.	.	.	8f/J	.	.	.	.	.	.	.	.
*	*	*	*	*	*	*	*	*	*	*	*	*v	*v	*
=23	=23	=23	=23	=23	=23	=23	=23	=23	=23	=23	=23	=23	=23
!	!	!LO:TX:t=P:problem:mixed beam	!	!	!	!LO:TX:t=P:problem:mixed beam	!	!	!	!	!	!	!
4FF/	.	8FF/L	.	4A-/	.	8f/L	.	4a-\	.	2ryy	4FF\	(8f/L 8a-	.
.	.	8C|/	.	.	.	8c|/	.	.	.	.	.	8c/	.
4r	.	8c|\J	.	8r	.	8cc|\J	.	8r	.	.	4r	8cc/J)	.
.	.	8r	.	8cc^\	.	8cc\	.	8ccc^\	.	.	.	8cc\ 8ccc	.
2r	.	2r	.	8b-\L	.	8b-/L	.	(8bb-\L	.	2F/ 2c	2r	8b-/L 8bb-	.
.	.	.	.	8a-\	.	8a-/	.	8aa-\	.	.	.	8a-/ 8aa-	.
.	.	.	.	8g\	.	8g/	.	8gg\	.	.	.	8g/ 8gg	.
.	.	.	.	8f\J	.	8f/J	.	8ff\J)	.	.	.	8f/J 8ff	.
!!LO:PB:g=original
=24	=24	=24	=24	=24	=24	=24	=24	=24	=24	=24	=24	=24	=24
*	*	*	*	*	*	*	*	*	*	*	*^	*^	*
!LO:TX:t=Col Vcelli	!	!	!	!	!	!	!	!	!	!	!	!	!LO:TX:t=P:problem:brace.color=green	!	!
2BB-/yy	.	2BB-/	.	4e-\	.	8r	.	4ee-\	.	(4c/	2F/	2BB-\	4ee-/	8e-\L	.
.	.	.	.	.	.	(8f/L	.	.	.	.	.	.	.	8f\	.
.	.	.	.	8d\L	.	8a-/	.	8ddn\L	.	8B-/L)	.	.	8ddn/L	8a-\	.
.	.	.	.	8a-^\J	.	8f/J)	.	8aa-^\J	.	8d/J	.	.	8aa-/J	8a-\J	.
2BBn/yy	.	2BBn/	.	(8g\L	.	8r	.	(8gg\L	.	2G/ 2d	2BBn\	2ryy	(8g/L 8gg	2ryy	.
.	.	.	.	8f\	.	(8d/L	.	8ff\	.	.	.	.	8f/ 8ff	.	.
.	.	.	.	8e-\	.	8g/)	.	8ee-\	.	.	.	.	8e-/ 8ee-	.	.
.	.	.	.	8d\J)	.	8g|/J	.	8dd\J)	.	.	.	.	8d/J) 8dd	.	.
*	*	*	*	*	*	*	*	*	*	*v	*v	*v	*	*	*
=25	=25	=25	=25	=25	=25	=25	=25	=25	=25	=25	=25	=25	=25
4C/yy	.	4C/	.	4.f^\	.	(8d/L	.	4.ff^\	.	1C	4.ff/	8f\L	.
.	.	.	.	.	.	8g/)	.	.	.	.	.	8g\	.
4ryy	.	4r	.	.	.	(8c/	.	.	.	.	.	8cc\	.
.	.	.	.	8e-\	.	8g/J)	.	8ee-\	.	.	8ee-/	8g\J	.
2C/yy	.	2C/	.	(4e-^\	.	(8e-/L	.	(8dd\L	.	.	(8e-/L 8dd	2ryy	.
.	.	.	.	.	.	8g/)	.	8cc\	.	.	8g/ 8cc	.	.
.	.	.	.	8d\L	.	(8g/	.	8b-\	.	.	8d/ 8b-	.	.
.	.	.	.	8c\J)	.	8e-/J)	.	8a-\J)	.	.	8c/J) 8a-	.	.
*	*	*	*	*	*	*	*	*	*	*	*v	*v	*
=26	=26	=26	=26	=26	=26	=26	=26	=26	=26	=26	=26	=26
*	*	*	*	*	*	*	*	*	*	*^	*	*
4D/	.	4D/	.	4.B-^\	.	(8B-^/L	.	(8g^/L	.	2D\	2ryy	4.B-/ 4.g	.
.	.	.	.	.	.	8d/	.	8B-/	.	.	.	.	.
4r	.	4r	.	.	.	8g/	.	8d/	.	.	.	.	.
.	.	.	.	8d\	.	8b-/J)	.	8g/J)	.	.	.	8g/ 8b-	.
2r	.	4D/	.	2d\	.	8g/L	.	(8b-/L	.	(<2d/	2r	8g/L 8b-	.
.	.	.	.	.	.	8f#X/	.	8an/	.	.	.	8f#X/ 8an	.
.	.	4r	.	.	.	8en/	.	8g/	.	.	.	8en/ 8g	.
.	.	.	.	.	.	8f#/J	.	8a/J)	.	.	.	8f#/J 8a	.
=27	=27	=27	=27	=27	=27	=27	=27	=27	=27	=27	=27	=27	=27
1ryy	.	4G\	.	8G/L	.	8g/L	.	8b-/L	.	8G/)	1r	2g/ 2b-	.
!	!	!	!	!	!	!LO:TX:a:t=B	!	!	!	!	!	!	!
.	.	.	.	8B-/	.	8B-/	.	8d/	.	8r	.	.	.
.	.	4r	.	8d/	.	8d/	.	8g/	.	4r	.	.	.
.	.	.	.	8g/J	.	8g/J	.	8b-/J	.	.	.	.	.
.	.	2f^\	.	2f^\	.	8b-/L	.	8dd\L	.	2f/	.	8b-/L 8dd	.
.	.	.	.	.	.	8an/	.	8cc\	.	.	.	8an/ 8cc	.
.	.	.	.	.	.	8g/	.	8b-\	.	.	.	8g/ 8b-	.
.	.	.	.	.	.	8a/J	.	8cc\J	.	.	.	8a/J 8cc	.
*	*	*	*	*	*	*	*	*	*	*	*ped	*	*
=28	=28	=28	=28	=28	=28	=28	=28	=28	=28	=28	=28	=28	=28
*	*	*	*	*	*	*	*	*	*	*	*	*	*
!	!LO:DY:rj	!	!LO:DY:rj	!	!LO:DY:rj	!LO:N:n=1:vis=8.	!LO:DY:rj	!	!LO:DY:rj	!	!	!	!LO:DY:rj
4.BB-/	f	8BB-/L	f	8B-^\L 8f	f	8d^/L 8b-	f	4.d^/ 4.dd	f	2B-/ 2d	4.BB-\	2f/ 2b- 2dd	f
.	.	8F/	.	8d\	.	8f/	.	.	.	.	.	.	.
.	.	8B-/J	.	8B-\J	.	8d/J	.	.	.	.	.	.	.
8B-^\	.	8B-^\	.	8B-/	.	8b-^/	.	8b-^/	.	.	8BB-\ 8B-	.	.
8F\L	.	8F^\L	.	8F^/L	.	8f^/L	.	8f^/L	.	4B-/	8FF\L 8F	4d/ 4f 4b-	.
8E-\	.	8E-^\	.	8E-^/	.	8e-^/	.	8e-^/	.	.	8EE-\ 8E-	.	.
8D\	.	8D^\	.	8D^/	.	8d^/	.	8d^/	.	8r	8DD\ 8D	8r	.
8C\J	.	8C^\J	.	8C^/J	.	8c^/J	.	8c^/J	.	8B-/ 8d	8CC\J 8C	8f/ 8b- 8dd 8ff	.
=29	=29	=29	=29	=29	=29	=29	=29	=29	=29	=29	=29	=29	=29
!	!	!	!	!	!	!LO:N:vis=8.	!	!	!	!	!	!	!
4.BB-/	.	8BB-/L	.	8f^\L	.	8d^/L 8dd	.	4.d^/ 4.b- 4.ff	.	4.B-/ 4.d	4.BBB-\ 4.BB-	4.f/ 4.b- 4.dd 4.ff	.
.	.	8F/	.	8b-\	.	8b-/	.	.	.	.	.	.	.
.	.	8B-/J	.	8f\J	.	8f/J	.	.	.	.	.	.	.
8d^\	.	8d^\	.	8d^\	.	8dd^\	.	8dd^\	.	8B-/ 8d	8D\	8f/ 8b- 8dd	.
8B-^\L	.	8B-^\L	.	8B-^/L	.	8b-^/L	.	8b-^/L	.	8B-/L 8d	8BB-\L	4f/ 4b- 4dd	.
8G^\	.	8G^\	.	8G^/	.	8g^/	.	8g^/	.	8G/	8GG\	.	.
8F^\	.	8F^\	.	8F^/	.	8f^/	.	8f^/	.	8F/	8FF\	4r	.
!	!	!	!	!	!	!	!	!LO:SIC:v:s=8e-^/J	!	!	!	!	!
8E-^\J	.	8E-^\J	.	8E-^/J	.	8e-^/J	.	8f^/J	.	8E-/J	8EE-\J	.	.
*	*	*	*	*	*	*	*	*	*	*v	*v	*	*
!!LO:PB:g=original
=30	=30	=30	=30	=30	=30	=30	=30	=30	=30	=30	=30	=30
!	!	!	!LO:DY:rj	!	!LO:DY:rj	!	!LO:DY:rj	!	!	!	!	!
4D\	.	8D\L	p	(8d\L	p	8r	p	4b-\	.	4DD\ 4D	1r	.
.	.	(8d\	.	8f\	.	(8f/L	.	.	.	.	.	.
4r	.	8e-\	.	8e-\	.	8g/	.	8cc\L	.	4r	.	.
.	.	8d\J)	.	8d\J)	.	8f/J)	.	8dd\J	.	.	.	.
2r	.	8c\	.	(8c\L	<	(8e-/L	.	4.ee-\	.	2r	.	.
!	!	!	!	!	!	!	!LO:HP:a	!	!	!	!	!
.	.	8r	.	8g\	.	8g/	<	.	.	.	.	.
.	.	8F\	.	8f\	.	8an/	.	.	.	.	.	.
.	.	8r	.	8an\J)	[[	8cc/J)	[	8ee-\	.	.	.	.
=31	=31	=31	=31	=31	=31	=31	=31	=31	=31	=31	=31	=31
*	*	*	*	*	*	*	*	*	*	*^	*	*
!	!LO:DY:rj	!	!LO:DY:rj	!	!LO:DY:rj	!	!LO:DY:rj	!	!LO:DY:rj	!	!	!	!
4.BB-^/	f	8BB-\L	f	8b-\L	f	8b-/L	f	4.dd^\	f	2B-/ 2d	4BB-\	2f/ 2b- 2dd	.
.	.	8F\	.	8f\	.	8f/	.	.	.	.	.	.	.
.	.	8d\J	.	8d\J	.	8d/J	.	.	.	.	8r	.	.
8B-^\	.	8B-^\	.	8B-^/	.	8b-^/	.	8b-^/	.	.	8BB-\ 8B-	.	.
!	!	!	!	!	!	!	!	!	!	!LO:N:vis=4	!	!LO:N:vis=4	!
8F^\L	.	8F^\L	.	8F^/L	.	8f^/L	.	8f^/L	.	4.B-/	8FF\L 8F	4.d/ 4.f 4.b-	.
8E-^\	.	8E-^\	.	8E-^/	.	8e-^/	.	8e-^/	.	.	8EE-\ 8E-	.	.
8D^\	.	8D^\	.	8D^/	.	8d^/	.	8d^/	.	.	8DD\ 8D	.	.
8C^\J	.	8C^\J	.	8C^/J	.	8c^/J	.	8c^/J	.	8B-/	8CC\J 8C	8f/ 8b- 8ff	.
=32	=32	=32	=32	=32	=32	=32	=32	=32	=32	=32	=32	=32	=32
*	*	*	*	*	*	*	*	*	*	*	*	*^	*
*	*	*	*	*	*	*	*	*	*	*	*	*	*^	*
!	!	!	!	!	!	!	!	!LO:N:n=2:vis=4	!	!	!	!	!	!	!
!	!	!	!	!	!	!	!	!LO:N:n=1:vis=4	!	!	!	!	!	!	!
4BB-/	.	8BB-\L	.	8f\L	.	8d^/L 8b-	.	2d^>/ 2b- 2ff	.	4.d/	2BB-\	2ff/	2b-\ [2dd	2f\	.
.	.	8F\J	.	8d\	.	8f/	.	.	.	.	.	.	.	.	.
4B-^\	.	4B-^\	.	8b-\	.	8dd/	.	.	.	.	.	.	.	.	.
.	.	.	.	8d\J	.	8b-/J	.	.	.	8e-/	.	.	.	.	.
4An^\	.	4An^\	.	8d\L	.	8dd/L	.	2ff#X\	.	8d/L	4AAn\	2ff#X/	4.dd\]	2f#X\	.
.	.	.	.	8c\	.	8cc/	.	.	.	8c/	.	.	.	.	.
4A-X^\	.	4A-X^\	.	8Bn\	.	8bn/	.	.	.	8Bn/	4AA-X\	.	.	.	.
.	.	.	.	8c\J	.	8cc/J	.	.	.	8c/J	.	.	8cc\	.	.
*	*	*	*	*	*	*	*	*	*	*	*	*	*v	*v	*
=33	=33	=33	=33	=33	=33	=33	=33	=33	=33	=33	=33	=33	=33	=33
4G\	.	8G\L	.	8d\L	.	8bn/L	.	4.gg\	.	2d/	1GG	4.gg/	2.g\ 2.bn	.
.	.	8D\	.	8dd\	.	8dd/	.	.	.	.	.	.	.	.
4r	.	8Bn\J	.	8g\	.	8g/	.	.	.	.	.	.	.	.
.	.	8r	.	8bn\J	.	8b/J	.	8dd\	.	.	.	8dd/	.	.
2G\	.	2G\	.	8d\L	.	8d/L	.	8dd\	.	4G/	.	8dd/	.	.
.	.	.	.	8g\	.	8g/	.	8r	.	.	.	8r	.	.
.	.	.	.	8Bn\	.	8Bn/	.	4dd\	.	4Bn/	.	4dd/	4g\	.
.	.	.	.	8g\J	.	8g/J	.	.	.	.	.	.	.	.
=34	=34	=34	=34	=34	=34	=34	=34	=34	=34	=34	=34	=34	=34	=34
1GG	.	1GG	.	8g\L	.	8g/L	.	4ee-\	>	4c/	1GG	4g/ 4ee-	2ryy	.
.	.	.	.	8e-\	>	8c/	>	.	.	.	.	.	.	.
.	.	.	.	8f\	.	8d/	.	8dd\L	.	4G/	.	8d/L 8dd	.	.
.	.	.	.	8g\J	.	8e-/J	.	8cc\J	.	.	.	8e-/J 8cc	.	.
.	.	.	.	8a-\L	.	8f/L	.	4.cc\	.	4r	.	4.cc/	8f\L 8a-	.
.	.	.	.	8d\	.	8d/	.	.	.	.	.	.	8d\J	.
.	.	.	.	8Bn\	.	8Bn/	]	.	.	4Bn/	.	.	4g\	.
!	!	!	!	!	!	!	!	!	!	!	!	!LO:TX:t=P:problem:barlines.color=red	!	!
.	.	.	.	8G\J 8g	]	8G/J 8g	.	8dd\	]]	.	.	8dd/	.	.
=35	=35	=35	=35	=35	=35	=35	=35	=35	=35	=35	=35	=35	=35	=35
!	!	!	!	!	!	!	!	!	!	!	!	!LO:TX:a:t=E:color=red	!	!
4C/	.	4CC/	.	(8G/L 8g	.	(8G/L 8g	.	4ee-\	.	4c/	4CC\	4ee-/	8g\L	.
.	.	.	.	8e-/	.	8e-/	.	.	.	.	.	.	8e-\	.
4r	.	4r	.	8c/J)	.	8c/J)	.	4r	.	4r	4ryy	4r	8g\	.
.	.	.	.	8r	.	8r	.	.	.	.	.	.	8cc\J	.
!	!	!	!LO:DY:a	!	!LO:DY:a	!	!LO:DY:a	!	!LO:DY:a:rj	!	!	!LO:TX:t=P:problem:mixed beam	!	!LO:DY:rj
2C/	pp	2E-\	pp	2A-/	pp	2e-/	pp	4.ee-\	pp	8E-/L	2C\	8ee-\L	2ryy	p
.	.	.	.	.	.	.	.	.	.	8E-/	.	8e-/	.	.
.	.	.	.	.	.	.	.	.	.	8A-/	.	8a-/	.	.
.	.	.	.	.	.	.	.	8a-/	.	8E-/J	.	8e-/J	.	.
*	*	*	*	*	*	*	*	*	*	*	*	*v	*v	*
!!LO:PB:g=original
=36	=36	=36	=36	=36	=36	=36	=36	=36	=36	=36	=36	=36	=36
2BB-/	.	4D-X\	.	2A-/	.	2.f/	.	4.dd-X\	.	8D-X/L	2BB-\	8dd-X/L	.
.	.	.	.	.	.	.	.	.	.	8F/	.	8f/	.
.	.	4F\	.	.	.	.	.	.	.	8A-/	.	8a-/	.
.	.	.	.	.	.	.	.	8f/	.	8F/J	.	8f/J	.
2E-\	.	2E-\	.	2B-/	.	.	.	(8e-/L	.	8BB-/L	2EE-\	8d-X/L	.
.	.	.	.	.	.	.	.	8g/	.	8F/	.	8f/	.
.	.	.	.	.	.	4g/	.	8b-/	.	8G/	.	8g/	.
.	.	.	.	.	.	.	.	8dd-/J)	.	8E-/J	.	8e-/J	.
=37	=37	=37	=37	=37	=37	=37	=37	=37	=37	=37	=37	=37	=37
2AA-/	.	2AA-/	.	(4B-/	.	(4g/	.	(4dd-X\	.	8AA-/L	2AA-\	8c/L	.
.	.	.	.	.	.	.	.	.	.	8E-/	.	8e-/	.
.	.	.	.	8A-/)	.	8a-/)	.	8cc\)	.	8A-/	.	8a-/	.
.	.	.	.	8r	.	8r	.	8r	.	8E-/J	.	8e-/J	.
2A-\	.	2A-\	.	2c\	.	2f/	.	4.cc\	.	8A-/L	2AA-\	8cc/L	.
.	.	.	.	.	.	.	.	.	.	8C/	.	8c/	.
.	.	.	.	.	.	.	.	.	.	8F/	.	8f/	.
.	.	.	.	.	.	.	.	8f/	.	8C/J	.	8c/J	.
=38	=38	=38	=38	=38	=38	=38	=38	=38	=38	=38	=38	=38	=38
4A-^\	.	4A-^\	.	2d-X\	.	2f/	.	4..b-\	.	8AA-/L	4AA-\	8d-X/L	.
.	.	.	.	.	.	.	.	.	.	8A-/	.	8f/	.
8.G\L	.	8.G\L	.	.	.	.	.	.	.	8.G/	8.GG\L	8d-/	.
.	.	.	.	.	.	.	.	.	.	.	.	8f/J	.
16F\Jk	.	16F\Jk	.	.	.	.	.	16b-\	.	16F/Jk	16FF\Jk	.	.
2C/	.	2C\	.	8G/L	.	8g/L	.	4.b-\	.	8G/L	2C\	8g/L	.
.	.	.	.	8C/	.	8f/J	.	.	.	8C/	.	8f/	.
.	.	.	.	8c/	.	4en/	.	.	.	8c/	.	8en/	.
.	.	.	.	8C/J	.	.	.	8cc\	.	8C/J	.	8cc/J	.
=39	=39	=39	=39	=39	=39	=39	=39	=39	=39	=39	=39	=39	=39
8F\	.	8F\L	.	8F/L	.	4f/	.	4a-/	.	8F/L	1r	2f/ 2a-	.
8r	.	8A-\	.	8A-/	.	.	.	.	.	8A-/	.	.	.
4r	.	8c\J	.	8c/J	.	8r	.	8r	.	8c/J	.	.	.
.	.	8r	.	8r	.	8f/	.	8a-/	.	8r	.	.	.
2r	.	8E-\L	.	8E-/L	.	8a-/L	.	8cc\L	.	8E-/L	.	8a-/L 8cc	.
.	.	8B-\	.	8B-/	.	8g/	.	8b-\	.	8B-/	.	8g/ 8b-	.
.	.	8e-\J	.	8e-/J	.	8f/	.	8a-\	.	8e-/J	.	8f/ 8a-	.
.	.	8r	.	8r	.	8g/J	.	8b-\J	.	8r	.	8g/J 8b-	.
=40	=40	=40	=40	=40	=40	=40	=40	=40	=40	=40	=40	=40	=40
*	*	*	*	*	*	*	*	*	*	*	*	*^	*
1r	.	2A-\	.	8c\L	.	8a-/L	.	4cc\	.	2A-/	1r	4.cc/	8a-\L	.
.	.	.	.	8e-\	.	8e-/	.	.	.	.	.	.	8e-\	.
.	.	.	.	8g\	.	8g/	.	8r	.	.	.	.	8g\	.
!	!	!	!	!LO:TX:b:t=cres_cen_do:problem:dynamics with extention lines:ext=ud:color=dodgerblue	!	!	!	!LO:TX:b:t=cres_cen_di:problem:dynamics with extention lines:ext=ud:color=dodgerblue	!	!	!	!	!	!
!	!	!	!	!	!LO:HP:t=cres_cen_do:ext:ud:color=dodgerblue	!	!	!	!LO:HP:t=cres_cen_di:ext:ud:color=dodgerblue	!	!	!	!	!
.	.	.	.	8f#X\J	<	8f#X/J	.	8cc\	<	.	.	8ee-/	8f#X\J	.
!	!	!	!	!	!	!	!	!	!	!LO:N:n=1:vis=2	!	!	!	!
.	.	8G\	.	8g\	.	8g/	.	8ee-\L	.	8G/L 8c	.	8ee-/L	2g\	.
.	.	8r	.	4g\	.	4g/	.	8ddn\	.	8Bn/	.	8ddn/	.	.
.	.	(4G^\	.	.	.	.	.	8cc\	.	8An/	.	8cc/	.	.
.	.	.	.	(8g\	.	[8g/	.	8dd\J	.	8B/J	.	8dd/J	.	.
=41	=41	=41	=41	=41	=41	=41	=41	=41	=41	=41	=41	=41	=41	=41
1r	.	4c\)	.	8cc\)	.	8g/]	.	8ee-\	.	4c/	1r	2ee-/	8g\L	.
.	.	.	.	4cc\	.	4g/	.	4ee-\	.	.	.	.	8e-\	.
.	.	(4c^\	.	.	.	.	.	.	.	(<4c/	.	.	8g\	.
.	.	.	.	4cc\	.	4g/	.	8ee-\	.	.	.	.	8cc\J	.
.	.	4B-\)	.	.	.	.	.	8een\	.	4B-/)	.	2een/	8g\L	.
.	.	.	.	4cc\	.	4g/	.	4ee\	.	.	.	.	8cc\	.
.	.	(4B-^\	.	.	.	.	.	.	.	(<4B-/	.	.	8g\	.
.	.	.	.	[8cc\	.	8g/	.	(8ee\	.	.	.	.	8cc\J	.
*	*	*	*	*	*	*	*	*	*	*v	*v	*	*	*
=42	=42	=42	=42	=42	=42	=42	=42	=42	=42	=42	=42	=42	=42
*	*	*	*	*rep	*	*	*	*	*	*	*	*	*
!	!	!	!	!	!	!	!	!	!	!LO:ACC:color=dodgerblue	!LO:TX:t=P:problem:mixed beam	!	!
1r	.	4An\)	.	8cc\]	.	8f/	.	8ff\)	.	4An/)	2ff/	8f\L	.
.	.	.	.	4cc\	[	4f/	.	4ff\	[	.	.	8cc\	.
.	.	(4A^\	.	.	.	.	.	.	.	(4A/	.	8c/	.
.	.	.	.	4cc\	.	(8c/	.	(8ff\	.	.	.	8cc\J	.
.	.	4A-X\)	.	.	.	8d/)	.	8ff#X\)	.	4A-X/)	2ff#X/	8cc\L	.
.	.	.	.	4cc\	.	4d/ 4dd	.	4ff#\	.	.	.	8cc\	.
!	!	!	!	!	!	!	!	!	!	!LO:TX:t=P:problem:łuk	!	!	!
.	.	4A-^\	.	.	.	.	.	.	.	4A-@/	.	8dd\	.
.	.	.	.	8cc\	.	8d/ 8dd	.	8ff#\	.	.	.	8cc\J	.
*	*	*	*	*Xrep	*	*	*	*	*	*	*	*	*
*	*	*	*	*	*	*	*	*	*	*	*v	*v	*
!!LO:PB:g=original
=43	=43	=43	=43	=43	=43	=43	=43	=43	=43	=43	=43	=43
*	*	*	*	*	*	*	*	*	*	*ped	*	*
!	!	!	!	!	!LO:DY:rj	!	!LO:DY:rj	!	!LO:DY:rj	!	!	!LO:DY:rj
2GG/	.	8GG/L	.	8G^\ 8d 8bn	ff	8G/ 8d 8bn	ff	4.d\ 4.bn 4.gg	f	1GG 1D 1G 1Bn 1d	[>2g\ [>2bn [>2dd 2gg	f
!	!	!	!	!LO:S:color=dodgerblue	!	!LO:S:color=dodgerblue	!	!	!	!	!	!
.	.	16BBn/L	.	(16Bn\LL	.	(16Bn/LL	.	.	.	.	.	.
.	.	16D/JJ	.	16d\JJ)	.	16d/JJ)	.	.	.	.	.	.
.	.	8G\L	.	8g\L	.	8g/L	.	.	.	.	.	.
.	.	8Bn\J	.	8B\J	.	8B/J	.	8G/ 8d	.	.	.	.
4GG/	.	8d\L	.	8Bn\L	.	8d/L	.	8G/L 8g	.	.	2g\] 2b] 2dd]	.
.	.	16Bn\L	.	8d\	.	8g/	.	8d/ 8bn	.	.	.	.
.	.	16G\JJ	.	.	.	.	.	.	.	.	.	.
4GG/	.	8D/L	.	8g\	.	8bn/	.	8d/ 8dd	.	.	.	.
.	.	8GG/J	.	8G\J 8g	.	8d/J 8b	.	8d/J 8dd	.	.	.	.
=44	=44	=44	=44	=44	=44	=44	=44	=44	=44	=44	=44	=44
*	*	*	*	*	*	*	*	*	*	*	*^	*
!	!	!LO:ACC:color=dodgerblue	!	!	!	!	!	!	!	!LO:ACC:n=4:color=dodgerblue	!	!LO:ACC:n=2:color=dodgerblue	!
2AAn/	.	8AAn/L	.	8A-\L 8f#X	.	8d/L 8cc	.	4.d^/ 4.dd	.	1AA- 1D 1F#X 1An 1c	4.dd/	[2f#X\ [2an 2cc	.
!	!	!	!	!LO:S:color=dodgerblue	!	!LO:S:color=dodgerblue	!	!	!	!	!	!	!
.	.	16D/L	.	(16d\L	.	(16d/L	.	.	.	.	.	.	.
.	.	16F#X/JJ	.	16f#\JJ)	.	16f#X/JJ)	.	.	.	.	.	.	.
!	!	!LO:ACC:color=dodgerblue	!	!LO:ACC:color=dodgerblue	!	!LO:ACC:color=dodgerblue	!	!	!	!	!	!	!
.	.	8An/L	.	8an\L	.	8an/L	.	.	.	.	.	.	.
.	.	8F#/J	.	8f#\J	.	8f#/J	.	8ee-\	.	.	8ee-/	.	.
4AA/	.	8d/L	.	8d\L 8dd	.	8dd\L	.	8dd\L	.	.	4dd/	2f#\] 2a]	.
!	!	!	!	!	!	!	!	!LO:ACC:color=dodgerblue	!	!	!	!	!
.	.	16A/L	.	16a\L	.	16a\L	.	8an\	.	.	.	.	.
.	.	16F#/JJ	.	16f#\JJ	.	16f#\JJ	.	.	.	.	.	.	.
4AA/	.	8D/L	.	8d\L	.	8d/L	.	8dd\	.	.	8dd/L	.	.
.	.	8AA/J	.	8e-X\J	.	8cc/J	.	8ee-X\J	.	.	8ee-X/J	.	.
=45	=45	=45	=45	=45	=45	=45	=45	=45	=45	=45	=45	=45	=45
2AA-X/	.	8AA-X/L	.	8c^\ 8f	.	8f^\ 8cc 8ff	.	4.cc^\ 4.ff	.	1AA-X 1C 1Fn 1A-X 1c	2ff/	[2fn\ [2a-X 2cc	.
.	.	16C/L	.	16c\LL	.	16c/LL	.	.	.	.	.	.	.
.	.	16F/JJ	.	16f\JJ	.	16f/JJ	.	.	.	.	.	.	.
.	.	8A-X\L	.	8a-X\L	.	8a-X/L	.	.	.	.	.	.	.
.	.	8F\J	.	8f\J	.	8f/J	.	8c/	.	.	.	.	.
4AA-/	.	8c\L	.	8c\L	.	8cc/L	.	8c/L 8f	.	.	4.cc/	2f\] 2a-]	.
.	.	16A-\L	.	16a-\L	.	16a-/L	.	8c/ 8a-X	.	.	.	.	.
.	.	16F\JJ	.	16f\JJ	.	16f/JJ	.	.	.	.	.	.	.
4AA-/	.	8C/L	.	8f\L	.	8a-/L	.	8a-/ 8cc	.	.	.	.	.
.	.	8AA-/J	.	8a-\J	.	8f/J	.	8d/J 8dd	.	.	8dd/	.	.
=46	=46	=46	=46	=46	=46	=46	=46	=46	=46	=46	=46	=46	=46
*	*	*	*	*	*	*	*	*	*	*^	*	*	*
!	!	!	!	!	!	!	!	!	!	!	!	!LO:N:n=1:vis=2	!	!
2GG/	.	8GG/L	.	8e-\L	.	8b-/L	.	4.e-^\ 4.ee-	.	2E-/ 2G 2B-	2GG\	(4.b-/ 4.ee-	4.e-\	.
.	.	16BB-/L	.	16B-\L	.	16B-/L	.	.	.	.	.	.	.	.
.	.	16E-/JJ	.	16e-\JJ	.	16e-/JJ	.	.	.	.	.	.	.	.
!	!	!LO:TX:t=P:problem:mixed beam	!	!	!	!	!	!	!	!	!	!	!	!
.	.	8G/L	.	8g\L	.	8g/L	.	.	.	.	.	.	.	.
.	.	8GG/J	.	8f\J	.	8b-/J	.	8ff\	.	.	.	8ff/	8f\	.
!	!	!	!	!LO:TX:t=P:problem:♭ above	!	!	!	!	!	!LO:N:vis=8	!	!	!	!
!	!	!	!	!LO:ACC:color=dodgerblue	!	!	!	!	!	!LO:ACC:color=dodgerblue	!LO:ACC:color=dodgerblue	!	!	!
4AA-X/	.	8AA-X/L	.	8A-X'/L	.	8cc/	.	8ee-\L	.	4A-X/	4AA-X\	8e-/) 8cc 8ee-	2ryy	.
!	!	!	!	!	!	!	!	!	!	!	!	!	!	!LO:DY:rj
.	.	(8AA-^/	.	(8A-^/	.	4e-/ 4cc	.	8cc\	.	.	.	8r	.	p
4GG/	.	8GG/)	.	8G/)	.	.	.	8g\	.	4G/	4GG\	4e-/ 4cc	.	.
.	.	(8GG^/J	.	8G^/J	.	8e-/ 8cc	.	8cc\J	.	.	.	.	.	.
=47	=47	=47	=47	=47	=47	=47	=47	=47	=47	=47	=47	=47	=47	=47
*	*	*	*	*	*	*	*	*	*	*	*^	*	*	*
*	*	*	*	*	*	*tremolo	*	*	*	*	*	*	*	*	*
!	!	!	!	!	!	!	!	!LO:ACC:color=dodgerblue	!	!	!	!	!	!	!
!	!	!	!	!	!	!	!	!LO:S:color=dodgerblue	!	!	!	!	!	!	!
4FF#X/	.	4FF#X/)	.	8A-/	.	8e-/L	.	(8an/L	>	4F#X/	4FF#X\	2ryy	(>2an/	(>4c\	.
.	.	.	.	8r	.	8c/	.	8c/	.	.	.	.	.	.	.
4r	.	4r	.	4e-^\	.	8e-/	.	8e-/	]	4r	4r	.	.	4e-\	.
.	.	.	.	.	.	8c/J	.	8c/J)	.	.	.	.	.	.	.
*	*	*	*	*	*	*Xtremolo	*	*	*	*	*	*	*	*	*
!	!	!	!LO:DY:rj	!	!	!	!	!LO:S:color=dodgerblue	!	!	!	!	!	!	!
2r	.	2D\	p	8d\L	.	8d/L	.	(8d/L	p	8rB	2rFF	2D\	4fn/)	[>2d\)	.
.	.	.	.	8c\	.	8f#X/	.	8f#X/	.	8c/L	.	.	.	.	.
.	.	.	.	8B-\	.	8d/	.	8d/	.	8B-/	.	.	4r	.	.
!	!	!	!	!LO:ACC:color=dodgerblue	!	!LO:ACC:color=dodgerblue	!	!	!	!LO:ACC:color=dodgerblue	!	!	!	!	!
.	.	.	.	8An\J	.	8an/J	.	8dd/J)	.	8An/J	.	.	.	.	.
*	*	*	*	*	*	*	*	*	*	*	*v	*v	*	*	*
=48	=48	=48	=48	=48	=48	=48	=48	=48	=48	=48	=48	=48	=48	=48
!	!LO:DY:rj	!	!	!LO:TX:t=P:problem:mixed beam	!	!	!	!LO:S:color=dodgerblue	!	!	!	!	!	!
8G\	p	(4c\	.	(8G/L	.	8g/L	.	(8dd/L	.	(4c/	8G\	8d/L]	2ryy	.
8r	.	.	.	8G/	.	(8G/	.	8d/J)	.	.	8r	8G/	.	.
4r	.	8B-\)	.	8g\	.	8g/	.	4dd^\	.	2.B-/)	4r	8g/	.	.
.	.	8r	.	8G/J)	.	8G/J)	.	.	.	.	.	8G/J	.	.
!	!	!	!	!	!	!LO:S:color=dodgerblue	!	!LO:S:color=dodgerblue	!	!	!	!	!	!
(4C/	.	(4C/	.	2B-/	.	(8en/L	.	(8cc\L	.	.	4C\	8en/L	2B-\	.
.	.	.	.	.	.	8g/	.	8b-\	.	.	.	8g/	.	.
!	!	!	!	!	!	!	!	!LO:ACC:color=dodgerblue	!	!	!	!	!	!
4C#X/)	.	4C#X/)	.	.	.	8e/	.	8an\	.	.	4C#X\	8e/	.	.
.	.	.	.	.	.	8g/J)	.	8g\J)	.	.	.	8g/J	.	.
!!LO:PB:g=original
=49	=49	=49	=49	=49	=49	=49	=49	=49	=49	=49	=49	=49	=49	=49
8D\	.	8D\	.	8d\	.	8g/	.	8b-\	.	1D	1r	2g/ 2b-	2.d\	.
8r	.	8r	.	4d\	.	4b-/	.	4dd\	.	.	.	.	.	.
*rep	*	*rep	*	*	*	*	*	*	*	*	*	*	*	*
8D\	.	8D\	.	.	.	.	.	.	.	.	.	.	.	.
8r	.	8r	.	4d\	.	8g/	.	8b-\	.	.	.	.	.	.
*Xrep	*	*Xrep	*	*	*	*	*	*	*	*	*	*	*	*
*rep	*	*rep	*	*	*	*	*	*	*	*	*	*	*	*
!	!	!	!	!	!	!	!	!LO:ACC:color=dodgerblue	!	!	!	!LO:ACC:n=2:color=dodgerblue	!	!
8D\	.	8D\	.	.	.	8f#X/	.	8an\	.	.	.	2f#X/ 2an	.	.
8r	.	8r	.	(8d\L	.	4f#/	.	4dd\	.	.	.	.	.	.
*Xrep	*	*Xrep	*	*	*	*	*	*	*	*	*	*	*	*
*rep	*	*rep	*	*	*	*	*	*	*	*	*	*	*	*
8D\	.	8D\	.	8c\J)	.	.	.	.	.	.	.	.	4c\	.
!	!	!	!	!	!	!	!	!	!	!	!	!	!LO:TX:t=P:problem:barlines.color=red	!
8r	.	8r	.	8c\	.	8d/	.	8f#X/	.	.	.	.	.	.
*Xrep	*	*Xrep	*	*	*	*	*	*	*	*	*	*	*	*
*	*	*	*	*	*	*	*	*	*	*	*	*v	*v	*
=50	=50	=50	=50	=50	=50	=50	=50	=50	=50	=50	=50	=50	=50
!LO:TX:t=Col Vcelli	!	!	!	!	!	!	!	!	!	!	!	!LO:TX:a:t=J:color=red	!
!	!	!	!	!	!	!LO:S:color=dodgerblue	!	!LO:S:color=dodgerblue	!	!	!	!	!
4ryy	.	4r	.	8B-/	.	(8g/L	.	(8g/L	.	1G	1r	1B- 1g	.
.	.	.	.	8r	.	8d/	.	8d/	.	.	.	.	.
4G^yy	.	4G^\	.	4G^/	.	8B-/	.	8B-/	.	.	.	.	.
.	.	.	.	.	.	8d/J)	.	8d/J)	.	.	.	.	.
!LO:S:color=dodgerblue	!LO:DY:rj	!LO:S:color=dodgerblue	!LO:DY:rj	!LO:S:color=dodgerblue	!	!LO:S:color=dodgerblue	!	!LO:S:color=dodgerblue	!	!	!	!	!
(8F\Lyy	py	(8F\L	p	(8F/L	.	(8B-/L	.	(8B-/L	.	.	.	.	.
8E-\yy	.	8E-\	.	8E-/	.	8d/	.	8d/	.	.	.	.	.
8D\yy	.	8D\	.	8D/	.	8B-/	.	8B-/	.	.	.	.	.
8C\J)yy	.	8C\J)	.	8C/J)	.	8d/J)	.	8d/J)	.	.	.	.	.
=51	=51	=51	=51	=51	=51	=51	=51	=51	=51	=51	=51	=51	=51
*	*	*	*	*	*	*	*	*	*	*	*	*^	*
2BB-/yy	.	2BB-/	.	8G/	.	8d/	.	4g/	<	2.G\	1r	2.g/	2d\	.
.	.	.	.	4G/	.	4d/	.	.	.	.	.	.	.	.
.	.	.	.	.	.	.	.	8.an/L	.	.	.	.	.	.
.	.	.	.	8d'\	.	8d'/	.	.	.	.	.	.	.	.
.	.	.	.	.	.	.	.	16b-/Jk	[	.	.	.	.	.
4AAn/yy	.	4AAn/	.	(8e-^\L	.	(8e-^/L	.	8cc\	.	.	.	.	2e-\	.
.	.	.	.	8g\	.	8g/	.	4cc\	.	.	.	.	.	.
4D/yy	.	4D/	.	8f#X\)	.	8f#X/)	.	.	.	4An\	.	4f#X/	.	.
.	.	.	.	8An\J	.	8f#/J	.	8cc\	.	.	.	.	.	.
=52	=52	=52	=52	=52	=52	=52	=52	=52	=52	=52	=52	=52	=52	=52
!	!	!	!	!	!	!	!	!LO:TX:t=P:problem:mixed beam	!	!	!	!	!	!
4GG/yy	.	4GG/	.	(8G/L	.	(8g/L	.	(8cc^>\L	.	1B-	1r	2g/	1d	.
.	.	.	.	8d/J)	.	8d/	.	8d/	.	.	.	.	.	.
8ryy	.	8r	.	8r	.	8g/	.	8b-\)	.	.	.	.	.	.
8B-^\yy	py	8B-^\	p	8B-^/	.	8d/J)	.	8d/J	.	.	.	.	.	.
!LO:S:color=dodgerblue	!	!LO:S:color=dodgerblue	!	!LO:S:color=dodgerblue	!	!LO:ACC:color=dodgerblue	!	!	!	!	!	!	!	!
(8An\Lyy	.	(8An\L	.	(8An/L	.	(8fn/L	.	(8f/L	.	.	.	2fn/	.	.
8G\yy	.	8G\	.	8G/	.	8d/	.	8d/	.	.	.	.	.	.
8F\yy	.	8F\	.	8F/	.	8f/)	.	8f/)	.	.	.	.	.	.
8E-\J)yy	.	8E-\J)	.	8E-/J)	.	[8f/J	.	8f/J	.	.	.	.	.	.
=53	=53	=53	=53	=53	=53	=53	=53	=53	=53	=53	=53	=53	=53	=53
2D\yy	.	2D\	.	8D/	.	8f/]	.	4b-\	<	2.B-/	1r	2.b-/	2f\	.
.	.	.	.	4B-/	.	4f/	.	.	.	.	.	.	.	.
.	.	.	.	.	.	.	.	8.cc\L	.	.	.	.	.	.
.	.	.	.	8B-|/	.	(8f/	.	.	.	.	.	.	.	.
.	.	.	.	.	.	.	.	16dd\Jk	[	.	.	.	.	.
4C\yy	.	4C\	.	8B-|/	.	8g|/)	.	8ee-\	.	.	.	.	4g\	.
.	.	.	.	(8B-/L	.	(8g/L	.	4ee-\	.	.	.	.	.	.
!	!	!	!	!	!	!	!	!	!	!	!	!LO:ACC:color=dodgerblue	!	!
4FF/yy	.	4FF/	.	8An/)	.	8f/)	.	.	.	4c/	.	4an/	4f\	.
.	.	.	.	8A/J	.	8f/J	.	8ee-\	.	.	.	.	.	.
=54	=54	=54	=54	=54	=54	=54	=54	=54	=54	=54	=54	=54	=54	=54
*	*	*	*	*	*	*	*	*	*	*	*^	*	*	*
!	!	!	!	!	!	!	!	!LO:TX:a:t=piu lento:color=dodgerblue	!	!	!	!	!	!	!
1BB-yy	.	1BB-	.	(8B-/L	.	8r	.	(4ee-^\	.	2BB-/ 2F 2B-	2ryy	1rFF	4b-/	1d	.
.	.	.	.	8f/	.	(8f/L	.	.	.	.	.	.	.	.	.
.	.	.	.	8b-/	.	8b-/	.	8dd\L)	.	.	.	.	4r	.	.
.	.	.	.	8f/J)	.	8f/J)	.	8ff^\J	.	.	.	.	.	.	.
.	.	.	.	(8g/L	.	(8g/L	.	(8ee-\L	.	[2G/	2G\	.	2r	.	.
.	.	.	.	8f/	.	8f/	.	8dd\	.	.	.	.	.	.	.
.	.	.	.	8d/	.	8d/)	.	8cc\	.	.	.	.	.	.	.
.	.	.	.	8G/J)	.	8d/J	.	8b-\J)	.	.	.	.	.	.	.
*	*	*	*	*	*	*	*	*	*	*	*	*	*v	*v	*
!!LO:PB:g=original
=55	=55	=55	=55	=55	=55	=55	=55	=55	=55	=55	=55	=55	=55	=55
!	!	!	!	!	!	!	!	!	!	!LO:TX:t=P:problem:brak zakończenia ligatury	!	!	!	!
!	!	!	!	!	!	!	!	!	!	!LO:N:vis=1	!	!	!	!
4.C\yy	.	4.C\	.	(8e-\L	.	(8e-/L	.	4b-/	.	2G/]	4.C\	1rFF	1r	.
.	.	.	.	8c\	.	8c/	.	.	.	.	.	.	.	.
.	.	.	.	8G\	.	8e-/)	.	8an/L	.	.	.	.	.	.
8E-\yy	.	8E-\	.	8c\J)	.	8g/J	.	8cc/J	.	.	8E-\	.	.	.
!	!	!	!	!LO:ACC:color=dodgerblue	!	!	!	!	!	!	!	!	!	!
4.D\yy	.	4.D\	.	(8An/L	.	(8f#X/L	.	(8dd^\L	.	2D/	4.D\	.	.	.
.	.	.	.	8d/	.	8an/	.	8cc\	.	.	.	.	.	.
.	.	.	.	8A/)	.	8d/)	.	8b-\	.	.	.	.	.	.
8FF#X/yy	.	8FF#X/	.	8A'/J	.	8d|/J	.	8a\J)	.	.	8FF#X\	.	.	.
=56	=56	=56	=56	=56	=56	=56	=56	=56	=56	=56	=56	=56	=56	=56
!LO:TX:a:t=g:color=red	!	!	!	!	!	!	!	!	!	!	!	!	!	!
4GG/	.	2GG/	.	(8B-/L	.	(8B-/L	.	4.b-\	.	2D/	2GG\	1rFF	1r	.
.	.	.	.	8d/	.	8d/	.	.	.	.	.	.	.	.
4r	.	.	.	8g/	.	8g/	.	.	.	.	.	.	.	.
.	.	.	.	8G/J)	.	8G/J)	.	(8g^/	.	.	.	.	.	.
2r	.	2CC/	.	(8B-/L	.	(8B-^/L	.	8f#X^/L	.	2ryy	2CC\	.	.	.
.	.	.	.	8An/	.	8An/	.	8fn^/	.	.	.	.	.	.
.	.	.	.	8c/	.	8c/	.	8en^/	.	.	.	.	.	.
.	.	.	.	8G/J)	.	8G/J)	.	8e-X^/J)	.	.	.	.	.	.
=57	=57	=57	=57	=57	=57	=57	=57	=57	=57	=57	=57	=57	=57	=57
*	*	*	*	*	*	*	*	*	*	*	*	*	*^	*
!	!	!	!	!	!	!	!	!LO:S:color=dodgerblue	!	!	!	!	!LO:TX:a:t=md.	!	!
4D/	.	4DD/	.	(8D/L	.	(8B-/L	.	(8d/L	.	4ryy	4DD\	1rFF	2r	N[4G</ N[4B-<	.
.	.	.	.	8G/)	.	8G/)	.	8G/)	.	.	.	.	.	.	.
!	!	!	!	!	!	!	!	!LO:ART:color=dodgerblue	!	!LO:TX:a:t=mg.	!	!	!	!	!
8.BB-/L	.	8.BB-/L	.	8.B-^/	.	8.B-^/	.	8.B-^/	.	4G/N] 4B-N]	4r	.	.	4ryy	.
16GG/Jk	.	16GG/Jk	.	16G/Jk	.	16G/Jk	.	16G/Jk	.	.	.	.	.	.	.
!	!	!	!	!	!	!LO:SIC:v:s=4An	!	!	!	!LO:SIC:n=1:v:s=4An	!	!	!LO:TX:a:t=md.	!	!
4D/	.	4D/	.	4F#X/	.	4A-/	.	4d/	.	4F#X/ 4A-	2r	.	2d\ 2dd	2ryy	.
4GG/	.	4GG/ 4D	.	4G/	.	4B-/	.	4G/	.	4G/ 4B-	.	.	.	.	.
*	*	*	*	*	*	*	*	*	*	*	*v	*v	*	*	*
*	*	*	*	*	*	*	*	*	*	*	*	*v	*v	*
=58	=58	=58	=58	=58	=58	=58	=58	=58	=58	=58	=58	=58	=58
!LO:TX:t=Col Vcelli	!	!	!	!	!	!LO:TX:t=Col 1m	!	!	!	!	!	!	!
8C|\Lyy	.	8C|\L	.	8C|/L	.	8c|/Lyy	.	8c|/L	.	2G/ 2c	8CC\L	2e-/ 2g 2b-	.
8D|\yy	.	8D|\	.	8D|/	.	8d|/yy	.	8d|/	.	.	8DD\	.	.
8E-|\yy	.	8E-|\	.	8E-|/	.	8e-|/yy	.	8e-|/	.	.	8EE-\	.	.
8F|\Jyy	.	8F|\J	.	8F|/J	.	8f|/Jyy	.	8f|/J	.	.	8FF\J	.	.
!	!	!	!	!	!	!	!	!	!	!	!	!LO:SIC:v:n=2:s=2g	!
8G\Lyy	.	8G\L	.	8G/L	.	8g|/Lyy	.	8g|/L	.	2G/ 2B-	8GG\L	2d/ 2f 2b-	.
8F#X\yy	.	8F#X\	.	8F#X/	.	8f#X|/yy	.	8f#X|/	.	.	8FF#X\	.	.
8G\yy	.	8G\	.	8G/	.	8g|/yy	.	8g|/	.	.	8GG\	.	.
8B-\Jyy	.	8B-\J	.	8B-/J	.	8B-|/Jyy	.	8B-|/J	.	.	8BB-\J	.	.
*	*	*	*	*	*	*	*	*	*	*v	*v	*	*
=59	=59	=59	=59	=59	=59	=59	=59	=59	=59	=59	=59	=59
*	*	*	*	*	*	*	*	*	*	*	*^	*
!	!	!	!	!LO:TX:t=P:problem:mixed beam	!	!	!	!	!	!	!	!	!
8c\Lyy	.	8c\L	.	8c\L	.	8c|/Lyy	.	8c|/L	.	8C\L	2f#X/ 2an	4.e-\	.
8Bn\yy	.	8Bn\	.	8Bn\	.	8Bn|/yy	.	8Bn|/	.	8BBn\	.	.	.
8c\yy	.	8c\	.	8c\	.	8c|/yy	.	8c|/	.	8C\	.	.	.
8d\Jyy	.	8d\J	.	8D/J	.	8d|/Jyy	.	8d|/J	.	8D\J	.	16d\LL	.
.	.	.	.	.	.	.	.	.	.	.	.	16c\JJ	.
8e-\Lyy	.	8e-\L	.	8E-/L	.	8e-|/Lyy	.	8e-|/L	.	8E-\L	2g/	2B-\	.
8D\yy	.	8D\	.	8D/	.	8d|/yy	.	8d|/	.	8D\	.	.	.
8E-\yy	.	8E-\	.	8E-/	.	8e-|/yy	.	8e-|/	.	8E-\	.	.	.
8G\Jyy	.	8G\J	.	8G/J	.	8g|/Jyy	.	8g|/J	.	8G\J	.	.	.
*	*	*	*	*	*	*	*	*	*	*	*v	*v	*
!!LO:PB:g=original
=60	=60	=60	=60	=60	=60	=60	=60	=60	=60	=60	=60	=60
8B-\Lyy	.	8B-\L	.	8B-/L	.	8b-/Lyy	.	8b-/L	.	8B-\L	2d/ 2f	.
8F\yy	.	8F\	.	8F/	.	8f/yy	.	8f/	.	8F\	.	.
8D\yy	.	8D\	.	8D/J	.	8d/yy	.	8d/	.	8D\	.	.
8BB-\Jyy	.	8BB-\J	.	8r	.	8B-/Jyy	.	8B-/J	.	8BB-\J	.	.
8C\Lyy	.	8C\L	.	2r	.	8c/Lyy	.	8c/L	.	8C\L	2G/ 2e-	.
8BBn\yy	.	8BBn\	.	.	.	8Bn/yy	.	8Bn/	.	8BBn\	.	.
8C\yy	.	8C\	.	.	.	8c/yy	.	8c/	.	8C\	.	.
8C#X\Jyy	.	8C#X\J	.	.	.	8c#X/Jyy	.	8c#X/J	.	8C#X\J	.	.
=61	=61	=61	=61	=61	=61	=61	=61	=61	=61	=61	=61	=61
8D/L	.	8D/L	.	8d/L	.	8d/L	.	8d/	.	8D\L	2G</ 2B- 2d	.
8BB-/	.	8BB-/	.	8B-/	.	8B-/	.	8r	.	8BB-\	.	.
!LO:ACC:color=dodgerblue	!	!LO:ACC:color=dodgerblue	!	!LO:ACC:color=dodgerblue	!	!LO:ACC:color=dodgerblue	!	!	!	!LO:SIC:v:s=8AAn	!	!
8AAn/	.	8AAn/	.	8An/	.	8An/	.	4r	.	8AA-\	.	.
8GG/J	.	8GG/J	.	8G/J	.	8G/J	.	.	.	8GG\J	.	.
8D\	.	8DD/	.	8D/	.	8d/	.	2r	.	4DD\	4G</ 4An< 4d	.
8r	.	8r	.	8r	.	8r	.	.	.	.	.	.
8D\	.	8AA/	.	8D/	.	4r	.	.	.	4DD\ 4D	4F#X</ 4A< 4d	.
8r	.	8r	.	8r	.	.	.	.	.	.	.	.
=62	=62	=62	=62	=62	=62	=62	=62	=62	=62	=62	=62	=62
1GG;	.	1DD; 1BB-	.	1G;	.	1r;	.	1r;	.	1GG 1BB- 1D	1G<; 1B-<	.
=63||	=63||	=63||	=63||	=63||	=63||	=63||	=63||	=63||	=63||	=63||	=63||	=63||
*k[b-e-]	*	*k[b-e-]	*	*k[b-e-]	*	*k[b-e-]	*	*k[b-e-]	*	*k[b-e-]	*k[b-e-]	*
*M3/4	*	*M3/4	*	*M3/4	*	*M3/4	*	*M3/4	*	*M3/4	*M3/4	*
!	!	!	!	!	!	!	!	!	!	!	!LO:TX:a:t=Larghetti	!
2.r	.	2.r	.	2.r	.	2.r	.	2.r	.	2.r	2d/	.
.	.	.	.	.	.	.	.	.	.	.	4f/	.
=64	=64	=64	=64	=64	=64	=64	=64	=64	=64	=64	=64	=64
2.ryy	.	2.ryy	.	2.ryy	.	2.ryy	.	2.ryy	.	2.r	2g/	.
.	.	.	.	.	.	.	.	.	.	.	4b-/	.
=65	=65	=65	=65	=65	=65	=65	=65	=65	=65	=65	=65	=65
2.ryy	.	2.ryy	.	2.ryy	.	2.ryy	.	2.ryy	.	2.r	4.f/	.
.	.	.	.	.	.	.	.	.	.	.	8d/L	.
.	.	.	.	.	.	.	.	.	.	.	8B-/	.
.	.	.	.	.	.	.	.	.	.	.	8c/J	.
=66	=66	=66	=66	=66	=66	=66	=66	=66	=66	=66	=66	=66
2.ryy	.	2.ryy	.	2.ryy	.	2.ryy	.	2.ryy	.	2.r	2.d/	.
=67	=67	=67	=67	=67	=67	=67	=67	=67	=67	=67	=67	=67
*	*	*	*	*	*	*	*	*	*	*	*^	*
2.ryy	.	2.ryy	.	2.ryy	.	2.ryy	.	2.ryy	.	2.r	2g/	2.e-\	.
.	.	.	.	.	.	.	.	.	.	.	4b-/	.	.
=68	=68	=68	=68	=68	=68	=68	=68	=68	=68	=68	=68	=68	=68
2.r	.	2.r	.	2.r	.	2.r	.	2.r	.	2.r	2cc/	2a-X\	.
.	.	.	.	.	.	.	.	.	.	.	4ee-/	4g\	.
!!LO:PB:g=original
=69	=69	=69	=69	=69	=69	=69	=69	=69	=69	=69	=69	=69	=69
2.r	.	2.r	.	2.r	.	2.r	.	2.r	.	2.r	4.dd/	(>4f#X\	.
.	.	.	.	.	.	.	.	.	.	.	.	4g\)	.
.	.	.	.	.	.	.	.	.	.	.	8b-/L	.	.
.	.	.	.	.	.	.	.	.	.	.	8B-/ 8g	4ryy	.
.	.	.	.	.	.	.	.	.	.	.	8c/J 8a	.	.
=70	=70	=70	=70	=70	=70	=70	=70	=70	=70	=70	=70	=70	=70
*	*	*	*	*	*	*	*	*	*	*^	*	*	*
2.ryy	.	2.ryy	.	2.ryy	.	2.ryy	.	2.ryy	.	4.G\	2.r	2.b-/	8d\L	.
.	.	.	.	.	.	.	.	.	.	.	.	.	8e-\J	.
.	.	.	.	.	.	.	.	.	.	.	.	.	4d\	.
.	.	.	.	.	.	.	.	.	.	8D/	.	.	.	.
.	.	.	.	.	.	.	.	.	.	8BB-/L	.	.	4d\	.
.	.	.	.	.	.	.	.	.	.	8C/J	.	.	.	.
=71	=71	=71	=71	=71	=71	=71	=71	=71	=71	=71	=71	=71	=71	=71
2.ryy	.	2.ryy	.	2.ryy	.	2.ryy	.	2.ryy	.	2D/	2.r	4a/	2f\	.
.	.	.	.	.	.	.	.	.	.	.	.	4.ff/	.	.
.	.	.	.	.	.	.	.	.	.	4F/	.	.	4a\	.
.	.	.	.	.	.	.	.	.	.	.	.	8dd/	.	.
*	*	*	*	*	*	*	*	*	*	*	*	*v	*v	*
=72	=72	=72	=72	=72	=72	=72	=72	=72	=72	=72	=72	=72	=72
2.ryy	.	2.ryy	.	2.ryy	.	2.ryy	.	2.ryy	.	2G/	2.r	4b-/ 4dd	.
.	.	.	.	.	.	.	.	.	.	.	.	8a/L 8cc	.
.	.	.	.	.	.	.	.	.	.	.	.	8g/ 8b-	.
.	.	.	.	.	.	.	.	.	.	4B-/	.	8f/ 8a	.
.	.	.	.	.	.	.	.	.	.	.	.	8en/J 8g	.
=73	=73	=73	=73	=73	=73	=73	=73	=73	=73	=73	=73	=73	=73
*	*	*	*	*	*	*	*	*	*	*	*	*^	*
2.ryy	.	2.ryy	.	2.ryy	.	2.ryy	.	2.ryy	.	4.A/	2.r	8f/L	2d\	.
.	.	.	.	.	.	.	.	.	.	.	.	8g/J	.	.
.	.	.	.	.	.	.	.	.	.	.	.	4.f/	.	.
.	.	.	.	.	.	.	.	.	.	8F/L	.	.	.	.
.	.	.	.	.	.	.	.	.	.	8D/	.	.	4A\	.
.	.	.	.	.	.	.	.	.	.	8En/J	.	8g/	.	.
=74	=74	=74	=74	=74	=74	=74	=74	=74	=74	=74	=74	=74	=74	=74
2.ryy	.	2.ryy	.	2.ryy	.	2.ryy	.	2.ryy	.	4F/	2.r	2.a/	4d\	.
.	.	.	.	.	.	.	.	.	.	4En/	.	.	8c#X\L	.
.	.	.	.	.	.	.	.	.	.	.	.	.	8d\	.
.	.	.	.	.	.	.	.	.	.	4D/	.	.	8en\	.
.	.	.	.	.	.	.	.	.	.	.	.	.	8f\J	.
=75	=75	=75	=75	=75	=75	=75	=75	=75	=75	=75	=75	=75	=75	=75
!	!	!	!	!	!	!	!	!	!	!LO:N:n=2:vis=2	!	!	!	!
2.ryy	.	2.ryy	.	2.ryy	.	2.ryy	.	2.ryy	.	2.Cn/ 2.An	2.r	2.a/	4en\	.
.	.	.	.	.	.	.	.	.	.	.	.	.	4g\	.
.	.	.	.	.	.	.	.	.	.	.	.	.	4c\ 4f	.
=76	=76	=76	=76	=76	=76	=76	=76	=76	=76	=76	=76	=76	=76	=76
2.ryy	.	2.ryy	.	2.ryy	.	2.ryy	.	2.ryy	.	[<2BB-/	2.r	4b-/	2d\ 2f	.
.	.	.	.	.	.	.	.	.	.	.	.	4cc/	.	.
.	.	.	.	.	.	.	.	.	.	4BB-/] 4G	.	4dd/	4f\	.
=77	=77	=77	=77	=77	=77	=77	=77	=77	=77	=77	=77	=77	=77	=77
2.r	.	2.r	.	2.r	.	2.r	.	2.r	.	4.C/	2.r	2cc/	4.en\	.
.	.	.	.	.	.	.	.	.	.	8D/	.	.	8d\L	.
.	.	.	.	.	.	.	.	.	.	4En/	.	4c/ 4g	8c\	.
.	.	.	.	.	.	.	.	.	.	.	.	.	8B-\J	.
*	*	*	*	*	*	*	*	*	*	*	*	*v	*v	*
!!LO:PB:g=original
=78	=78	=78	=78	=78	=78	=78	=78	=78	=78	=78	=78	=78	=78
*	*	*	*	*	*	*	*	*	*	*	*^	*	*
2.ryy	.	2.ryy	.	2.ryy	.	2.ryy	.	2.ryy	.	(4A/	2F\	2.r	2.a/	.
.	.	.	.	.	.	.	.	.	.	4c/	.	.	.	.
.	.	.	.	.	.	.	.	.	.	4e-X>/)	4r	.	.	.
*	*	*	*	*	*	*	*	*	*	*v	*v	*v	*	*
*	*	*clefC4	*	*	*	*	*	*	*	*	*	*
=79	=79	=79	=79	=79	=79	=79	=79	=79	=79	=79	=79	=79
*	*	*	*	*	*	*	*	*	*	*^	*	*
!	!	!	!LO:DY:rj	!	!LO:DY:rj	!	!	!	!LO:DY:rj	!	!	!	!
2.r	.	2d^\	pp	2f^\	pp	2.r	.	2b-^/	pp	4d>\	2.r	4b-/	.
.	.	.	.	.	.	.	.	.	.	4ryy	.	4r	.
.	.	4e-\	.	4g-X\	.	.	.	4a/	.	4ryy	.	4r	.
*	*	*	*	*	*	*	*	*	*	*v	*v	*	*
=80	=80	=80	=80	=80	=80	=80	=80	=80	=80	=80	=80	=80
2.r	.	2d^\	.	2f^\	.	2.r	.	2b-^/	.	2.r	2.r	.
.	.	4e-\	.	4g-X\	.	.	.	4a/	.	.	.	.
=81	=81	=81	=81	=81	=81	=81	=81	=81	=81	=81	=81	=81
2.r	.	4.d^\	.	4.f^\	.	2.r	.	4.b-^/	.	2.r	2.r	.
.	.	8c|\L	.	8e-|\L	.	.	.	8f#X|/L	.	.	.	.
.	.	8Bn|\	.	8d|\	.	.	.	8g|/	.	.	.	.
.	.	8B-X|\J	.	8d-X|\J	.	.	.	8en|/J	.	.	.	.
=82	=82	=82	=82	=82	=82	=82	=82	=82	=82	=82	=82	=82
2.r	.	2A\	.	2c\	.	4r	.	4f/	.	2.r	2.r	.
.	.	.	.	.	.	4r	.	4r	.	.	.	.
.	.	4B-\	.	4d-X\	.	4en/	.	4r	.	.	.	.
*	*	*clefF4	*	*	*	*	*	*	*	*	*	*
=83	=83	=83	=83	=83	=83	=83	=83	=83	=83	=83	=83	=83
2.r	.	2A^\	.	2c^\	.	2f^/	.	2.r	.	2.r	2.r	.
.	.	4B-\	.	4d-X\	.	4en/	.	.	.	.	.	.
=84	=84	=84	=84	=84	=84	=84	=84	=84	=84	=84	=84	=84
2.r	.	2A^\	.	2c^\	.	2f^/	.	2.r	.	2.r	2.r	.
.	.	4A-X\	.	4c\	.	4f#X/	.	.	.	.	.	.
=85	=85	=85	=85	=85	=85	=85	=85	=85	=85	=85	=85	=85
2.r	.	4.G\	.	4.Bn/	.	4.g/	.	2.r	.	2.r	2.r	.
.	.	8G-X|\L	.	8B-X|/L	.	8en|/L	.	.	.	.	.	.
.	.	8F|\	.	8A|/	.	8fn|/	.	.	.	.	.	.
.	.	8BBn|\J	.	8A-X|/J	.	8d|/J	.	.	.	.	.	.
=86	=86	=86	=86	=86	=86	=86	=86	=86	=86	=86	=86	=86
2.r	.	2C/	.	2.G/	.	2e-X/	.	2.r	.	2.r	2.r	.
.	.	4D/	.	.	.	4d/	.	.	.	.	.	.
!!LO:PB:g=original
=87	=87	=87	=87	=87	=87	=87	=87	=87	=87	=87	=87	=87
2.r	.	2.E-^\	.	2.G^/	.	2.c#X^/	.	4r	.	2.r	2.r	.
.	.	.	.	.	.	.	.	4b-/	.	.	.	.
.	.	.	.	.	.	.	.	8a/L	.	.	.	.
.	.	.	.	.	.	.	.	8g/J	.	.	.	.
=88	=88	=88	=88	=88	=88	=88	=88	=88	=88	=88	=88	=88
*	*	*	*	*	*	*	*	*	*	*^	*	*
2.r	.	4D\	.	4A/	.	4d/	.	4f#X/	.	8r	2.r	2.r	p
.	.	.	.	.	.	.	.	.	.	(<8AA/L	.	.	.
.	.	4r	.	4r	.	4r	.	4r	.	8D/	.	.	.
.	.	.	.	.	.	.	.	.	.	8F#X/	.	.	.
.	.	4r	.	4r	.	4r	.	4r	.	8A/	.	.	.
.	.	.	.	.	.	.	.	.	.	8d/J)	.	.	.
=89	=89	=89	=89	=89	=89	=89	=89	=89	=89	=89	=89	=89	=89
2.r	.	2.C^/	.	2.A^/	.	2.f#X^/	.	4r	.	(2e-/	2.r	2.r	.
.	.	.	.	.	.	.	.	4ee-^\	.	.	.	.	.
.	.	.	.	.	.	.	.	8dd\L	.	4d/)	.	.	.
.	.	.	.	.	.	.	.	8cc\J	.	.	.	.	.
=90	=90	=90	=90	=90	=90	=90	=90	=90	=90	=90	=90	=90	=90
2.r	.	4GG/	.	4d\	.	4g/	.	2cc\	.	8r	2.r	2.r	.
.	.	.	.	.	.	.	.	.	.	(<8BB-/L	.	.	.
.	.	4r	.	4r	.	4r	.	.	.	8D/	.	.	.
.	.	.	.	.	.	.	.	.	.	8G/	.	.	.
.	.	4r	.	4r	.	4r	.	8b-/L	.	8B-/	.	.	.
.	.	.	.	.	.	.	.	8a/J	.	8A/J)	.	.	.
=91	=91	=91	=91	=91	=91	=91	=91	=91	=91	=91	=91	=91	=91
!	!	!	!LO:DY:rj	!	!LO:DY:rj	!	!LO:DY:rj	!	!LO:DY:rj	!	!	!	!
2.r	.	2G\	pp	2G/	pp	2g/	pp	2g/	pp	4G/	2.r	2.r	.
.	.	.	.	.	.	.	.	.	.	4r	.	.	.
.	.	4D\	.	4D/	.	4d/	.	4d/	.	4r	.	.	.
*	*	*	*	*	*	*	*	*	*	*v	*v	*	*
=92	=92	=92	=92	=92	=92	=92	=92	=92	=92	=92	=92	=92
2.r	.	2B-\	.	2B-/	.	2b-/	.	2b-/	.	2.r	2.r	.
.	.	8G\L	.	8G/L	.	4g/	.	4g/	.	.	.	.
.	.	8D\J	.	8D/J	.	.	.	.	.	.	.	.
=93	=93	=93	=93	=93	=93	=93	=93	=93	=93	=93	=93	=93
!	!LO:DY:rj	!	!	!	!	!	!	!	!	!LO:N:n=1:n=2:n=3:n=4:vis=2	!	!LO:DY:rj
2.BB-/	pp	2.BB-/	.	2.D/	.	2.f#X/	.	2.dd\	.	2.FF#X/ [2.BB-X 2.D 2.F#X	[2.B-X/ 2.d 2.f#X	pp
=94	=94	=94	=94	=94	=94	=94	=94	=94	=94	=94	=94	=94
4E-\	.	4BB-/	.	4E-/	.	4g/	.	4b-\	.	4GG/ 4BB-] 4E- 4G	4B-/] 4e- 4g	.
4r	.	4r	.	4r	.	4r	.	4r	.	4r	4r	.
4r	.	4r	.	4r	.	4r	.	4r	.	4r	4r	.
=95	=95	=95	=95	=95	=95	=95	=95	=95	=95	=95	=95	=95
!	!LO:DY:rj	!	!LO:DY:rj	!	!LO:DY:rj	!	!	!	!	!	!	!
2G\	pp	2G\	pp	2G/	pp	2.r	.	2.r	.	(>2G\	2.r	.
4D\	.	4B-\	.	4B-/	.	.	.	.	.	4D\	.	.
=96	=96	=96	=96	=96	=96	=96	=96	=96	=96	=96	=96	=96
2E-\	.	2c\	.	2c\	.	2.r	.	2.r	.	2E-\	2.r	.
4C\	.	4e-\	.	4e-\	.	.	.	.	.	4C/)	.	.
=97	=97	=97	=97	=97	=97	=97	=97	=97	=97	=97	=97	=97
!LO:TX:b:i:t=dalszy ciąg\ntego Numeru\nnastąpi.:color=dodgerblue	!	!	!	!	!	!	!	!	!	!	!	!
2.GG;/	.	2.D;\ 2.g	.	2.B-;/ 2.g	.	2.r;	.	2.r;	.	2.GG;/ 2.D	2.r;	.
!!LO:PB:g=original
=98||	=98||	=98||	=98||	=98||	=98||	=98||	=98||	=98||	=98||	=98||	=98||	=98||
*k[b-e-a-]	*	*k[b-e-a-]	*	*k[b-e-a-]	*	*k[b-e-a-]	*	*k[b-e-a-]	*	*k[b-e-a-]	*k[b-e-a-]	*
*M4/4	*	*M4/4	*	*M4/4	*	*M4/4	*	*M4/4	*	*M4/4	*M4/4	*
*met(c)	*	*met(c)	*	*met(c)	*	*met(c)	*	*met(c)	*	*met(c)	*met(c)	*
*	*	*	*	*	*	*	*	*	*	*^	*^	*
!LO:TX:t=Col Vcelli	!LO:DY:rj	!	!LO:DY:rj	!	!LO:DY:rj	!	!LO:DY:rj	!LO:TX:a:i:t=Allegro.	!LO:DY:rj	!	!	!LO:TX:a:t=Credo (&colon;ciąg dalszy&colon;):color=dodgerblue	!	!
4B-\yy	ff	4B-\	ff	4f\ 4b-	ff	4f/ 4b-	ff	4dd\	ff	4B-/	1r	2f/ 2b- 2dd	2ryy	.
8.A-\Lyy	.	8.A-\L	.	8.f\L 8.b-	.	8.f/L 8.b-	.	8.dd\L	.	4A-X/	.	.	.	.
16A-\Jkyy	.	16A-\Jk	.	16f\Jk 16b-	.	16f/Jk 16b-	.	16dd\Jk	.	.	.	.	.	.
4G\yy	.	4G\	.	4e-\ 4b-	.	4e-/ 4b-	.	4ee-\	.	4G/	.	4e-/ 4b- 4ee-	2e-\	.
4A-\yy	.	4A-\	.	4e-\	.	4a-/	.	4cc\	.	4A-/	.	4a-/ 4cc	.	.
*	*	*	*	*	*	*	*	*	*	*	*	*v	*v	*
=99	=99	=99	=99	=99	=99	=99	=99	=99	=99	=99	=99	=99	=99
4B-\yy	.	4B-\	.	4d\	.	4f/	.	4b-/	.	4B-/	1r	4d/ 4f 4b-	.
4E-\yy	.	4E-\	.	8.e-\L	.	8.e-/L	.	8.g/L	.	4E-/	.	8.e-/L 8.g	.
.	.	.	.	16e-\Jk	.	16e-/Jk	.	16e-/Jk	.	.	.	16e-/Jk	.
4A-\yy	.	4A-\	.	4e-\	.	4a-/	.	4cc\	.	4A-/	.	(4e-/ 4a- 4cc	.
4B-\yy	.	4B-\	.	4d\	.	4f/	.	4b-\	.	4B-/	.	4d/) 4f 4b-	.
=100	=100	=100	=100	=100	=100	=100	=100	=100	=100	=100	=100	=100	=100
2E-\yy	.	2E-\	.	2B-\ 2g 2ee-	.	2B-/ 2g 2ee-	.	2e-\ 2b- 2gg	.	2.G/ 2.B- 2.e-	2E-\	2g\ 2b- 2ee- 2gg	.
4GG/yy	.	4GG/	.	4e-\	.	4b-/	.	4ee-\	.	.	4GG\	4b-\ 4ee-	.
4AA-/yy	.	4AA-/	.	4e-\	.	4a-/	.	4cc\	.	4A-/ 4c 4e-	4AA-\	4a-/ 4cc	.
=101	=101	=101	=101	=101	=101	=101	=101	=101	=101	=101	=101	=101	=101
*	*	*	*	*	*	*	*	*	*	*	*	*^	*
1BB-yy	.	1BB-	.	2e-\	.	2g/	.	1b-	.	2e-/	1BB- 1B-	1b-	2g\	.
!	!	!	!	!	!	!	!	!	!	!LO:TX:t=P:problem:cross-staff slur	!	!	!	!
.	.	.	.	2d\	.	2f/	.	.	.	N(2d/	.	.	2e-\	.
*	*	*	*	*	*	*	*	*	*	*	*	*v	*v	*
=102||	=102||	=102||	=102||	=102||	=102||	=102||	=102||	=102||	=102||	=102||	=102||	=102||	=102||
!	!	!	!	!	!	!	!	!LO:TX:a:i:t=piu moſso	!	!	!	!LO:TX:a:i::t=piu mosso.	!
4E-\yy	.	4E-\	.	4e-\	.	4e-/	.	4e-/	.	4EE-\	4ryy	4e-/N)	.
(4E-^\yy	.	(4E-^\	.	4r	.	4r	.	4r	.	4E-/	4E-\	8g/L	.
.	.	.	.	.	.	.	.	.	.	.	.	8a-/J	.
4D\)yy	.	4D\)	.	2r	.	2r	.	2r	.	4D/	4D\	4b-/	.
!LO:ART:color=green	!	!LO:ART:color=green	!	!	!	!	!	!	!	!	!	!	!
4C^/yy	.	4C^/	.	.	.	.	.	.	.	4C/	4C\	8cc\L	.
.	.	.	.	.	.	.	.	.	.	.	.	8dd\J	.
=103	=103	=103	=103	=103	=103	=103	=103	=103	=103	=103	=103	=103	=103
!LO:ART:color=green	!	!LO:ART:color=green	!	!	!	!	!	!	!	!	!	!	!
4BBn^/yy	.	4BBn^/	.	1r	.	1r	.	1r	.	4BBn/	4BBn\	8dd\L	.
.	.	.	.	.	.	.	.	.	.	.	.	8ff\J	.
!LO:ART:color=green	!	!LO:ART:color=green	!	!	!	!	!	!	!	!	!	!	!
!LO:S:color=green	!	!LO:S:color=green	!	!	!	!	!	!	!	!	!	!	!
(4C^/yy	.	(4C^/	.	.	.	.	.	.	.	4C/	4C\	2ee-\	.
4GG/)yy	.	4GG/)	.	.	.	.	.	.	.	4GG/	4GG\	.	.
!LO:ART:color=green	!	!LO:ART:color=green	!	!	!	!	!	!	!	!	!	!	!
4AA-^/yy	.	4AA-^/	.	.	.	.	.	.	.	4AA-/	4AA-\	8dd\L	.
.	.	.	.	.	.	.	.	.	.	.	.	8cc\J	.
!!LO:PB:g=original
=104	=104	=104	=104	=104	=104	=104	=104	=104	=104	=104	=104	=104	=104
*	*	*	*	*	*	*	*	*	*	*	*	*^	*
!LO:TX:t=CB:color=green	!	!LO:TX:t=Vcelli:color=green	!	!	!	!	!	!	!	!	!	!	!	!
4BB-/yy	.	4BB-/	.	4r	.	4r	.	4b-\	.	4BB-/	4BB-\	4ryy	4ryy	.
4E-\yy	.	4E-\	.	4g\	.	4g/	.	8b-\L	.	4E-/	4E-\	8b-/L	4g\	.
.	.	.	.	.	.	.	.	8cc\J	.	.	.	8cc/J	.	.
4F\yy	.	4F\	.	4f\	.	4f/	.	4dd\	.	4F/	4F\	4dd/	4f\	.
8G\Lyy	.	8G\L	.	4e-\	.	4e-/	.	8ee-\L	.	4e-/	8G\L	8ee-/L	4ryy	.
8A-\Jyy	.	8A-\J	.	.	.	.	.	8ff\J	.	.	8A-\J	8ff/J	.	.
=105	=105	=105	=105	=105	=105	=105	=105	=105	=105	=105	=105	=105	=105	=105
4B-\yy	.	4B-\	.	4d\	.	4d/	.	8gg\L	.	4d/	4B-\	8gg/L	2ryy	.
.	.	.	.	.	.	.	.	8b-\J	.	.	.	8b-/J	.	.
4G\yy	.	4G\	.	4e-\	.	4e-/	.	2gg^\	.	4e-/	4G\	2g\ 2gg	.	.
!	!	!	!	!	!	!	!	!	!	!LO:N:vis=2	!	!	!	!
4A-\yy	.	4A-\	.	4c\	.	4c/	.	.	.	4c/	4A-\	.	4ryy	.
4An\yy	.	4An\	.	4f\	.	4f/	.	8ff\L	.	4An/	4An\	8ff/L	[4f\	.
.	.	.	.	.	.	.	.	8ee-\J	.	.	.	8ee-/J	.	.
=106	=106	=106	=106	=106	=106	=106	=106	=106	=106	=106	=106	=106	=106	=106
4B-\yy	.	4B-\	.	4d\	.	4d/	.	4dd\	.	4B-/	4B-\	4dd/	4f\]	.
4BB-/yy	.	4BB-/	.	8d\L	.	4b-^/	.	8b-\L	.	4BB-/	4BB-\	8d/L 8b-	4ryy	.
.	.	.	.	8e-\J	.	.	.	8cc\J	.	.	.	8e-/J 8cc	.	.
4F\yy	.	4F\	.	4f\	.	4a-^/	.	4dd\	.	4F/	4F\	4f/ 4a- 4dd	4ryy	.
8G\Lyy	.	8G\L	.	4e-\	.	4g^/	.	8ee-\L	.	4e-/	8G\L	8ee-/L	[4g\	.
8A-X\Jyy	.	8A-X\J	.	.	.	.	.	8ff\J	.	.	8A-\J	8ff/J	.	.
=107	=107	=107	=107	=107	=107	=107	=107	=107	=107	=107	=107	=107	=107	=107
!	!	!	!	!	!	!LO:SIC:v:s=4g/	!	!	!	!	!	!	!	!
4B-\yy	.	4B-\	.	4d\	.	4f/	.	4gg\	.	4d/	4B-\	4gg/	4g\]	.
!	!	!	!	!	!	!LO:SIC:v:s=4c^>/	!	!	!	!	!	!	!	!
4A-\yy	.	4A-\	.	2cc^\	.	4d^>/	.	2ccc^\	.	8d/L	4A-\ 4c	2cc\ 2ccc	4ryy	.
.	.	.	.	.	.	.	.	.	.	8c/J	.	.	.	.
!	!	!	!	!	!	!LO:SIC:v:s=4d^>/	!	!	!	!	!	!	!	!
4B-\yy	.	4B-\	.	.	.	4e-^>/	.	.	.	4d/	4B-\	.	4ryy	.
!	!	!	!	!	!	!LO:SIC:v:s=4e-^>/	!	!	!	!	!	!	!	!
8c\Lyy	.	8c\L	.	8b-\L	.	4f^>/	.	8bb-\L	.	8c/L 8e-	4BB-\	8bb-/L	[4b-\	.
8d\Jyy	.	8d\J	.	8a-\J	.	.	.	8aa-\J	.	8d/J 8f	.	8aa-/J	.	.
=108	=108	=108	=108	=108	=108	=108	=108	=108	=108	=108	=108	=108	=108	=108
8e-\yy	.	8e-\	.	8g\	.	8g/	.	8gg\	.	8e-/ 8g	8E-\	8gg/	8b-\]	.
8ryy	.	8r	.	8r	.	8r	.	8r	.	8r	8r	8r	8ryy	.
4E-^\yy	.	4E-^\	.	4e-^\	.	4b-^/	.	4gg^\	.	4B-/ 4e-	4EE-\ 4E-	4g^^\ 4b- 4ee- 4gg	4ryy	.
4D^\yy	.	4D^\	.	4f^\	.	4b-^/	.	4ff^\	.	4F/ 4B-	4DD\ 4D	4f^^\ 4b- 4ff	2ryy	.
4E-^\yy	.	4E-^\	.	4B-^/	.	4g^/	.	4ee-^\	.	4G/ 4B-	4EE-\ 4E-	4e-^^\ 4g 4b- 4ee-	.	.
*	*	*	*	*	*	*	*	*	*	*	*	*v	*v	*
=109	=109	=109	=109	=109	=109	=109	=109	=109	=109	=109	=109	=109	=109
4F^\yy	.	4F^\	.	4B-^/	.	4f^/	.	8dd^\L	.	4B-/ 4d	4FF\ 4F	8f\L 8b- 8dd	.
.	.	.	.	.	.	.	.	8ff\	.	.	.	8ff\	.
4G^\yy	.	4G^\	.	4B-^/	.	4en^/	.	8b-\	.	4G/ 4B- 4en	4GG\ 4BB-	8b-\	.
.	.	.	.	.	.	.	.	8dd\J	.	.	.	8dd\J	.
4F^\yy	.	4F^\	.	4.An^/	.	4.f^/	.	4.dd^\	.	2F/ 2An	2FF\	4.f/ 4.dd	.
4FF^/yy	.	4FF^/	.	.	.	.	.	.	.	.	.	.	.
.	.	.	.	8A/	.	8e-X/	.	8cc\	.	.	.	8e-/ 8cc	.
!!LO:PB:g=original
=110	=110	=110	=110	=110	=110	=110	=110	=110	=110	=110	=110	=110	=110
8BB-/yy	.	8BB-/	.	8B-/	.	8d/	.	8b-\	.	8BB-\ 8B-	4ryy	8d/ 8b-	.
8ryy	.	8r	.	8r	.	8r	.	8r	.	8r	.	8r	.
!	!	!	!	!	!	!	!	!LO:S:color=dodgerblue	!	!	!	!	!
4B-^\yy	.	4B-^\	.	4d^\	.	4d^/	.	(8.b-TT\L	.	4B-/ 4d	4BB-\	4b-/	.
.	.	.	.	.	.	.	.	32an\LL	.	.	.	.	.
.	.	.	.	.	.	.	.	32b-\JJJ	.	.	.	.	.
4An^\yy	.	4An^\	.	4c^\	.	4c^/	.	4cc\)	.	4An/ 4c	4AAn\	4cc/	.
4G^\yy	.	4G^\	.	4B-^\	.	4B-^/	.	4dd\	.	4G/ 4B-	4GG\	4dd/	.
=111	=111	=111	=111	=111	=111	=111	=111	=111	=111	=111	=111	=111	=111
!	!	!	!	!	!	!LO:SIC:v:s=4An/	!	!	!	!	!	!	!
4F#X\yy	.	4F#X\	.	4An/	.	4A-/	.	4r	.	4F#X/ 4An	4FF#X\	4r	.
4G\yy	.	4G\	.	4B-/	.	4B-/	.	2dd^\	.	4G/ 4B-	4GG\	2d/ 2dd	.
4D\yy	.	4D\	.	4F/	.	4r	.	.	.	4D/ 4Fn	4DD\	.	.
4E-\yy	.	4E-\	.	4G/	.	4G/	.	8cc\L	.	4E-/ 4G	4EE-\	8cc/L	.
.	.	.	.	.	.	.	.	8b-\J	.	.	.	8b-/J	.
=112	=112	=112	=112	=112	=112	=112	=112	=112	=112	=112	=112	=112	=112
*	*	*	*	*	*	*	*	*	*	*	*	*^	*
4F\yy	.	4F\	.	4An/	.	4An/	.	4an\	.	4An/	4FFn\ 4F	4an/	4ryy	.
!	!	!	!	!	!	!	!	!LO:S:color=dodgerblue	!	!	!	!	!	!
4d\yy	.	4d\	.	4f\	.	4f/	.	(8.dd^tt\L	.	4ryy	4D\	4dd/	4d\ 4f	.
.	.	.	.	.	.	.	.	32cc\LL	.	.	.	.	.	.
.	.	.	.	.	.	.	.	32dd\JJJ	.	.	.	.	.	.
4c\yy	.	4c\	.	4e-\	.	4e-/	.	4ee-\)	.	4ryy	4C\	4ee-/	4c\ 4e-	.
4B-\yy	.	4B-\	.	4d\	.	4d/	.	4ff\	.	4B-/ 4d	4BB-\	4ff/	4ryy	.
=113	=113	=113	=113	=113	=113	=113	=113	=113	=113	=113	=113	=113	=113	=113
4An\yy	.	4An\	.	4c\	.	4c/	.	4r	.	4An/ 4c	4AAn\	4r	2ryy	.
8B-\Lyy	.	8B-\L	.	8d\L	.	8d/L	.	2ff^\	.	8B-/L 8d	8BB-\L	2f/ 2ff	.	.
8A\Jyy	.	8A\J	.	8c\J	.	8c/J	.	.	.	8A/J 8c	8AA\J	.	.	.
4G\yy	.	4G\	.	4B-\	.	4B-/	.	.	.	4G/ 4B-	4GG\	.	4ryy	.
4B-\yy	.	4c\	.	4e-\	.	4e-/	.	8ee-\L	.	4c/	4C\	8ee-/L	4e-\	.
.	.	.	.	.	.	.	.	8dd\J	.	.	.	8dd/J	.	.
=114	=114	=114	=114	=114	=114	=114	=114	=114	=114	=114	=114	=114	=114	=114
4An\	.	4An\	.	4f\	.	4f/	.	4cc\	.	4F/ 4An	4FF\	4cc/	4f\	.
4r	.	4f\	.	4f\	.	4r	.	8f/L	.	4f/	4r	(8f/L	4ryy	.
.	.	.	.	.	.	.	.	8g/J	.	.	.	8g/J	.	.
2r	.	4e-\	.	4e-\	.	2r	.	8an\L	.	4e-/	2r	8an/L	2ryy	.
.	.	.	.	.	.	.	.	8b-\	.	.	.	8b-/	.	.
.	.	4d\	.	4d\	.	.	.	8cc\	.	4d/	.	8cc/	.	.
.	.	.	.	.	.	.	.	8dd\J	.	.	.	8dd/J	.	.
*	*	*	*	*	*	*	*	*	*	*	*	*v	*v	*
=115	=115	=115	=115	=115	=115	=115	=115	=115	=115	=115	=115	=115	=115
*	*	*	*	*	*	*	*	*	*	*	*^	*	*
1r	.	4c\	.	4c\	.	4r	.	4ee-\	.	4c/	4ryy	1rFF	8ee-\)	.
.	.	.	.	.	.	.	.	.	.	.	.	.	8r	.
.	.	4B-\	.	4B-/	.	4g^/	.	2gg^\	.	(4g/	(4B-\	.	2gg\	.
*	*	*2\left	*	*	*	*	*	*	*	*	*	*	*	*
.	.	2An\	.	4An/	.	4f^/	.	.	.	4f/	2An\)	.	.	.
.	.	.	.	4c\	.	4e-^/	.	8ff\L	.	4c/)	.	.	8ff\L	.
.	.	.	.	.	.	.	.	8ee-\J	.	.	.	.	8ee-\J	.
*	*	*	*	*	*	*	*	*	*	*	*v	*v	*	*
!!LO:PB:g=original
=116	=116	=116	=116	=116	=116	=116	=116	=116	=116	=116	=116	=116	=116
*	*	*	*	*	*	*	*	*	*	*	*	*^	*
4r	.	4B-\	.	4B-/	.	4d/	.	4dd\	.	4B-/ 4f	4r	4dd\	4ryy	.
!	!	!	!	!	!	!	!	!LO:S:color=dodgerblue	!	!	!	!	!	!
4B-\	.	4B-\	.	4d\	.	4f/	.	(8.b-^TT\L	.	4d/	4BB-\ 4B-	4b-/	2.f\	.
.	.	.	.	.	.	.	.	32an\LL	.	.	.	.	.	.
.	.	.	.	.	.	.	.	32b-\JJJ	.	.	.	.	.	.
4An\	.	4An\	.	4c\	.	4f/	.	4cc\)	.	4An/ 4c	4AAn\	4cc/	.	.
4A-X\	.	4A-X\	.	4B-\	.	4f/	.	4dd\	.	4A-X/ 4B-	4AA-X\	4b-/ 4dd	.	.
=117	=117	=117	=117	=117	=117	=117	=117	=117	=117	=117	=117	=117	=117	=117
4G\	.	4G\	.	4B-\	.	4e-/	.	4ee-\	.	4G/ 4B-	4GG\	4b-/ 4ee-	2e-\	.
4A-\	.	8A-\L	.	8c\L	.	8e-/L	.	8cc\L	.	4A-/ 4c	4AA-\	4a-/ 4cc	.	.
.	.	8A-\J	.	8c\J	.	8e-/J	.	8cc\J	.	.	.	.	.	.
4G\	.	4G\	.	4.B-^\	.	4.b-^/	.	4.ee-^\	.	4G/ [4B-	4GG\	4.e-/ [>4.b- 4.ee-	2ryy	.
4F\	.	4F\	.	.	.	.	.	.	.	8B-/L]	4FF\ 4F	.	.	.
.	.	.	.	8d\	.	8a-/	.	8ff\	.	8d/J	.	8f/ 8b-] 8ff	.	.
*	*	*	*	*	*	*	*	*	*	*	*	*v	*v	*
=118	=118	=118	=118	=118	=118	=118	=118	=118	=118	=118	=118	=118	=118
!	!	!	!	!	!	!	!	!	!	!	!	!LO:TX:a:t=O:color=red	!
4E-\	.	4E-\	.	4e-\	.	4g/	.	4gg\	.	8E-/ 8B- 8e-	8EE-\	8g/ 8b- 8gg	.
.	.	.	.	.	.	.	.	.	.	8r	8ryy	8r	.
8.E-\L	.	8.E-\L	.	8.B-/L	.	8.g/L	.	8.ee-\L	.	2G/ 2B- 2e-	2E-\	2g/ 2b- 2ee-	.
16E-\Jk	.	16E-\Jk	.	16B-/Jk	.	16g/Jk	.	16ee-\Jk	.	.	.	.	.
4E-\	.	4E-\	.	4B-/	.	4g/	.	4ee-\	.	.	.	.	.
4E-\	.	4E-\	.	4B-/	.	4g/	.	4ee-\	.	(4e-/	(4E-\ 4G 4B-	(<4g/ 4b- (>4ee-	.
=119	=119	=119	=119	=119	=119	=119	=119	=119	=119	=119	=119	=119	=119
*	*	*2\right	*	*	*	*	*	*	*	*	*	*	*
2d-X^\	.	2d-X^\	.	4f\	.	(8a-/L	.	8ff^\L	.	2A-/) [2d-X	2D-X\)	2f/) 2a- 2dd-X 2ff)	.
.	.	.	.	.	.	8f/	.	8f\	.	.	.	.	.
!	!	!	!	!	!	!	!	!LO:ACC:color=dodgerblue	!	!	!	!	!
.	.	.	.	(8a-\L	.	8a-/	.	8dd-X\	.	.	.	.	.
!	!	!	!	!	!	!LO:SIC:v:s=8dd-	!	!	!	!	!	!	!
.	.	.	.	8f\J)	.	8dd/J)	.	8ff\J	.	.	.	.	.
2B-^\	.	2B-^\	.	4e-\	.	(8b-/L	.	8gg^\L	.	2d-/]	2BB-\ 2B-	2g/ 2b- 2ee- 2gg	.
.	.	.	.	.	.	8e-/	.	8b-\	.	.	.	.	.
.	.	.	.	(8b-\L	.	8g/	.	8ee-\	.	.	.	.	.
.	.	.	.	8e-\J)	.	8b-/J)	.	8gg\J	.	.	.	.	.
=120	=120	=120	=120	=120	=120	=120	=120	=120	=120	=120	=120	=120	=120
8A-\	.	8c\	.	8e-\	.	8a-/	.	8aa-\	.	8A-/ 8c	8AA-\	8a-/ 8ee- 8aa-	.
8r	.	8r	.	8r	.	8r	.	8r	.	8r	8ryy	8r	.
!LO:TX:t=Col Vcelli	!	!	!	!	!	!	!	!	!	!	!	!	!
8.A-\Lyy	.	8.A-\L	.	8.c\L 8.e-	.	8.c/L 8.e-	.	8.a-/L	.	2A-/	2AA-\	2c/ 2e- 2a-	.
16A-\Jkyy	.	16A-\Jk	.	16c\Jk 16e-	.	16c/Jk 16e-	.	16a-/Jk	.	.	.	.	.
4A-\yy	.	4A-\	.	4c\ 4e-	.	4c/ 4e-	.	4a-/	.	.	.	.	.
4A-\yy	.	4A-\	.	4c\ 4e-	.	4c/ 4e-	.	4a-/	.	(4A-/	4AA-\	N(<4c/ 4e- (>4a-	.
=121	=121	=121	=121	=121	=121	=121	=121	=121	=121	=121	=121	=121	=121
*	*	*	*	*	*	*	*	*	*	*	*	*^	*
!	!	!	!	!	!	!LO:ACC:color=dodgerblue	!	!	!	!	!	!	!	!
2G-X^\yy	.	2G-X^\	.	(8e-\L	.	(8g-X^/L	.	(8b-/L	.	2G-X/)	2GG-X\	[<2g-X/ 2b-)	2d-X\N)	.
.	.	.	.	8B-\)	.	8B-/)	.	8e-/)	.	.	.	.	.	.
.	.	.	.	(8B-\	.	(8B-/	.	(8e-/	.	.	.	.	.	.
.	.	.	.	8e-\J)	.	8g-/J)	.	8b-/J)	.	.	.	.	.	.
2E-^\yy	.	2E-^\	.	(8e-\L	.	(8g-/L	.	(8cc/L	.	2E-/ 2A-	2EE-\	2cc/	2g-\] 2a-	.
.	.	.	.	8c\	.	8e-/	.	8e-/	.	.	.	.	.	.
.	.	.	.	8f\	.	8a-/	.	8a-/	.	.	.	.	.	.
.	.	.	.	8e-\J)	.	8g-/J)	.	8cc/J)	.	.	.	.	.	.
*	*	*	*	*	*	*	*	*	*	*	*	*v	*v	*
!!LO:PB:g=original
=122	=122	=122	=122	=122	=122	=122	=122	=122	=122	=122	=122	=122	=122
8D-X\yy	.	8D-X\	.	8a-\	.	8f/	.	8dd-X\	.	8D-X/ 8A-	8DD-X\	8f/ 8a- 8dd-X	.
8ryy	.	8r	.	8r	.	8r	.	8r	.	8r	8ryy	8r	.
8.d-X\Lyy	.	8.d-X\L	.	8.a-\L	.	8.f/L	.	8.dd-\L	.	2A-/ 2d-X	2D-X\	2f/ 2a- 2dd-	.
16d-\Jkyy	.	16d-\Jk	.	16a-\Jk	.	16f/Jk	.	16dd-\Jk	.	.	.	.	.
4d-\yy	.	4d-\	.	4a-\	.	4f/	.	4dd-\	.	.	.	.	.
4d-\yy	.	4d-\	.	4a-\	.	4f/	.	4dd-\	.	4A-/ 4d-	(4D-\	(>(<4f/ 4a- 4dd-	.
=123	=123	=123	=123	=123	=123	=123	=123	=123	=123	=123	=123	=123	=123
2c-X^\yy	.	2c-X^\	.	8cc-X^\L	.	8g-X^/L	.	8ee-^\L	.	2c-X/	2C-X\)	2e-/)) 2g-X 2cc-X 2ee-	.
.	.	.	.	8e-\	.	8e-/	.	8a-\	.	.	.	.	.
.	.	.	.	8a-\	.	8a-/	.	8a-\	.	.	.	.	.
!	!	!	!	!LO:TX:t=P:problem:♭ above	!	!	!	!	!	!	!	!	!
.	.	.	.	8g-X\J	.	8g-/J	.	8ee-\J	.	.	.	.	.
2A-^\yy	.	2A-^\	.	8f\L	.	8f^/L	.	8ff^\L	.	2A-/ [2d-X	2AA-\	2f/ 2cc- 2ff	.
.	.	.	.	8a-\	.	8a-/	.	8a-\	.	.	.	.	.
!	!	!	!	!	!	!LO:ACC:color=dodgerblue	!	!LO:ACC:color=dodgerblue	!	!	!	!	!
.	.	.	.	8dd-X\	.	8dd-X/	.	8dd-X\	.	.	.	.	.
.	.	.	.	8a-\J	.	8ff/J	.	8ff\J	.	.	.	.	.
=124	=124	=124	=124	=124	=124	=124	=124	=124	=124	=124	=124	=124	=124
*	*	*	*	*	*	*	*	*	*	*	*	*^	*
8G-X\yy	.	8G-X\	.	8b-\	.	8gg-X/	.	8gg-X\	.	8G-X/ 8d-]	8GG-X\	8g-X/ 8b- 8gg-X	2ryy	.
8ryy	.	8r	.	8r	.	8r	.	8r	.	8r	8ryy	8r	.	.
8G-\Lyy	.	8G-\L	.	8g-X\L	.	8B-/L 8g-X	.	8B-/L 8g-X	.	8G-/L	8G-\L	2B-/ 2g-	.	.
8F\Jyy	.	8F\J	.	8f\J	.	8B-/J 8g-	.	8B-/J 8g-	.	8A-/J	8F\J	.	.	.
4E-\yy	.	4E-\	.	4e-\	.	4B-/ 4g-	.	4B-/ 4g-	.	4G-/	4E-\	.	4ryy	.
4D-X/yy	.	4D-X/	.	4d-X\	.	4B-/ 4g-	.	4B-/ 4g-	.	4B-/	4D\	4g-/	4g-\	.
=125	=125	=125	=125	=125	=125	=125	=125	=125	=125	=125	=125	=125	=125	=125
*	*	*	*	*2\left	*	*	*	*	*	*	*	*	*	*
!	!	!	!	!	!	!	!	!LO:TX:t=P:problem:mixed beam	!	!	!	!	!	!
4C/yy	.	4C/	.	2e-\	.	(8g-X^/L	.	(8ee-^>\L	.	1A-	4C\	2ee-/	2g-X\ 2a-	.
.	.	.	.	.	.	8e-/)	.	8e-/)	.	.	.	.	.	.
4AA-/yy	.	4AA-/	.	.	.	(8a-/	.	(8a-/	.	.	4AA-\	.	.	.
.	.	.	.	.	.	8e-/J)	.	8g-X/J)	.	.	.	.	.	.
!	!	!	!	!LO:ACC:color=dodgerblue	!	!LO:ACC:color=dodgerblue	!	!	!	!	!	!	!	!
4D-X\yy	.	4D-X\	.	(8d-X\L	.	(8d-X^/L	.	(8f/L	.	.	4D-X\	2dd-X/	2f\	.
.	.	.	.	8f\J)	.	8f/)J	.	8a-/J)	.	.	.	.	.	.
!	!	!	!	!LO:TX:t=P:problem:mixed beam	!	!	!	!	!	!	!	!	!	!
4F\yy	.	4F\	.	(8d-\L	.	(8d-/L	.	(8a-/L	.	.	4F\	.	.	.
!	!	!	!	!	!	!	!	!LO:ACC:color=dodgerblue	!	!	!	!	!	!
.	.	.	.	8A-/J)	.	8a-/J)	.	8dd-X/J)	.	.	.	.	.	.
*	*	*	*	*	*	*	*	*	*	*	*	*v	*v	*
=126	=126	=126	=126	=126	=126	=126	=126	=126	=126	=126	=126	=126	=126
!	!LO:DY:rj:color=green	!	!LO:DY:rj:color=green	!	!LO:DY:rj:color=green	!	!LO:DY:rj:color=green	!	!LO:DY:rj:color=green	!	!	!	!
4AA-/yy	ffy	4AA-/	ff	8c\ 8e-	ff	8e-/	ff	8cc\	ff	(4AA-/ 4A-	1AA-	2e-/ 2a- 2cc	.
.	.	.	.	4c\ 4e-	.	4c/ 4e-	.	4a-/	.	.	.	.	.
4C/yy	.	4C/	.	.	.	.	.	.	.	4C/	.	.	.
.	.	.	.	4c\ 4e-	.	4c/ 4e-	.	4a-/	.	.	.	.	.
4E-/yy	.	4E-/	.	.	.	.	.	.	.	4E-/	.	2r	.
.	.	.	.	4c\ 4e-	.	4c/ 4e-	.	4a-/	.	.	.	.	.
4A-\yy	.	4A-\	.	.	.	.	.	.	.	4A-/)	.	.	.
.	.	.	.	[>8c\ [>8e-	.	[<8c/ [<8e-	.	[8a-/	.	.	.	.	.
=127	=127	=127	=127	=127	=127	=127	=127	=127	=127	=127	=127	=127	=127
*rep	*	*rep	*	*rep	*	*	*	*	*	*	*	*	*
4AA-/yy	.	4AA-/	.	8c\] 8e-]	.	8c/] 8e-]	.	8a-/]	.	1AA- 1C 1E- 1A-	1AA-	1c 1e- 1a-	.
.	.	.	.	4c\ 4e-	.	4c/ 4e-	.	4a-/	.	.	.	.	.
4C/yy	.	4C/	.	.	.	.	.	.	.	.	.	.	.
.	.	.	.	4c\ 4e-	.	4c/ 4e-	.	4a-/	.	.	.	.	.
4E-/yy	.	4E-/	.	.	.	.	.	.	.	.	.	.	.
.	.	.	.	4c\ 4e-	.	4c/ 4e-	.	4a-/	.	.	.	.	.
4A-\yy	.	4A-\	.	.	.	.	.	.	.	.	.	.	.
.	.	.	.	8c\ 8e-	.	8c/ 8e-	.	8a-/	.	.	.	.	.
*Xrep	*	*Xrep	*	*Xrep	*	*	*	*	*	*	*	*	*
*	*	*	*	*	*	*	*	*	*	*v	*v	*	*
!!LO:PB:g=original
=128	=128	=128	=128	=128	=128	=128	=128	=128	=128	=128	=128	=128
4AAn/yy	.	4AAn/	.	8c#X\ 8en	.	8c#X/ 8en	.	8g/	.	1AAn 1C#X 1En 1An	[1c#X [1en 1g	.
.	.	.	.	4c#\ 4e	.	4c#/ 4e	.	4g/	.	.	.	.
4C#X/yy	.	4C#X/	.	.	.	.	.	.	.	.	.	.
.	.	.	.	4c#\ 4e	.	4c#/ 4e	.	4g/	.	.	.	.
4En\yy	.	4En\	.	.	.	.	.	.	.	.	.	.
.	.	.	.	4c#\ 4e	.	4c#/ 4e	.	4g/	.	.	.	.
4An\yy	.	4An\	.	.	.	.	.	.	.	.	.	.
.	.	.	.	[>8c#\ [>8e	.	[>8c#/ [>8e	.	8g/	.	.	.	.
=129	=129	=129	=129	=129	=129	=129	=129	=129	=129	=129	=129	=129
*	*	*	*	*rep	*	*rep	*	*	*	*	*	*
4AA#X/yy	.	4AA#X/	.	8c#\] 8e]	.	8c#/] 8e]	.	8f#X/	.	1AA#X 1C#X 1F#X 1A#X	1c#] 1e] 1f#X	.
.	.	.	.	4c#X\ 4en	.	4c#X/ 4en	.	4f#/	.	.	.	.
4C#X/yy	.	4C#X/	.	.	.	.	.	.	.	.	.	.
.	.	.	.	4c#\ 4e	.	4c#/ 4e	.	4f#/	.	.	.	.
4F#X\yy	.	4F#X\	.	.	.	.	.	.	.	.	.	.
.	.	.	.	4c#\ 4e	.	4c#/ 4e	.	4f#/	.	.	.	.
4A#X\yy	.	4A#X\	.	.	.	.	.	.	.	.	.	.
.	.	.	.	8c#\ 8e	.	8c#/ 8e	.	[8f#/	.	.	.	.
*	*	*	*	*Xrep	*	*Xrep	*	*	*	*	*	*
=130	=130	=130	=130	=130	=130	=130	=130	=130	=130	=130	=130	=130
4BBn/yy	.	4BBn/	.	8d#X\	.	8d#X/	.	8f#/]	.	1BBn 1D#X 1F#X 1Bn	[<2.d#X/ [<2.f#X	.
!	!	!	!	!	!	!	!	!LO:SIC:v:s=4f#	!	!	!	!
.	.	.	.	4d#\	.	4d#/	.	4fny/	.	.	.	.
4D#X/yy	.	4D#X/	.	.	.	.	.	.	.	.	.	.
!	!	!	!	!	!	!	!	!LO:SIC:v:s=4f#	!	!	!	!
.	.	.	.	4d#\	.	4d#/	.	4f/	.	.	.	.
4F#X/yy	.	4F#X/	.	.	.	.	.	.	.	.	.	.
!	!	!	!	!	!	!	!	!LO:SIC:v:s=4f#	!	!	!	!
.	.	.	.	4d#\	.	4d#/	.	4f/	.	.	.	.
4Bn\yy	.	4Bn\	.	.	.	.	.	.	.	.	4d#/] 4f#] 4bn	.
!	!	!	!	!	!	!	!	!LO:SIC:v:n=2:s=8f#	!	!	!	!
.	.	.	.	(8d#\	.	8d#/	.	8f/ 8bn	.	.	.	.
=131	=131	=131	=131	=131	=131	=131	=131	=131	=131	=131	=131	=131
4En\yy	.	4En\	.	8Bn\) 8en	.	8Bn/ 8en	.	8g#X/ 8bn	.	1EEn 1En 1G#X 1Bn	[1en 1g#X 1bn	.
.	.	.	.	4B\ 4e	.	4B/ 4e	.	4g#/ 4b	.	.	.	.
4G#X\yy	.	4G#X\	.	.	.	.	.	.	.	.	.	.
.	.	.	.	4B\ 4e	.	4B/ 4e	.	4g#/ 4b	.	.	.	.
4Bn\yy	.	4Bn\	.	.	.	.	.	.	.	.	.	.
.	.	.	.	4B\ 4e	.	4B/ 4e	.	4g#/ 4b	.	.	.	.
4E\yy	.	4E\	.	.	.	.	.	.	.	.	.	.
.	.	.	.	8B\ 8e	.	8B/ 8e	.	8g#/ 8b	.	.	.	.
=132	=132	=132	=132	=132	=132	=132	=132	=132	=132	=132	=132	=132
4C#X\yy	.	4C#X\	.	8c#X\ 8en	.	8c#X/ 8en	.	8f#X/ 8a#X	.	1CC#X 1C#X 1F#X 1A#X 1c#X	(>1e] 1f#X 1a#X	.
.	.	.	.	4c#\ 4e	.	4c#/ 4e	.	4f#/ 4a#	.	.	.	.
4En\yy	.	4En\	.	.	.	.	.	.	.	.	.	.
.	.	.	.	4c#\ 4e	.	4c#/ 4e	.	4f#/ 4a#	.	.	.	.
4F#X\yy	.	4F#X\	.	.	.	.	.	.	.	.	.	.
.	.	.	.	4c#\ 4e	.	4c#/ 4e	.	4f#/ 4a#	.	.	.	.
4C#\yy	.	4C#\	.	.	.	.	.	.	.	.	.	.
.	.	.	.	8c#\ 8e	.	8c#/ 8e	.	8f#/ 8a#	.	.	.	.
=133	=133	=133	=133	=133	=133	=133	=133	=133	=133	=133	=133	=133
*	*	*	*	*	*	*	*	*	*	*^	*	*
*	*	*	*	*	*	*	*	*	*	*	*^	*	*
!	!	!	!	!	!	!	!	!LO:ACC:n=1:color=dodgerblue	!	!	!LO:SIC:v:n=2:s=1F#	!	!	!
4D\yy	.	4D\	.	8d\	.	8d/	.	8f#X/ 8an	.	2.dn/	1F 1An	2.DD\ 2.Dn	1f#X) 1an	.
.	.	.	.	4d\	.	4d/	.	4f#/ 4a	.	.	.	.	.	.
4F#X\yy	.	4F#X\	.	.	.	.	.	.	.	.	.	.	.	.
.	.	.	.	4d\	.	4d/	.	4f#/ 4a	.	.	.	.	.	.
4An\yy	.	4An\	.	.	.	.	.	.	.	.	.	.	.	.
.	.	.	.	(8d\L	.	(8d/L	.	4f#/ 4a	.	.	.	.	.	.
!	!	!	!	!	!	!	!	!	!	!LO:SIC:v:s=4c#/	!	!	!	!
4C#X\yy	.	4C#X\	.	8d-X\)	.	8d-X/)	.	.	.	4c/	.	4CC#X\ 4C#X	.	.
.	.	.	.	8d-\J	.	8d-/J	.	8f#/ 8a	.	.	.	.	.	.
*	*	*	*	*	*	*	*	*	*	*	*v	*v	*	*
!!LO:PB:g=original
=134	=134	=134	=134	=134	=134	=134	=134	=134	=134	=134	=134	=134	=134
*	*	*	*	*	*	*	*	*	*	*	*	*^	*
4Cn\yy	.	4Cn\	.	8g-X\	.	8e-X/	.	8an/	.	1E-X 1A-X 1c	1CCn 1Cn	(2an/	1e-X 1g-X	.
.	.	.	.	4g-\	.	4e-/	.	4a/	.	.	.	.	.	.
4E-X\yy	.	4E-X\	.	.	.	.	.	.	.	.	.	.	.	.
.	.	.	.	4g-\	.	4e-/	.	(8a/	.	.	.	.	.	.
4A-X\yy	.	4A-X\	.	.	.	.	.	8a-X/)	.	.	.	2a-X/)	.	.
.	.	.	.	4g-\	.	4e-/	.	4a-/	.	.	.	.	.	.
4C\yy	.	4C\	.	.	.	.	.	.	.	.	.	.	.	.
.	.	.	.	8g-\	.	8a-X/	.	8a-/	.	.	.	.	.	.
*	*	*	*	*	*	*	*	*	*	*	*	*v	*v	*
=135	=135	=135	=135	=135	=135	=135	=135	=135	=135	=135	=135	=135	=135
4D-X\yy	.	4D-X\	.	8f\	.	8a-/	.	8ff\	.	1F 1A- 1d-X	1DD-X 1D-X	1f 1a- 1dd-X 1ff	.
.	.	.	.	4A-/	.	4d-X/	.	4f/	.	.	.	.	.
4F\yy	.	4F\	.	.	.	.	.	.	.	.	.	.	.
.	.	.	.	4d-X\	.	4f/	.	4a-/	.	.	.	.	.
4A-\yy	.	4A-\	.	.	.	.	.	.	.	.	.	.	.
.	.	.	.	4f\	.	4a-/	.	4dd-X\	.	.	.	.	.
4F\yy	.	4F\	.	.	.	.	.	.	.	.	.	.	.
.	.	.	.	8a-\	.	8dd-X\	.	8ff\	.	.	.	.	.
=136	=136	=136	=136	=136	=136	=136	=136	=136	=136	=136	=136	=136	=136
*	*	*	*	*	*	*	*	*	*	*	*	*^	*
4D-X\yy	.	4D-X\	.	8g\	.	8b-\	.	8ff\	.	1E- 1B-	1DD-X 1D-X	2ff/	1g 1b-	.
.	.	.	.	4B-/	.	4e-/	.	4g/	.	.	.	.	.	.
4D-\yy	.	4D-\	.	.	.	.	.	.	.	.	.	.	.	.
.	.	.	.	4e-\	.	4g/	.	4g/ 4b-	.	.	.	.	.	.
4D-\yy	.	4D-\	.	.	.	.	.	.	.	.	.	2ee-/	.	.
.	.	.	.	4e-\	.	4g/	.	4b-\	.	.	.	.	.	.
4D-\yy	.	4D-\	.	.	.	.	.	.	.	.	.	.	.	.
.	.	.	.	8g\	.	8b-/	.	8ee-\	.	.	.	.	.	.
=137	=137	=137	=137	=137	=137	=137	=137	=137	=137	=137	=137	=137	=137	=137
4C\yy	.	4C\	.	8a-\	.	8ee-\	.	8aa-\	.	1E- 1A- 1c 1e-	1CC 1C	2.ee-/ 2.aa-	[1a-	.
.	.	.	.	4A-/	.	4c/	.	4e-/	.	.	.	.	.	.
8E-\Lyy	.	8E-\L	.	.	.	.	.	.	.	.	.	.	.	.
8A-\Jyy	.	8A-\J	.	4c/	.	4e-/	.	4a-/	.	.	.	.	.	.
4c\yy	.	4c\	.	.	.	.	.	.	.	.	.	.	.	.
.	.	.	.	4e-/	.	4a-/	.	4cc/	.	.	.	.	.	.
4A-\yy	.	4A-\	.	.	.	.	.	.	.	.	.	4cc/ 4ee-	.	.
.	.	.	.	8a-\	.	8cc\	.	8ee-\	.	.	.	.	.	.
*	*	*	*	*	*	*	*	*	*	*	*	*v	*v	*
=138	=138	=138	=138	=138	=138	=138	=138	=138	=138	=138	=138	=138	=138
*	*	*	*	*	*	*	*	*	*	*	*^	*	*
4F\yy	.	4F\	.	8a-\	.	8a-/	.	8ee-\	.	1e-	[2E-/ 2F 2A-	2FF\	2a-/] 2cc 2ee-	.
.	.	.	.	4A-/	.	4A-/	.	4e-/	.	.	.	.	.	.
(4F^\yy	.	(4F^\	.	.	.	.	.	.	.	.	.	.	.	.
.	.	.	.	(8a-\	.	(8a-/	.	4b-/	.	.	.	.	.	.
!	!	!	!	!	!	!	!	!	!	!	!	!	!LO:SIC:v:n=1:s=2dd-	!
4G\)yy	.	4G\)	.	8b-\)	.	8b-/)	.	.	.	.	2E-/] 2G 2B-	2GG\	2b-/ 2dd	.
.	.	.	.	4B-/	.	4B-/	.	4e-/	.	.	.	.	.	.
4G^\yy	.	4G^\	.	.	.	.	.	.	.	.	.	.	.	.
.	.	.	.	8e-\	.	8b-/	.	8dd-X\	.	.	.	.	.	.
*	*	*	*	*	*	*	*	*	*	*v	*v	*v	*	*
=139	=139	=139	=139	=139	=139	=139	=139	=139	=139	=139	=139	=139
!	!	!	!	!LO:TX:t=P:problem:mixed beam	!	!	!	!LO:TX:t=P:problem:mixed beam	!	!	!	!
4A-\yy	.	4A-\	.	(>8e-\L	.	(8a-/L	.	(>8cc\L	.	1AA- 1E- 1A- 1c	1e- 1a- 1cc	.
.	.	.	.	8A-/J)	.	8A-/J)	.	8c/J)	.	.	.	.
4E-\yy	.	4E-\	.	(8A-/L	.	(8A-/L	.	8c/L	.	.	.	.
.	.	.	.	8c/J)	.	8c/J)	.	8e-/J	.	.	.	.
4C/yy	.	4C/	.	(8c/L	.	(8c/L	.	(8e-/L	.	.	.	.
.	.	.	.	8e-/J)	.	8e-/J)	.	8a-/J)	.	.	.	.
4AA-/yy	.	4AA-/	.	(8e-\L	.	(8e-/L	.	(8a-\L	.	.	.	.
.	.	.	.	8a-\J)	.	8a-/J)	.	8cc\J)	.	.	.	.
!!LO:PB:g=original
=140	=140	=140	=140	=140	=140	=140	=140	=140	=140	=140	=140	=140
*	*	*	*	*	*	*	*	*	*	*^	*^	*
4C\yy	.	4C\	.	8a-\L	.	(8cc/L	.	(8ee-\L	.	4C/	1C	2ee-/	[2e-\ 2a-	.
.	.	.	.	8e-\	.	8a-/J)	.	8cc\J)	.	.	.	.	.	.
4E-\yy	.	4E-\	.	8c\	.	(8a-/L	.	(8a-/L	.	4E-/	.	.	.	.
.	.	.	.	8A-\J	.	8e-/J)	.	8e-/J)	.	.	.	.	.	.
4A-\yy	.	4A-\	.	8A-\L	.	8c/L	.	(8e-\L	.	4A-/	.	2a-/	2e-\]	.
.	.	.	.	8c\	.	8e-/	.	8a-\	.	.	.	.	.	.
4c\yy	.	4c\	.	8e-\	.	8a-/	.	8cc\	.	4c/	.	.	.	.
.	.	.	.	8a-\J	.	8cc/J	.	8ee-\J)	.	.	.	.	.	.
=141	=141	=141	=141	=141	=141	=141	=141	=141	=141	=141	=141	=141	=141	=141
*	*	*	*	*2\right	*	*	*	*	*	*	*	*	*	*
!	!	!	!	!	!	!LO:ACC:color=dodgerblue	!	!	!	!	!	!	!	!
2B-^\yy	.	2B-^\	.	2b-\	.	4a-|\ 4dd-X	.	4ff|\	.	8F/L 8d	1BB-	2f/ 2a- 2dd [2ff	2ryy	.
.	.	.	.	.	.	.	.	.	.	8A-/	.	.	.	.
!	!	!	!	!	!	!	!	!LO:ACC:color=dodgerblue	!	!	!	!	!	!
.	.	.	.	.	.	2a-^\ 2dd-	.	2dd-X^\ 2ff	.	8B-/	.	.	.	.
.	.	.	.	.	.	.	.	.	.	8d/J	.	.	.	.
2BB-^/yy	.	2BB-^/	.	2B-/	.	.	.	.	.	2ryy	.	2ff/]	8f\L	.
.	.	.	.	.	.	.	.	.	.	.	.	.	8a-\	.
.	.	.	.	.	.	4f/	.	4a-/	.	.	.	.	8b-\	.
.	.	.	.	.	.	.	.	.	.	.	.	.	8dd\J	.
=142	=142	=142	=142	=142	=142	=142	=142	=142	=142	=142	=142	=142	=142	=142
!	!	!	!	!LO:ACC:color=dodgerblue	!	!	!	!	!	!	!	!	!	!
4E-\yy	.	4E-\	.	4d-X\	.	4e-/	.	4g/	.	2B-/	1EE- 1E-	[2ee-/	8g\L	.
.	.	.	.	.	.	.	.	.	.	.	.	.	8dd\	.
!	!	!	!	!	!	!LO:ACC:color=dodgerblue	!	!	!	!	!	!	!	!
4ryy	.	4r	.	2g@^\ 2b-	.	2d-X^>/ 2g	.	2g^\ 2ee-	.	.	.	.	8b-\	.
.	.	.	.	.	.	.	.	.	.	.	.	.	[8g\J	.
2E-^\yy	.	2E-^\	.	.	.	.	.	.	.	8e-/L	.	2ee-/]	2g\]	.
.	.	.	.	.	.	.	.	.	.	8d/	.	.	.	.
!	!	!	!	!	!	!	!	!LO:SIC:v:s=8dd-\L	!	!	!	!	!	!
.	.	.	.	4B-/	.	4g/	.	8dd\L	.	8B-/	.	.	.	.
.	.	.	.	.	.	.	.	8b-\J	.	8e-/J	.	.	.	.
=143||	=143||	=143||	=143||	=143||	=143||	=143||	=143||	=143||	=143||	=143||	=143||	=143||	=143||	=143||
!	!	!	!	!	!	!	!	!LO:TX:a:i:t=piu lento.	!	!	!	!LO:TX:a:i:t=piu lento	!	!
4AA-/yy	.	4AA-/	.	4c/	.	4a-/	.	4a-/	.	4A-/	4AA-\	4a-/	4a-\	.
!	!	!	!LO:DY:rj	!	!LO:DY:rj	!	!LO:DY:a:rj	!	!	!	!	!	!	!
(4A-\yy	py	(4A-\	p	(4a-\	p	(4a-/	p	4r	.	4r	4ryy	4r	4ryy	.
4G\yy	.	4G\	.	4g\	.	4g/	.	2r	.	2r	2ryy	2r	2ryy	.
4F\yy	.	4F\	.	4f\	.	4f/	.	.	.	.	.	.	.	.
*	*	*	*	*	*	*	*	*	*	*v	*v	*	*	*
*	*	*	*	*	*	*	*	*	*	*	*v	*v	*
=144	=144	=144	=144	=144	=144	=144	=144	=144	=144	=144	=144	=144
4En\yy	.	4En\	.	4en\	.	4en/	.	1r	.	1r	1r	.
4F\yy	.	4F\	.	4f\	.	4f/	.	.	.	.	.	.
4C\yy	.	4C\	.	4c\	.	4c/	.	.	.	.	.	.
4D-X\)yy	.	4D-X\)	.	[4f\)	.	[>4f/	.	.	.	.	.	.
=145	=145	=145	=145	=145	=145	=145	=145	=145	=145	=145	=145	=145
1Dnyy	.	1Dn	.	1f]	.	4f/])	.	4r	.	1r	1r	.
!	!	!	!	!	!	!	!	!	!LO:DY:rj	!	!	!
.	.	.	.	.	.	(>4cc\	.	(>4cc\	p	.	.	.
.	.	.	.	.	.	4b-/	.	4b-\	.	.	.	.
.	.	.	.	.	.	4a-/)	.	4a-\	.	.	.	.
=146	=146	=146	=146	=146	=146	=146	=146	=146	=146	=146	=146	=146
(>2E-\yy	.	(2E-\	.	1e-	.	(2g/	.	4g/	.	1r	1r	.
.	.	.	.	.	.	.	.	4gg\	.	.	.	.
4F\yy	.	4F\	.	.	.	4a-/	.	4ff\)	.	.	.	.
4G\)yy	.	4G\)	.	.	.	4b-/)	.	4ee-\	.	.	.	.
=147	=147	=147	=147	=147	=147	=147	=147	=147	=147	=147	=147	=147
1A-yy	.	1A-	.	(4c\	.	1a-	.	(>4ee-\	.	1r	1r	.
.	.	.	.	4Bn\	.	.	.	4dd\	.	.	.	.
.	.	.	.	4dn\	.	.	.	4ff\	.	.	.	.
.	.	.	.	4c\)	.	.	.	4ee-\	.	.	.	.
=148	=148	=148	=148	=148	=148	=148	=148	=148	=148	=148	=148	=148
(4AA-/yy	.	(4AA-/	.	2f\	.	(4b-/	.	4dd\	.	1r	1r	.
4C/yy	.	4C/	.	.	.	4a-/	.	4cc\	.	.	.	.
4En/yy	.	4En/	.	(4d-X\	.	4g/	.	4b-\	.	.	.	.
4F/)yy	.	4F/)	.	4c\)	.	4f/)	.	4a-/)	.	.	.	.
!!LO:PB:g=original
=149	=149	=149	=149	=149	=149	=149	=149	=149	=149	=149	=149	=149
*	*	*	*	*	*	*	*	*	*	*^	*	*
1BB-	.	8BB-/	.	8B-/	.	2e-/	.	2g/	.	4r	1r	1r	.
.	.	8r	.	8r	.	.	.	.	.	.	.	.	.
.	.	4B-^\	.	4B-^>/	.	.	.	.	.	(<4B-/	.	.	.
.	.	(8An\L	.	(8An/L	.	(>2e-\ 2cc	.	2g-X/	.	8An/L	.	.	.
.	.	8G-X\	.	8G-X/	.	.	.	.	.	8G-X/	.	.	.
.	.	8E-\	.	8E-/	.	.	.	.	.	8E-/	.	.	.
.	.	8C\J)	.	8C/J)	.	.	.	.	.	8C/J)	.	.	.
*	*	*	*	*	*	*	*	*	*	*v	*v	*	*
=150	=150	=150	=150	=150	=150	=150	=150	=150	=150	=150	=150	=150
1ryy	.	1BB-	.	4F/	.	2e-/)	.	4f/	.	1BB- 1BB-	1r	.
.	.	.	.	8G/L	.	.	.	8g/L	.	.	.	.
.	.	.	.	8A-/J	.	.	.	8a-/J	.	.	.	.
.	.	.	.	2A-/	.	2d/	.	4.cc\	.	.	.	.
.	.	.	.	.	.	.	.	8b-\	.	.	.	.
=151||	=151||	=151||	=151||	=151||	=151||	=151||	=151||	=151||	=151||	=151||	=151||	=151||
!!LO:TX:t=pag 21.:color=green
!!LO:TX:t=Come sopra # = # 5 taktów
*M4/4	*	*M4/4	*	*M4/4	*	*M4/4	*	*M4/4	*	*M4/4	*M4/4	*
*met(c)	*	*met(c)	*	*met(c)	*	*met(c)	*	*met(c)	*	*met(c)	*met(c)	*
*	*	*	*	*	*	*	*	*	*	*^	*	*
*2\right	*	*	*	*	*	*	*	*	*	*2\right	*	*	*
!	!	!	!	!	!	!	!LO:DY:rj	!LO:TX:a:t=#:color=red	!LO:DY:rj	!	!	!LO:TX:a:i:t=tempo 1mo:color=dodgerblue	!
[2E-\	.	8E-\L	.	8E-/L	.	2e-/	mf	2g/ 2b-	mf	8ryy	[2EE-\	[2e-/ 2g 2b-	.
.	.	8BB-\	.	8B-/	.	.	.	.	.	8BB-/L	.	.	.
.	.	8E-\	.	8G/	.	.	.	.	.	8E-/	.	.	.
.	.	8G\J	.	8B-/J	.	.	.	.	.	8G/J	.	.	.
8E-\]	.	8e-\	.	8e-\	.	8B-/L	.	8G/L 8g	.	8B-/	8EE-\]	8e-/] 8g	.
8r	.	8r	.	8r	.	8e-/	.	8e-/	.	8r	8ryy	8e-/L	.
4r	.	4r	.	4r	.	8g/	.	8g/	.	4r	4ryy	8g/	.
.	.	.	.	.	.	8b-/J	.	8b-/J	.	.	.	8b-/J	.
=152	=152	=152	=152	=152	=152	=152	=152	=152	=152	=152	=152	=152	=152
*rep	*	*	*	*	*	*	*	*2\right	*	*	*	*2\right	*
[2E-\	.	8E-\L	.	8E-/L	.	2g/ 2b-	.	2g\ 2ee-	.	8r	[2EE-\	[<2e-\ [<2g 2ee-	.
.	.	8E-\	.	8E-/	.	.	.	.	.	8E-/L	.	.	.
.	.	8G\	.	8G/	.	.	.	.	.	8G/	.	.	.
.	.	8B-\J	.	8B-/J	.	.	.	.	.	8B-/J	.	.	.
8E-\]	.	8e-\	.	8e-\	.	8B-/L 8g	.	8b-/L	.	8E-/ 8G	8EE-\]	8e-/] 8g] 8b-	.
8r	.	8r	.	8r	.	8B-/	.	8B-/	.	8r	8ryy	8B-/L	.
4r	.	4r	.	4r	.	8e-/	.	8e-/	.	4r	4ryy	8G/	.
.	.	.	.	.	.	8f/J	.	8f/J	.	.	.	8B-/J	.
*Xrep	*	*	*	*	*	*	*	*	*	*	*	*	*
=153	=153	=153	=153	=153	=153	=153	=153	=153	=153	=153	=153	=153	=153
*	*	*	*	*	*	*	*	*	*	*	*	*^	*
*	*	*2\right	*	*2\right	*	*tremolo	*	*tremolo	*	*	*	*	*	*
1E-	.	2e-\	.	2e-\	.	8g/L	.	8g/L	.	2B-/	1E-	2g/	1e-	.
.	.	.	.	.	.	8B-/	.	8B-/	.	.	.	.	.	.
.	.	.	.	.	.	8g/	.	8g/	.	.	.	.	.	.
.	.	.	.	.	.	8B-/J	.	8B-/J	.	.	.	.	.	.
*	*	*	*	*	*	*Xtremolo	*	*Xtremolo	*	*	*	*	*	*
.	.	4c\	.	4c\	.	8a-/L	.	8a-/L	.	4c/	.	4a-/	.	.
.	.	.	.	.	.	8e-/	.	8e-/	.	.	.	.	.	.
.	.	4A-\	.	4A-/	.	8f/	.	8f/	.	4A-/	.	4f/	.	.
.	.	.	.	.	.	8b-/J	.	8b-/J	.	.	.	.	.	.
*	*	*	*	*	*	*	*	*	*	*	*	*v	*v	*
=154	=154	=154	=154	=154	=154	=154	=154	=154	=154	=154	=154	=154	=154
1E-	.	8G\L	.	8B-/	.	2e-/	.	2g/ 2b-	.	8G/	2EE-\	2e-/ 2b-	.
.	.	8BB-\	.	8B-/L	.	.	.	.	.	8BB-/L	.	.	.
.	.	8E-\	.	8E-/	.	.	.	.	.	8E-/	.	.	.
.	.	8G\J	.	8G/J	.	.	.	.	.	8G/J	.	.	.
.	.	8B-\	.	8B-/	.	8r	.	8r	.	8B-/	2E-\	8r	.
.	.	8r	.	8r	.	8B-/L	.	8B-/L	.	8ryy	.	8B-/L	.
.	.	4r	.	4r	.	8e-/	.	8e-/	.	4ryy	.	8e-/	.
.	.	.	.	.	.	8g/J	.	8g/J	.	.	.	8g/J	.
!!LO:PB:g=original
=155	=155	=155	=155	=155	=155	=155	=155	=155	=155	=155	=155	=155	=155
1GG	.	2d\	.	[2G\ 2d	.	8g/L	.	8b-/L	.	2ryy	1GG 1G	2d/ 2g 2b-	.
.	.	.	.	.	.	8d/	.	8d/	.	.	.	.	.
.	.	.	.	.	.	8g/	.	8b-/	.	.	.	.	.
.	.	.	.	.	.	8d/J	.	8g/J	.	.	.	.	.
.	.	4e-\	.	4G\] 4e-	.	8e-/L	.	8cc/L	.	4ryy	.	4e-/ 4g 4cc	.
.	.	.	.	.	.	8g/	.	8g/	.	.	.	.	.
!	!	!	!	!	!	!	!	!	!	!	!	!LO:SIC:v:n=1:s=4an	!
.	.	8d\L	.	8d\L	.	8f#X/	.	8an/	.	8d/L	.	4f#X/ 4a-	.
!	!	!	!	!	!	!	!	!LO:TX:a:t=#:color=red	!	!	!	!	!
.	.	8c\J	.	8c\J	.	8d/J	.	8d/J	.	8c/J	.	.	.
=156	=156	=156	=156	=156	=156	=156	=156	=156	=156	=156	=156	=156	=156
*	*	*	*	*	*	*	*	*	*	*	*^	*^	*
!LO:TX:t=Col Vcelli	!LO:HP:b:color=dodgerblue	!	!LO:HP:b:color=dodgerblue	!	!LO:HP:b:color=dodgerblue	!	!LO:HP:b:color=dodgerblue	!LO:TX:t=P:problem:mixed beam	!	!	!	!	!	!	!
(2G\yy	<	(2G\	<	4B-/	<	(4g/	<	(8dd\L	.	1B-	2G\	2GG\	1dd	4g\	.
!	!	!	!	!	!	!	!	!	!LO:HP:b:color=dodgerblue	!	!	!	!	!	!
.	.	.	.	.	.	.	.	8d/	<	.	.	.	.	.	.
.	.	.	.	2d\	.	4b-/	.	8dd\	.	.	.	.	.	4b-\	.
.	.	.	.	.	.	.	.	8d/J	.	.	.	.	.	.	.
!	!	!	!	!	!	!	!	!LO:TX:t=P:problem:mixed beam	!	!	!	!	!	!	!
4F#X\yy	.	4F#X\	.	.	.	4an/	.	8dd\L	.	.	4F#X/	4FF#X\	.	4an\	.
.	.	.	.	.	.	.	.	8d/	.	.	.	.	.	.	.
4Fn\)yy	[[	4Fn\)	[[	4B-/	[[	4a-X/)	[[	8dd\)	.	.	4Fn/	4FFn\	.	4a-X\	.
.	.	.	.	.	.	.	.	8dd\J	[	.	.	.	.	.	.
=157	=157	=157	=157	=157	=157	=157	=157	=157	=157	=157	=157	=157	=157	=157	=157
!	!LO:DY:rj:color=dodgerblue	!	!LO:DY:rj:color=dodgerblue	!	!LO:DY:rj:color=dodgerblue	!	!LO:DY:rj:color=dodgerblue	!	!LO:DY:rj:color=dodgerblue	!	!	!	!	!	!
4E-\yy	mfy	4E-\	mf	(8g\L	mf	(8g/L	mf	4ee-\	mf	1B-	4E-/	4EE-\	4g/ 4ee-	2ryy	.
.	.	.	.	8e-\)	.	8e-/)	.	.	.	.	.	.	.	.	.
8F\Lyy	.	8F\L	.	(8a-\	.	(8a-/	.	8dd\L	.	.	8F/L	8FF\L	8a-/L 8dd	.	.
8G\Jyy	.	8G\J	.	8b-\J)	.	8b-/J)	.	8ee-\J	.	.	8G/J	8GG\J	8b-/J 8ee-	.	.
4A-\yy	.	4A-\	.	(8b-\L	.	(8b-/L	.	4ff\	.	.	4A-/	4AA-\	4ff/	8b-\L	.
.	.	.	.	16cc\L	.	16cc/L	.	.	.	.	.	.	.	16cc\L	.
.	.	.	.	16b-\JJ)	.	16b-/JJ)	.	.	.	.	.	.	.	16b-\JJ	.
4F\yy	.	4F\	.	(8a-\L	.	(8a-/L	.	4cc\	.	.	4F/ 4c	4FF\	4cc/	8a-\L	.
.	.	.	.	8f\J)	.	8f/J)	.	.	.	.	.	.	.	8f\J	.
*	*	*	*	*	*	*	*	*	*	*	*v	*v	*	*	*
=158	=158	=158	=158	=158	=158	=158	=158	=158	=158	=158	=158	=158	=158	=158
!	!LO:HP:b:color=dodgerblue	!	!LO:HP:b:color=dodgerblue	!	!LO:HP:b:color=dodgerblue	!	!LO:HP:b:color=dodgerblue	!	!LO:HP:b:color=dodgerblue	!	!	!	!	!
2B-\yy	>	2B-\	>	(8g\L	>	(8g/L	>	2ee-\	>	4B-/	1BB-	2ee-/	4g\	.
.	.	.	.	8e-\	.	8e-/	.	.	.	.	.	.	.	.
.	.	.	.	8B-\)	.	8B-/)	.	.	.	4G/	.	.	4e-\	.
.	.	.	.	8b-\J	.	8b-/J	.	.	.	.	.	.	.	.
2BB-/yy	]]	2BB-/	]]	(8f\L	]	(8f/L	]	2dd\	]	2A-/	.	2dd/	2f\	.
.	.	.	.	8g\	.	8g/	.	.	.	.	.	.	.	.
.	.	.	.	8b-\	.	8b-/	.	.	.	.	.	.	.	.
.	.	.	.	8f\J)	.	8f/J)	.	.	.	.	.	.	.	.
=159	=159	=159	=159	=159	=159	=159	=159	=159	=159	=159	=159	=159	=159	=159
2E-\	.	4E-\	.	(8g\L	.	(8g/L	.	4ee-\	.	2G/	2EE-\	4ee-/	4e-\	.
.	.	.	.	8e-\J)	.	8e-/J)	.	.	.	.	.	.	.	.
*	*	*clefC4	*	*	*	*	*	*	*	*	*	*	*	*
.	.	4g^\	.	(8b-\L	.	(8b-/L	.	4gg^\	.	.	.	4r	4ryy	.
.	.	.	.	8e-\J)	.	8e-/J)	.	.	.	.	.	.	.	.
2r	.	(8f\L	.	2r	.	2r	.	(8ff\L	.	2r	2ryy	2r	2ryy	.
.	.	8e-\	.	.	.	.	.	8ee-\	.	.	.	.	.	.
.	.	8d\	.	.	.	.	.	8dd\	.	.	.	.	.	.
.	.	8c\J)	.	.	.	.	.	8cc\J)	.	.	.	.	.	.
*	*	*	*	*	*	*	*	*	*	*v	*v	*	*	*
*	*	*	*	*	*	*	*	*	*	*	*v	*v	*
=160	=160	=160	=160	=160	=160	=160	=160	=160	=160	=160	=160	=160
*	*	*	*	*	*	*tremolo	*	*	*	*	*	*
!	!	!	!	!	!	!	!	!	!	!	!LO:TX:a:t=Pausen:color=red	!
!	!	!	!	!	!	!	!	!	!	!	!LO:TX:t=P:problem:rest.color=green	!
2C/	.	4.B-\	.	(8B-\L	.	(8g-X/L	.	4.b-\	.	1r	1r@	.
.	.	.	.	8e-\	.	8e-/	.	.	.	.	.	.
.	.	.	.	8g-X\	.	8g-/	.	.	.	.	.	.
.	.	8An\	.	8e-\J)	.	8e-/J)	.	8an\	.	.	.	.
*	*	*	*	*	*	*Xtremolo	*	*	*	*	*	*
*	*	*	*	*tremolo	*	*tremolo	*	*	*	*	*	*
2D/	.	4.B-\	.	(8f\L	.	(8f/L	.	4.b-\	.	.	.	.
.	.	.	.	8B-\	.	8B-/	.	.	.	.	.	.
.	.	.	.	8f\	.	8f/	.	.	.	.	.	.
.	.	8A-X\	.	8B-\J)	.	8B-/J)	.	8a-X\	.	.	.	.
*	*	*	*	*Xtremolo	*	*Xtremolo	*	*	*	*	*	*
!!LO:PB:g=original
=161	=161	=161	=161	=161	=161	=161	=161	=161	=161	=161	=161	=161
!	!	!	!	!	!	!	!	!	!	!	!LO:TX:t=P:problem:rest.color=green	!
4E-/	.	4.G/	.	(8e-\L	.	(8e-/L	.	4.g/	.	1r	1r@	.
.	.	.	.	8B-\	.	8B-/	.	.	.	.	.	.
4r	.	.	.	8g\J)	.	8g/J)	.	.	.	.	.	.
.	.	8g\	.	8r	.	8r	.	8gg\	.	.	.	.
2r	.	8f\L	.	2r	.	2r	.	8ff\L	.	.	.	.
.	.	8e-\	.	.	.	.	.	8ee-\	.	.	.	.
.	.	8d\	.	.	.	.	.	8dd\	.	.	.	.
.	.	8c\J	.	.	.	.	.	8cc\J	.	.	.	.
=162	=162	=162	=162	=162	=162	=162	=162	=162	=162	=162	=162	=162
*	*	*	*	*tremolo	*	*tremolo	*	*	*	*	*	*
!	!	!	!	!	!	!	!	!	!	!	!LO:TX:t=P:problem:rest.color=green	!
4D\	.	4.c\	.	8a-\L	.	8a-/L	.	4.cc\	.	1r	1r@	.
.	.	.	.	8f\	.	8f/	.	.	.	.	.	.
4r	.	.	.	8a-\	.	8a-/	.	.	.	.	.	.
.	.	8Bn\	.	8f\J	.	8f/J	.	8bn\	.	.	.	.
*	*	*	*	*Xtremolo	*	*Xtremolo	*	*	*	*	*	*
*	*	*	*	*tremolo	*	*tremolo	*	*	*	*	*	*
!	!	!	!	!LO:TX:t=P:problem:mixed beam	!	!	!	!	!	!	!	!
4En\	.	4.c\	.	8g\L	.	8g/L	.	4.cc\	.	.	.	.
.	.	.	.	8G/	.	8G/	.	.	.	.	.	.
4r	.	.	.	8g\	.	8g/	.	.	.	.	.	.
.	.	8B-X\	.	8G/J	.	8G/J	.	8b-X\	.	.	.	.
*	*	*	*	*Xtremolo	*	*Xtremolo	*	*	*	*	*	*
=163	=163	=163	=163	=163	=163	=163	=163	=163	=163	=163	=163	=163
!	!	!	!	!	!	!	!	!	!	!	!LO:TX:t=P:problem:rest.color=green	!
4F\	.	4A-\	.	(8f\L	.	(8f/L	.	4a-/	.	1r	1r@	.
.	.	.	.	8c\	.	8c/)	.	.	.	.	.	.
4r	.	8r	.	8a-\J)	.	8a-/J	.	8r	.	.	.	.
!	!	!	!	!LO:TX:t=P:problem:brak 8r 2r	!	!	!	!	!	!	!	!
.	.	8c\	.	8ryy	.	8r	.	8cc\	.	.	.	.
2r	.	8B-/L	.	2ryy	.	2r	.	8b-/L	.	.	.	.
.	.	8A-/	.	.	.	.	.	8a-/	.	.	.	.
.	.	8G/	.	.	.	.	.	8g/	.	.	.	.
.	.	8F/J	.	.	.	.	.	8f/J	.	.	.	.
=164	=164	=164	=164	=164	=164	=164	=164	=164	=164	=164	=164	=164
*	*	*	*	*tremolo	*	*tremolo	*	*	*	*	*	*
!	!	!	!	!	!	!	!	!	!	!	!LO:TX:t=P:problem:rest.color=green	!
(4AA-/	.	8.F/L	.	(8F/L	.	(8A-/L	.	8.e-/L	.	1r	1r@	.
.	.	.	.	8B-/	.	8B-/	.	.	.	.	.	.
.	.	16E-/Jk	.	.	.	.	.	16d/Jk	.	.	.	.
4BBn/	.	4f^\	.	8F/	.	8A-/	.	4ff^\	.	.	.	.
.	.	.	.	8B-/J)	.	8B-/J)	.	.	.	.	.	.
*	*	*	*	*Xtremolo	*	*Xtremolo	*	*	*	*	*	*
*	*	*	*	*tremolo	*	*tremolo	*	*	*	*	*	*
4C/	.	8e-\L	.	(8f\L	.	(8a-/L	.	8ee-\L	.	.	.	.
.	.	8d\	.	8B-\	.	8B-/	.	8dd\	.	.	.	.
4D/)	.	8c\	.	8f\	.	8a-/	.	8cc\	.	.	.	.
.	.	8B-\J	.	8B-\J)	.	8B-/J)	.	8b-\J	.	.	.	.
*	*	*clefF4	*	*Xtremolo	*	*Xtremolo	*	*	*	*	*	*
=165	=165	=165	=165	=165	=165	=165	=165	=165	=165	=165	=165	=165
!	!	!	!	!	!	!	!	!	!	!	!LO:TX:t=P:problem:rest.color=green	!
4E-\	.	8E-\L	.	8e-/L	.	4.g/ 4.b-	.	4.gg\	.	1r	1r@	.
.	.	8G'\	.	8G|/	.	.	.	.	.	.	.	.
4r	.	8B-'\J	.	8B-|/J	.	.	.	.	.	.	.	.
.	.	8r	>	8r	.	8g/ 8b-	.	8ee-\	.	.	.	.
4AA-/	.	8AA-'\L	.	8r	.	4.e-/ 4.cc	>	4.ee-\	>	.	.	.
.	.	8E-'\	.	8E-|/L	.	.	.	.	.	.	.	.
4r	.	8c'\J	.	8c|/J	.	.	.	.	.	.	.	.
!	!	!	!	!LO:TX:t=P:problem:brak 8r	!	!	!	!	!	!	!	!
.	.	8ryy	.	8ryy	.	8a-/	.	8cc\	.	.	.	.
=166	=166	=166	=166	=166	=166	=166	=166	=166	=166	=166	=166	=166
!	!	!	!	!	!	!	!	!	!	!	!LO:TX:t=P:problem:rest.color=green	!
4BB-/	.	8BB-|/L	.	8r	.	4.e-/	.	4.g/ 4.b-	.	1r	1r@	.
.	.	8E-|/	.	8E-|/L	.	.	.	.	.	.	.	.
4r	.	8B-|/J	.	8B-|/J	.	.	.	.	.	.	.	.
.	.	8r	.	8r	.	8e-/	.	8g/	.	.	.	.
4BB-/	.	8BB-/L	]	8r	.	4.d/	]	4.f/	]	.	.	.
.	.	8F/	.	8F|/L	.	.	.	.	.	.	.	.
4r	.	8B-/J	.	8B-|/J	.	.	.	.	.	.	.	.
.	.	8r	.	8r	.	8d/	.	8a-/	.	.	.	.
!	!	!	!	!	!	!	!	!	!	!	!LO:TX:t=P:problem:barlines.color=red	!
!!LO:PB:g=original
=167	=167	=167	=167	=167	=167	=167	=167	=167	=167	=167	=167	=167
*	*	*	*	*	*	*	*	*	*	*ped	*	*
!	!	!	!	!LO:S:color=green	!	!LO:S:color=green	!	!	!	!	!LO:TX:a:t=U:color=red	!
!	!	!LO:S:color=green	!	!LO:TX:t=P:problem:note&stem.color=green	!	!	!	!	!	!	!	!
1E-	.	(8E-\L	.	(8G@/L	.	(8e-/L	.	4.g/	.	1EE- 1E-	4r	.
!	!	!	!	!LO:TX:t=P:problem:note&stem.color=green	!	!	!	!	!	!	!	!
.	.	8G\	.	8B-@/	.	8g/	.	.	.	.	.	.
!	!	!	!	!LO:TX:t=P:problem:note&stem.color=green	!	!	!	!	!	!	!LO:TX:t=P:problem:rest.color=green	!
.	.	8B-\J)	.	8e-@/J)	.	8b-/J)	.	.	.	.	8r@	.
*	*	*clefC4	*	*	*	*	*	*	*	*	*	*
!	!	!LO:ART:color=green	!	!LO:ART:color=green	!	!LO:ART:color=green	!	!LO:ART:color=green	!	!	!	!
.	.	8g^\	.	8g^\	.	8gg^\	.	8gg^\	.	.	(8g/ 8gg	.
.	.	(8f\L	.	(8f\L	.	(8ff\L	.	(8ff\L	.	.	8f/L 8ff	.
.	.	8e-\	.	8e-\	.	8ee-\	.	8ee-\	.	.	8e-/ 8ee-	.
.	.	8d\	.	8d\	.	8dd\	.	8dd\	.	.	8d/ 8dd	.
.	.	8c\J)	.	8c\J)	.	8cc\J)	.	8cc\J)	.	.	8c/J) 8cc	.
=168	=168	=168	=168	=168	=168	=168	=168	=168	=168	=168	=168	=168
*	*	*	*	*	*	*	*	*	*	*^	*^	*
*	*	*	*	*	*	*	*	*	*	*	*^	*	*	*
2C/	.	4.B-\	.	8B-\L	.	8b-/L	.	4.b-/	.	4.B-/	2C/ 2E- 2G-X	2CC\	4.b-/	8g-X\L	.
.	.	.	.	8e-\	.	8e-/	.	.	.	.	.	.	.	8e-\	.
.	.	.	.	8g-X\	.	8g-X/	.	.	.	.	.	.	.	8g-\	.
.	.	8An\	.	8e-\J	.	8e-/J	.	8an/	.	8An/	.	.	8an/	8e-\J	.
*	*	*	*	*tremolo	*	*tremolo	*	*	*	*	*	*	*	*	*
2D/	.	4.B-\	.	8f\L	.	8f/L	.	4.b-/	.	8B-/	2BB-/ 2D 2F	2DD\	4.b-/	8f\L	.
.	.	.	.	8B-\	.	8B-/	.	.	.	8r	.	.	.	8B-\	.
.	.	.	.	8f\	.	8f/	.	.	.	8r	.	.	.	8f\	.
.	.	8A-X\	.	8B-\J	.	8B-/J	.	8a-X/	.	8A-X/	.	.	8f/ 8a-X	8B-\J	.
*	*	*	*	*Xtremolo	*	*Xtremolo	*	*	*	*	*	*	*	*	*
*	*	*	*	*	*	*	*	*	*	*	*v	*v	*	*	*
=169	=169	=169	=169	=169	=169	=169	=169	=169	=169	=169	=169	=169	=169	=169
!	!	!LO:S:color=green	!	!LO:S:color=green	!	!LO:S:color=green	!	!	!	!	!	!	!	!
1E-	.	(8G\L	.	(8e-\L	.	(8e-/L	.	4.g/	.	2BB-/ 2E- 2G	1EE-	(4g/	8e-\L	.
.	.	8B-\	.	8B-\	.	8B-/	.	.	.	.	.	.	8B-\	.
.	.	8e-\)	.	8e-\)	.	8g/J)	.	.	.	.	.	8b-/)	8g\J	.
!	!	!LO:ART:color=green	!	!LO:ART:color=green	!	!LO:ART:color=green	!	!LO:ART:color=green	!	!	!	!	!	!
.	.	8g^\J	.	8g^\J	.	8gg^\	.	8gg^\	.	.	.	8g/ 8gg	8ryy	.
.	.	(8f\L	.	(8f\L	.	(8ff\L	.	(8ff\L	.	2E-/ 2G 2B-	.	8f/L 8ff	2ryy	.
.	.	8e-\	.	8e-\	.	8ee-\	.	8ee-\	.	.	.	8e-/ 8ee-	.	.
.	.	8d\	.	8d\	.	8dd\	.	8dd\	.	.	.	8d/ 8dd	.	.
.	.	8c\J)	.	8c\J)	.	8cc\J)	.	8cc\J)	.	.	.	8c/J 8cc	.	.
=170	=170	=170	=170	=170	=170	=170	=170	=170	=170	=170	=170	=170	=170	=170
*	*	*	*	*	*	*	*	*	*	*	*^	*	*	*
!	!	!	!	!	!	!	!	!	!	!	!	!	!LO:N:vis=2.	!	!
2D\	.	4.c\	.	8c\L	.	8cc/L	.	4.cc\	.	4.c/	2D/ 2F 2A-	2DD\	4.cc/	8a-X\L	.
.	.	.	.	8f\	.	8f/	.	.	.	.	.	.	.	8f\	.
.	.	.	.	8a-X\	.	8a-X/	.	.	.	.	.	.	.	8a-\	.
.	.	8Bn\	.	8f\J	.	8f/J	.	8bn\	.	8Bn/	.	.	8bn/	8f\J	.
*	*	*	*	*tremolo	*	*tremolo	*	*	*	*	*	*	*	*	*
2En\	.	4.c\	.	8g\L	.	8g/L	.	4.cc\	.	8c/	2C/ 2En 2G	2EEn\	4.cc/	8g\L	.
.	.	.	.	8c\	.	8c/	.	.	.	8r	.	.	.	8c\	.
.	.	.	.	8g\	.	8g/	.	.	.	8r	.	.	.	8g\	.
.	.	8B-X\	.	8c\J	.	8c/J	.	8b-X\	.	8B-X/	.	.	8g/ 8b-X	8c\J	.
*	*	*	*	*Xtremolo	*	*Xtremolo	*	*	*	*	*	*	*	*	*
*	*	*	*	*	*	*	*	*	*	*	*v	*v	*	*	*
=171	=171	=171	=171	=171	=171	=171	=171	=171	=171	=171	=171	=171	=171	=171
!	!	!LO:S:color=green	!	!LO:S:color=green	!	!LO:S:color=green	!	!	!	!	!	!	!	!
1F	.	(8A-\L	.	(8a-\L	.	(8a-/L	.	4.a-/	.	2C/ 2F 2A-	2FF\	(8a-/L	4.ryy	.
.	.	8f\	.	8f\	.	8f/	.	.	.	.	.	8f/	.	.
.	.	8c\J)	.	8c\J)	.	8c/J)	.	.	.	.	.	8c/J)	.	.
!	!	!LO:ART:color=green	!	!LO:ART:color=green	!	!LO:ART:color=green	!	!LO:ART:color=green	!	!	!	!	!	!
.	.	8c^\	.	8c^/	.	8cc^\	.	8cc^\	.	.	.	8cc/	8r	.
.	.	(8B-/L	.	(8B-/L	.	(8b-/L	.	(8b-/L	.	8B-/L	4F\	8b-/L	2c\	.
.	.	8A-/	.	8A-/	.	8a-/	.	8a-/	.	8A-/	.	8a-/	.	.
.	.	8G/	.	8G/	.	8g/	.	8g/	.	8G/	4ryy	8g/	.	.
.	.	8F/J)	.	8F/J)	.	8f/J)	.	8f/J)	.	8F/J	.	8f/J	.	.
=172	=172	=172	=172	=172	=172	=172	=172	=172	=172	=172	=172	=172	=172	=172
4BB-/	.	8.E-/L	.	8A-/	.	(8f/L	.	8.e-/L	.	8A-/L	4BB-\	8.e-/L	2ryy	.
!	!	!	!	!LO:TX:t=P:problem:mixed beam	!	!	!	!	!	!	!	!	!	!
.	.	.	.	(>8A-/L	.	8A-/J)	.	.	.	8F/	.	.	.	.
.	.	16D/Jk	.	.	.	.	.	16d/Jk	.	.	.	16e-/Jk	.	.
!	!	!LO:TX:t=P:problem:mixed beam	!	!	!	!LO:TX:t=P:problem:mixed beam	!	!LO:TX:t=P:problem:mixed beam	!	!	!	!	!	!
4BBn/	.	8D/L	.	8f\J)	.	(>8a-/L	.	8d/L	.	8A-/	4BBn\	8d/	.	.
!	!	!LO:ART:color=green	!	!LO:ART:color=green	!	!LO:ART:color=green	!	!LO:ART:color=green	!	!	!	!	!	!
.	.	8f^\J	.	8f^\	.	8ff^\J)	.	8ff^\J	.	8F/J	.	8f/ 8ff	.	.
4C/	.	(8e-\L	.	(8e-\L	.	(8ee-\L	.	(8ee-\L	.	2F/	4C\	8e-/L 8ee-	2a-\	.
.	.	8d\	.	8d\	.	8dd\	.	8dd\	.	.	.	8d/ 8dd	.	.
4D/	.	8c\	.	8c\	.	8cc\	.	8cc\	.	.	4D\	8c/ 8cc	.	.
.	.	8B-\J)	.	8B-\J)	.	8b-\J)	.	8b-\J)	.	.	.	8B-/J 8b-	.	.
*	*	*	*	*	*	*	*	*	*	*	*	*v	*v	*
!!LO:PB:g=original
=173	=173	=173	=173	=173	=173	=173	=173	=173	=173	=173	=173	=173	=173
!	!	!	!	!	!	!	!	!	!	!	!	!	!LO:DY:rj
2E-\	.	4.e-^\	.	(4e-\	.	(8b-/L	.	(8gg\L	.	4.G/ 4.B- 4.e-	2E-\	4.g\ 4.b- 4.ee- 4.gg	f
.	.	.	.	.	.	8g/	.	8b-\	.	.	.	.	.
.	.	.	.	8B-\L)	.	8e-/)	.	8g\)	.	.	.	.	.
.	.	8E-/	.	8b-|\J	.	8g|/J	.	8ee-|\J	.	8G/ 8B- 8e-	.	8g\ 8b- 8ee-	.
2A-\	.	4.A-/	.	(>4a-\	.	(8cc/L	.	(8ee-\L	.	4.E-/ 4.G 4.c 4.e-	2AA-\	4.e-/ 4.a- 4.cc 4.ee-	.
.	.	.	.	.	.	8e-/	.	8a-\	.	.	.	.	.
.	.	.	.	8A-/L)	.	8c/)	.	8e-\)	.	.	.	.	.
*	*	*clefF4	*	*	*	*	*	*	*	*	*	*	*
.	.	8A-/	.	8e-|/J	.	8a-|/J	.	8cc|\J	.	8E-/ 8A- 8c	.	8e-/ 8a- 8cc	.
=174	=174	=174	=174	=174	=174	=174	=174	=174	=174	=174	=174	=174	=174
2B-\	.	4.B-/	.	(8B-/L	.	(8g/L	.	(8ee-\L	.	4.E-/ 4.G 4.B-	1BB-	4.e-/ 4.g 4.b- 4.ee-	.
.	.	.	.	8e-/	.	8e-/	.	8b-\	.	.	.	.	.
.	.	.	.	8G/)	.	8B-/)	.	8e-\)	.	.	.	.	.
.	.	8B-/	.	8B-|/J	.	8e-|/J	.	8g|\J	.	8G/ 8B-	.	8e-/ 8g	.
2BB-/	.	4.BB-/	.	8B-/	.	(8d/L	.	(8g/L	.	[4.B-/	.	[4.d/ 4.g	.
.	.	.	.	4B-/	.	8B-/	.	8B-/	.	.	.	.	.
.	.	.	.	.	.	8d/)	.	8d/)	.	.	.	.	.
.	.	8BB-/	.	8B-/	.	8A-/J	.	8f/J	.	8A-/ 8B-]	.	8d/] 8f	.
*	*	*	*	*	*	*	*	*	*	*v	*v	*	*
=175	=175	=175	=175	=175	=175	=175	=175	=175	=175	=175	=175	=175
!	!	!	!	!	!	!LO:TX:t=Col 1m	!	!	!	!	!LO:TX:t=P:problem:dynamika na środku taktu	!
[1E-	.	[1EE-	.	[1E-	.	8e-/yy	.	8e-/	.	[1EE- 1G 1B-	1e-	p
!	!	!	!	!	!	!	!LO:DY:rj	!	!LO:DY:rj	!	!	!
.	.	.	.	.	.	(8e-/Lyy	py <	(8e-/L	p <	.	.	.
.	.	.	.	.	.	8g/yy	.	8g/	.	.	.	.
.	.	.	.	.	.	8a-/J)yy	.	8a-/J)	.	.	.	.
.	.	.	.	.	.	(8b-\Lyy	.	(8b-\L	.	.	.	.
.	.	.	.	.	.	8ee-\yy	.	8ee-\	.	.	.	.
.	.	.	.	.	.	8gg\yy	.	8gg\	.	.	.	.
.	.	.	.	.	.	8aa-\J)yy	[[	8aa-\J)	[[	.	.	.
=176	=176	=176	=176	=176	=176	=176	=176	=176	=176	=176	=176	=176
*	*	*	*	*	*	*	*	*	*	*^	*	*
*rep	*	*rep	*	*rep	*	*	*	*	*	*rep	*	*rep	*
1E-_	.	1EE-_	.	1E-_	.	(8bb-\Lyy	.	(8bb-\L	.	1G 1B-	1EE-_	1e-	.
.	.	.	.	.	.	8gg\yy	>	8gg\	>	.	.	.	.
.	.	.	.	.	.	8ee-\yy	.	8ee-\	.	.	.	.	.
.	.	.	.	.	.	8b-\J)yy	.	8b-\J)	.	.	.	.	.
.	.	.	.	.	.	(8cc/Lyy	.	(8cc/L	.	.	.	.	.
.	.	.	.	.	.	8b-/yy	.	8b-/	.	.	.	.	.
.	.	.	.	.	.	8g/yy	]	8g/	]	.	.	.	.
.	.	.	.	.	.	8e-/J)yy	.	8e-/J)	.	.	.	.	.
*Xrep	*	*Xrep	*	*Xrep	*	*	*	*	*	*Xrep	*	*Xrep	*
*	*	*	*	*	*	*	*	*	*	*v	*v	*	*
=177	=177	=177	=177	=177	=177	=177	=177	=177	=177	=177	=177	=177
*rep	*	*rep	*	*rep	*	*	*	*	*	*	*	*
1E-_	.	1EE-_	.	1E-_	.	(8c/Lyy	.	(8c/L	.	1EE-_ 1A- 1c	1e-	.
.	.	.	.	.	.	8e-/yy	<	8e-/	<	.	.	.
.	.	.	.	.	.	8a-/yy	.	8a-/	.	.	.	.
.	.	.	.	.	.	8b-/J)yy	.	8b-/J)	.	.	.	.
.	.	.	.	.	.	(8cc\Lyy	.	(8cc\L	.	.	.	.
.	.	.	.	.	.	8ee-\yy	[	8ee-\	[	.	.	.
.	.	.	.	.	.	8aa-\yy	.	8aa-\	.	.	.	.
.	.	.	.	.	.	8gg\J)yy	.	8gg\J)	.	.	.	.
*Xrep	*	*Xrep	*	*Xrep	*	*	*	*	*	*	*	*
!!LO:PB:g=original
=178	=178	=178	=178	=178	=178	=178	=178	=178	=178	=178	=178	=178
*rep	*	*rep	*	*rep	*	*	*	*	*	*	*	*
!	!	!	!	!	!	!	!	!	!	!LO:TX:t=P:problem:brak zakończenia łuku	!	!
1E-_	.	1EE-_	.	1E-_	.	(8ff\Lyy	.	(8ff\L	.	1EE-] 1F 1A- 1B-	1d 1f	.
.	.	.	.	.	.	8dd\yy	.	8dd\	.	.	.	.
.	.	.	.	.	.	8b-\yy	.	8b-\	.	.	.	.
.	.	.	.	.	.	8cc\J)yy	.	8cc\J)	.	.	.	.
.	.	.	.	.	.	(8b-/Lyy	.	(8b-/L	.	.	.	.
.	.	.	.	.	.	8a-/yy	.	8a-/	.	.	.	.
.	.	.	.	.	.	8f/yy	.	8f/	.	.	.	.
.	.	.	.	.	.	8b-/J)yy	.	8b-/J)	.	.	.	.
*Xrep	*	*Xrep	*	*Xrep	*	*	*	*	*	*	*	*
=179	=179	=179	=179	=179	=179	=179	=179	=179	=179	=179	=179	=179
*rep	*	*rep	*	*rep	*	*	*	*	*	*	*	*
1E-_	.	1EE-_	.	1E-_	.	(8g/Lyy	.	(8g/L	.	[>1EE- [>1E- [>1G [>1B-	[>1e- [>1g	.
.	.	.	.	.	.	8e-/yy	.	8e-/	.	.	.	.
.	.	.	.	.	.	8g/yy	.	8g/	.	.	.	.
.	.	.	.	.	.	8a-/J)yy	.	8a-/J)	.	.	.	.
.	.	.	.	.	.	(8b-\Lyy	.	(8b-\L	.	.	.	.
.	.	.	.	.	.	8ee-\yy	.	8ee-\	.	.	.	.
.	.	.	.	.	.	8gg\yy	.	8gg\	.	.	.	.
.	.	.	.	.	.	8bb-\J)yy	.	8bb-\J)	.	.	.	.
*Xrep	*	*Xrep	*	*Xrep	*	*	*	*	*	*	*	*
=180	=180	=180	=180	=180	=180	=180	=180	=180	=180	=180	=180	=180
*rep	*	*rep	*	*rep	*	*	*	*	*	*rep	*rep	*
1E-]	.	1EE-]	.	1E-]	.	(8ccc\Lyy	.	(8ccc\L	.	1EE-] 1E-] 1G] 1B-]	1e-] 1g]	.
.	.	.	.	.	.	8bb-\yy	.	8bb-\	.	.	.	.
.	.	.	.	.	.	8gg\yy	.	8gg\	.	.	.	.
.	.	.	.	.	.	8ee-\J)yy	.	8ee-\J)	.	.	.	.
.	.	.	.	.	.	(8ff\Lyy	.	(8ff\L	.	.	.	.
.	.	.	.	.	.	8ee-\yy	.	8ee-\	.	.	.	.
.	.	.	.	.	.	8b-\yy	.	8b-\	.	.	.	.
.	.	.	.	.	.	8dd-X\J)yy	.	8dd-X\J)	.	.	.	.
*Xrep	*	*Xrep	*	*Xrep	*	*	*	*	*	*Xrep	*Xrep	*
=181	=181	=181	=181	=181	=181	=181	=181	=181	=181	=181	=181	=181
!	!	!	!	!	!	!LO:TX:t=P:problem:mixed beam	!	!LO:TX:t=P:problem:mixed beam	!	!	!	!
[<1En	.	[<1En	.	[<1En	.	(8cc\Lyy	.	(8cc\L	.	[>1EEn [>1En [>1G [>1B-	[>1c [>1g	.
.	.	.	.	.	.	8c/yy	.	8c/	.	.	.	.
.	.	.	.	.	.	8g/yy	.	8g/	.	.	.	.
.	.	.	.	.	.	8a-/J)yy	.	8a-/J)	.	.	.	.
.	.	.	.	.	.	(8b-\Lyy	.	(8b-\L	.	.	.	.
.	.	.	.	.	.	8cc\yy	.	8cc\	.	.	.	.
.	.	.	.	.	.	8gg\yy	.	8gg\	.	.	.	.
.	.	.	.	.	.	8aa-\J)yy	.	8aa-\J)	.	.	.	.
=182	=182	=182	=182	=182	=182	=182	=182	=182	=182	=182	=182	=182
*	*	*rep	*	*rep	*	*	*	*	*	*rep	*rep	*
1E]	.	1E]	.	1E]	.	(8bb-\Lyy	.	(8bb-\L	.	1EE] 1E] 1G] 1B-]	1c] 1g]	.
.	.	.	.	.	.	8gg\yy	.	8gg\	.	.	.	.
.	.	.	.	.	.	8cc\yy	.	8cc\	.	.	.	.
.	.	.	.	.	.	8dd-X\J)yy	.	8dd-X\J)	.	.	.	.
.	.	.	.	.	.	(8cc\Lyy	.	(8cc\L	.	.	.	.
.	.	.	.	.	.	8b-\yy	.	8b-\	.	.	.	.
.	.	.	.	.	.	8g\yy	.	8g\	.	.	.	.
.	.	.	.	.	.	8cc\J)yy	.	8cc\J)	.	.	.	.
*	*	*Xrep	*	*Xrep	*	*	*	*	*	*Xrep	*Xrep	*
!!LO:PB:g=original
=183	=183	=183	=183	=183	=183	=183	=183	=183	=183	=183	=183	=183
!	!	!	!	!	!	!LO:S:color=dodgerblue	!	!LO:S:color=dodgerblue	!	!	!	!
2F@\	.	2F@\	.	1F	.	(8a-/Lyy	.	(8a-/L	.	1FF 1F 1A-	1c 1a-	.
.	.	.	.	.	.	8c/yy	.	8c/	.	.	.	.
.	.	.	.	.	.	8f/yy	.	8f/	.	.	.	.
.	.	.	.	.	.	8g/J)yy	.	8g/J)	.	.	.	.
!	!	!	!	!	!	!LO:S:color=dodgerblue	!	!LO:S:color=dodgerblue	!	!	!	!
2FF@/	.	2FF@/	.	.	.	(8a-\Lyy	.	(8a-\L	.	.	.	.
.	.	.	.	.	.	8cc\yy	.	8cc\	.	.	.	.
.	.	.	.	.	.	8ff\yy	.	8ff\	.	.	.	.
.	.	.	.	.	.	8aa-\J)yy	.	8aa-\J)	.	.	.	.
=184	=184	=184	=184	=184	=184	=184	=184	=184	=184	=184	=184	=184
!	!	!	!	!	!	!LO:S:color=dodgerblue	!	!LO:S:color=dodgerblue	!	!	!	!
[1GG	.	[1GG	.	[1G	.	(8gg\Lyy	.	(8gg\L	.	1GG 1G	1c 1e- 1g	.
.	.	.	.	.	.	8ee-\yy	.	8ee-\	.	.	.	.
.	.	.	.	.	.	8cc\yy	.	8cc\	.	.	.	.
.	.	.	.	.	.	8dd\J)yy	.	8dd\J)	.	.	.	.
!	!	!	!	!	!	!LO:S:color=dodgerblue	!	!LO:S:color=dodgerblue	!	!	!	!
.	.	.	.	.	.	(8ff\Lyy	.	(8ff\L	.	.	.	.
.	.	.	.	.	.	8ee-\yy	.	8ee-\	.	.	.	.
.	.	.	.	.	.	8cc\yy	.	8cc\	.	.	.	.
.	.	.	.	.	.	8g\J)yy	.	8g\J)	.	.	.	.
=185	=185	=185	=185	=185	=185	=185	=185	=185	=185	=185	=185	=185
!	!LO:HP:b:color=dodgerblue	!	!LO:HP:b:color=dodgerblue	!	!LO:HP:b:color=dodgerblue	!LO:S:color=dodgerblue	!LO:HP:b:color=dodgerblue	!LO:S:color=dodgerblue	!LO:HP:b:color=dodgerblue	!	!	!
1GG]	<[	1GG]	<[	1G]	<[	(8b-/Lyy	<	(8b-/L	<	1GG 1G 1B-	1e- 1b-	.
.	.	.	.	.	.	8e-/yy	.	8e-/	.	.	.	.
.	.	.	.	.	.	8g/yy	.	8g/	.	.	.	.
.	.	.	.	.	.	8b-/J)yy	.	8b-/J)	.	.	.	.
!	!	!	!	!	!	!LO:S:color=dodgerblue	!	!LO:S:color=dodgerblue	!	!	!	!
.	.	.	.	.	.	(8ee-\L	.	(8ee-\L	.	.	.	.
.	.	.	.	.	.	8ff\	.	8ff\	.	.	.	.
.	.	.	.	.	.	8gg\	.	8gg\	[	.	.	.
.	.	.	.	.	.	8b-\J)	[[	8bb-\J)	.	.	.	.
=186	=186	=186	=186	=186	=186	=186	=186	=186	=186	=186	=186	=186
!	!LO:HP:b:color=dodgerblue	!	!LO:HP:b:color=dodgerblue	!	!LO:HP:b:color=dodgerblue	!	!	!LO:S:color=dodgerblue	!	!	!	!
!	!	!	!LO:DY:rj	!	!LO:DY:color=dodgerblue	!	!	!	!	!	!	!
1C	>]	1CC 1C	sf > ]]	1C 1c	sf > ]]	8ee-^\L	.	(8eee-^\L	.	1EE- 1C 1E- 1A- 1c	1e- 1a- 1ee-	.
.	.	.	.	.	.	8cc\	.	8ccc\	.	.	.	.
.	.	.	.	.	.	8aa-\	.	8aa-\	.	.	.	.
.	.	.	.	.	.	8ee-\J	.	8ee-\J)	.	.	.	.
!	!	!	!	!	!	!LO:TX:t=Col 1m	!	!	!	!	!	!
!	!	!	!	!	!	!LO:S:color=dodgerblue	!	!LO:S:color=dodgerblue	!	!	!	!
.	.	.	.	.	.	(8cc/Lyy	.	(8cc/L	.	.	.	.
.	.	.	.	.	.	8a-/yy	.	8a-/	.	.	.	.
.	.	.	.	.	.	8e-/yy	.	8e-/	.	.	.	.
.	.	.	.	.	.	8c/J)yy	.	8c/J)	.	.	.	.
=187	=187	=187	=187	=187	=187	=187	=187	=187	=187	=187	=187	=187
!LO:TX:b:i:t=ralent	!	!	!	!LO:TX:b:i:t=ralent	!	!LO:TX:b:i:t=ralent	!	!LO:TX:b:i:t=ralent	!	!	!LO:TX:b:i:t=ralent	!
!	!LO:DY:rj:color=dodgerblue	!	!LO:DY:rj:color=dodgerblue	!	!LO:DY:rj:color=dodgerblue	!LO:S:color=dodgerblue	!	!LO:S:color=dodgerblue	!	!	!	!
1FF	p	1FF	p	1C 1A-	p	(8e-/Lyy	.	(8e-/L	.	1FF 1C 1E- 1A-	1f	.
.	.	.	.	.	.	8f/yy	.	8f/	.	.	.	.
.	.	.	.	.	.	8a-/yy	.	8a-/	.	.	.	.
.	.	.	.	.	.	8cc/J)yy	.	8cc/J)	.	.	.	.
!	!	!	!	!	!	!LO:S:color=dodgerblue	!	!LO:S:color=dodgerblue	!	!	!	!
.	.	.	.	.	.	(8ee-\Lyy	.	(8ee-\L	.	.	.	.
.	.	.	.	.	.	8ff\yy	.	8ff\	.	.	.	.
.	.	.	.	.	.	8aa-\yy	.	8aa-\	.	.	.	.
.	.	.	.	.	.	8gg\J)yy	.	8gg\J)	.	.	.	.
!!LO:PB:g=original
=188	=188	=188	=188	=188	=188	=188	=188	=188	=188	=188	=188	=188
*	*	*	*	*	*	*	*	*	*	*^	*	*
1BB-	.	1BB-	.	1A- 1d	.	(8gg\Lyy	.	(8gg\L	.	2A-/	1BB-	1d 1b-	.
.	.	.	.	.	.	8ff\yy	.	8ff\	.	.	.	.	.
.	.	.	.	.	.	8dd\yy	.	8dd\	.	.	.	.	.
.	.	.	.	.	.	8b-\J)yy	.	8b-\J)	.	.	.	.	.
.	.	.	.	.	.	(8a-/Lyy	.	(8a-/L	.	4F/	.	.	.
.	.	.	.	.	.	8f/yy	.	8f/	.	.	.	.	.
.	.	.	.	.	.	8d/yy	.	8d/	.	4B-/	.	.	.
.	.	.	.	.	.	8b-/J)yy	.	8b-/J)	.	.	.	.	.
=189	=189	=189	=189	=189	=189	=189	=189	=189	=189	=189	=189	=189	=189
!	!	!LO:TX:a:i:t=a tempo 1mo	!	!	!	!	!	!LO:TX:a:i:t=a tempo 1mo	!	!	!	!LO:TX:a:i:t=a tempo 1mo:color=green	!
[1E-	.	[1E-	.	1A-	.	1e-	.	(8e-/L	.	[1E- [1G [1B-	[1EE-	(8e-/L	.
.	.	.	.	.	.	.	.	8g/	.	.	.	8g/	.
.	.	.	.	.	.	.	.	8b-/	.	.	.	8b-/	.
.	.	.	.	.	.	.	.	8ee-/J)	.	.	.	8ee-/J	.
.	.	.	.	.	.	.	.	(8gg\L	.	.	.	8gg\L	.
.	.	.	.	.	.	.	.	8ee-\	.	.	.	8ee-\	.
.	.	.	.	.	.	.	.	8b-\	.	.	.	8b-\	.
.	.	.	.	.	.	.	.	8a-\J)	.	.	.	8a-\J	.
=190	=190	=190	=190	=190	=190	=190	=190	=190	=190	=190	=190	=190	=190
1E-]	.	1E-]	.	2.G/	.	4e-/	.	(8g/L	.	2E-/_ 2G_ 2B-]	1EE-]	8g/L	.
.	.	.	.	.	.	.	.	8b-/	.	.	.	8b-/	.
.	.	.	.	.	.	(8g/L	.	8g/	.	.	.	8g/	.
.	.	.	.	.	.	8f/J	.	8f/J)	.	.	.	8f/J	.
.	.	.	.	.	.	8e-/L	.	(8e-/L	.	4E-/_< 4G]	.	8e-/L	.
.	.	.	.	.	.	8B-/	.	8B-/	.	.	.	8B-/	.
.	.	.	.	4E-/	.	8G/	.	8G/	.	4E-/]	.	8G/	.
.	.	.	.	.	.	8B-/J)	.	8B-/J)	.	.	.	8B-/J)	.
=191	=191	=191	=191	=191	=191	=191	=191	=191	=191	=191	=191	=191	=191
[1E-	.	1E-	.	2G/	.	2B-/	.	[>2e-/	.	2G/ 2B-	[1EE- [1E-	[>1e-	.
.	.	.	.	2A-/	.	2c/	.	2e-^/_>	.	2A-/ 2c	.	.	.
=192	=192	=192	=192	=192	=192	=192	=192	=192	=192	=192	=192	=192	=192
*	*	*	*	*rep	*	*rep	*	*	*	*	*	*	*
2E-\]	.	2E-\	.	2G/	.	2B-/	.	2e-^/_>	.	2G/ 2B-	2EE-\] 2E-]	1e-_>	.
2AA-/	.	2AA-/	.	2A-/	.	2c/	.	2e-^/]	.	2A-/ 2c	2AA-\	.	.
*	*	*	*	*Xrep	*	*Xrep	*	*	*	*	*	*	*
*	*	*	*	*	*	*	*	*	*	*v	*v	*	*
=193	=193	=193	=193	=193	=193	=193	=193	=193	=193	=193	=193	=193
!LO:TX:b:t=Koniec Credo.:color=dodgerblue	!	!	!	!	!	!	!	!	!	!	!	!
1E-;	.	1EE-;	.	1G;	.	1B-;	.	1e-;	.	1EE- 1BB- 1E- 1G 1B-	1e-;]	.
==	==	==	==	==	==	==	==	==	==	==	==	==
*-	*-	*-	*-	*-	*-	*-	*-	*-	*-	*-	*-	*-
!!!system-decoration: [(s1,s2)][(s3,s4,s5,s6,s7)]
!!!RDF**kern: < = below
!!!RDF**kern: > = above
!!!RDF**kern: | = vertical stroke
!!!RDF**kern: N = linked
!!!RDF**kern: @ = marked note, color="dodgerblue"
!!!ENC: Marta Chmielewska
!!!END: 2021-07-13
!!!ENC: Katarzyna Serwa
!!!END: 2021-07-10
